P3
600 600
255
0 0 0
0 0 0
0 0 0
0 0 0
0 0 0
0 0 0
0 0 0
0 0 0
0 0 0
0 0 0
0 0 0
0 0 0
0 0 0
0 0 0
0 0 0
0 0 0
0 0 0
0 0 0
0 0 0
0 0 0
0 0 0
0 0 0
0 0 0
0 0 0
0 0 0
0 0 0
0 0 0
0 0 0
0 0 0
0 0 0
0 0 0
0 0 0
0 0 0
0 0 0
0 0 0
0 0 0
0 0 0
0 0 0
0 0 0
0 0 0
0 0 0
0 0 0
0 0 0
0 0 0
0 0 0
0 0 0
0 0 0
0 0 0
0 0 0
0 0 0
0 0 0
0 0 0
0 0 0
0 0 0
0 0 0
0 0 0
0 0 0
0 0 0
0 0 0
0 0 0
0 0 0
0 0 0
0 0 0
0 0 0
0 0 0
0 0 0
0 0 0
0 0 0
0 0 0
0 0 0
0 0 0
0 0 0
0 0 0
0 0 0
0 0 0
0 0 0
0 0 0
0 0 0
0 0 0
0 0 0
0 0 0
0 0 0
0 0 0
0 0 0
0 0 0
0 0 0
0 0 0
0 0 0
0 0 0
0 0 0
0 0 0
0 0 0
0 0 0
0 0 0
0 0 0
0 0 0
0 0 0
0 0 0
0 0 0
0 0 0
0 0 0
0 0 0
0 0 0
0 0 0
0 0 0
0 0 0
0 0 0
0 0 0
0 0 0
0 0 0
0 0 0
0 0 0
0 0 0
0 0 0
0 0 0
0 0 0
0 0 0
0 0 0
0 0 0
0 0 0
0 0 0
0 0 0
0 0 0
0 0 0
0 0 0
0 0 0
0 0 0
0 0 0
0 0 0
0 0 0
0 0 0
0 0 0
0 0 0
0 0 0
0 0 0
0 0 0
0 0 0
0 0 0
0 0 0
0 0 0
0 0 0
0 0 0
0 0 0
0 0 0
0 0 0
0 0 0
0 0 0
0 0 0
0 0 0
0 0 0
0 0 0
0 0 0
0 0 0
0 0 0
0 0 0
0 0 0
0 0 0
0 0 0
0 0 0
0 0 0
0 0 0
0 0 0
0 0 0
0 0 0
0 0 0
0 0 0
0 0 0
0 0 0
0 0 0
0 0 0
0 0 0
0 0 0
0 0 0
0 0 0
0 0 0
0 0 0
0 0 0
0 0 0
0 0 0
0 0 0
0 0 0
0 0 0
0 0 0
0 0 0
0 0 0
0 0 0
0 0 0
0 0 0
0 0 0
0 0 0
0 0 0
0 0 0
0 0 0
0 0 0
0 0 0
0 0 0
0 0 0
0 0 0
0 0 0
0 0 0
0 0 0
0 0 0
0 0 0
0 0 0
0 0 0
0 0 0
0 0 0
0 0 0
0 0 0
0 0 0
0 0 0
0 0 0
0 0 0
0 0 0
0 0 0
0 0 0
0 0 0
0 0 0
0 0 0
0 0 0
0 0 0
0 0 0
0 0 0
0 0 0
0 0 0
0 0 0
0 0 0
0 0 0
0 0 0
0 0 0
0 0 0
0 0 0
0 0 0
0 0 0
0 0 0
0 0 0
0 0 0
0 0 0
0 0 0
0 0 0
0 0 0
0 0 0
0 0 0
0 0 0
0 0 0
0 0 0
0 0 0
0 0 0
0 0 0
0 0 0
0 0 0
0 0 0
0 0 0
0 0 0
0 0 0
0 0 0
0 0 0
0 0 0
0 0 0
0 0 0
0 0 0
0 0 0
0 0 0
0 0 0
0 0 0
0 0 0
0 0 0
0 0 0
0 0 0
0 0 0
0 0 0
0 0 0
0 0 0
0 0 0
0 0 0
0 0 0
0 0 0
0 0 0
0 0 0
0 0 0
0 0 0
0 0 0
0 0 0
0 0 0
0 0 0
0 0 0
0 0 0
0 0 0
0 0 0
0 0 0
0 0 0
0 0 0
0 0 0
0 0 0
0 0 0
0 0 0
0 0 0
0 0 0
0 0 0
0 0 0
0 0 0
0 0 0
0 0 0
0 0 0
0 0 0
0 0 0
0 0 0
0 0 0
0 0 0
0 0 0
0 0 0
0 0 0
0 0 0
0 0 0
0 0 0
0 0 0
0 0 0
0 0 0
0 0 0
0 0 0
0 0 0
0 0 0
0 0 0
0 0 0
0 0 0
0 0 0
0 0 0
0 0 0
0 0 0
0 0 0
0 0 0
0 0 0
0 0 0
0 0 0
0 0 0
0 0 0
0 0 0
0 0 0
0 0 0
0 0 0
0 0 0
0 0 0
0 0 0
0 0 0
0 0 0
0 0 0
0 0 0
0 0 0
0 0 0
0 0 0
0 0 0
0 0 0
0 0 0
0 0 0
0 0 0
0 0 0
0 0 0
0 0 0
0 0 0
0 0 0
0 0 0
0 0 0
0 0 0
0 0 0
0 0 0
0 0 0
0 0 0
0 0 0
0 0 0
0 0 0
0 0 0
0 0 0
0 0 0
0 0 0
0 0 0
0 0 0
0 0 0
0 0 0
0 0 0
0 0 0
0 0 0
0 0 0
0 0 0
0 0 0
0 0 0
0 0 0
0 0 0
0 0 0
0 0 0
0 0 0
0 0 0
0 0 0
0 0 0
0 0 0
0 0 0
0 0 0
0 0 0
0 0 0
0 0 0
0 0 0
0 0 0
0 0 0
0 0 0
0 0 0
0 0 0
0 0 0
0 0 0
0 0 0
0 0 0
0 0 0
0 0 0
0 0 0
0 0 0
0 0 0
0 0 0
0 0 0
0 0 0
0 0 0
0 0 0
0 0 0
0 0 0
0 0 0
0 0 0
0 0 0
0 0 0
0 0 0
0 0 0
0 0 0
0 0 0
0 0 0
0 0 0
0 0 0
0 0 0
0 0 0
0 0 0
0 0 0
0 0 0
0 0 0
0 0 0
0 0 0
0 0 0
0 0 0
0 0 0
0 0 0
0 0 0
0 0 0
0 0 0
0 0 0
0 0 0
0 0 0
0 0 0
0 0 0
0 0 0
0 0 0
0 0 0
0 0 0
0 0 0
0 0 0
0 0 0
0 0 0
0 0 0
0 0 0
0 0 0
0 0 0
0 0 0
0 0 0
0 0 0
0 0 0
0 0 0
0 0 0
0 0 0
0 0 0
0 0 0
0 0 0
0 0 0
0 0 0
0 0 0
0 0 0
0 0 0
0 0 0
0 0 0
0 0 0
0 0 0
0 0 0
0 0 0
0 0 0
0 0 0
0 0 0
0 0 0
0 0 0
0 0 0
0 0 0
0 0 0
0 0 0
0 0 0
0 0 0
0 0 0
0 0 0
0 0 0
0 0 0
0 0 0
0 0 0
0 0 0
0 0 0
0 0 0
0 0 0
0 0 0
0 0 0
0 0 0
0 0 0
0 0 0
0 0 0
0 0 0
0 0 0
0 0 0
0 0 0
0 0 0
0 0 0
0 0 0
0 0 0
0 0 0
0 0 0
0 0 0
0 0 0
0 0 0
0 0 0
0 0 0
0 0 0
0 0 0
0 0 0
0 0 0
0 0 0
0 0 0
0 0 0
0 0 0
0 0 0
0 0 0
0 0 0
0 0 0
0 0 0
0 0 0
0 0 0
0 0 0
0 0 0
0 0 0
0 0 0
0 0 0
0 0 0
0 0 0
0 0 0
0 0 0
0 0 0
0 0 0
0 0 0
0 0 0
0 0 0
0 0 0
0 0 0
0 0 0
0 0 0
0 0 0
0 0 0
0 0 0
0 0 0
0 0 0
0 0 0
0 0 0
0 0 0
0 0 0
0 0 0
0 0 0
0 0 0
0 0 0
0 0 0
0 0 0
0 0 0
0 0 0
0 0 0
0 0 0
0 0 0
0 0 0
0 0 0
0 0 0
0 0 0
0 0 0
0 0 0
0 0 0
0 0 0
0 0 0
0 0 0
0 0 0
0 0 0
0 0 0
0 0 0
0 0 0
0 0 0
0 0 0
0 0 0
0 0 0
0 0 0
0 0 0
0 0 0
0 0 0
0 0 0
0 0 0
0 0 0
0 0 0
0 0 0
0 0 0
0 0 0
0 0 0
0 0 0
0 0 0
0 0 0
0 0 0
0 0 0
0 0 0
0 0 0
0 0 0
0 0 0
0 0 0
0 0 0
0 0 0
0 0 0
0 0 0
0 0 0
0 0 0
0 0 0
0 0 0
0 0 0
0 0 0
0 0 0
0 0 0
0 0 0
0 0 0
0 0 0
0 0 0
0 0 0
0 0 0
0 0 0
0 0 0
0 0 0
0 0 0
0 0 0
0 0 0
0 0 0
0 0 0
0 0 0
0 0 0
0 0 0
0 0 0
0 0 0
0 0 0
0 0 0
0 0 0
0 0 0
0 0 0
0 0 0
0 0 0
0 0 0
0 0 0
0 0 0
0 0 0
0 0 0
0 0 0
0 0 0
0 0 0
0 0 0
0 0 0
0 0 0
0 0 0
0 0 0
0 0 0
0 0 0
0 0 0
0 0 0
0 0 0
0 0 0
0 0 0
0 0 0
0 0 0
0 0 0
0 0 0
0 0 0
0 0 0
0 0 0
0 0 0
0 0 0
0 0 0
0 0 0
0 0 0
0 0 0
0 0 0
0 0 0
0 0 0
0 0 0
0 0 0
0 0 0
0 0 0
0 0 0
0 0 0
0 0 0
0 0 0
0 0 0
0 0 0
0 0 0
0 0 0
0 0 0
0 0 0
0 0 0
0 0 0
0 0 0
0 0 0
0 0 0
0 0 0
0 0 0
0 0 0
0 0 0
0 0 0
0 0 0
0 0 0
0 0 0
0 0 0
0 0 0
0 0 0
0 0 0
0 0 0
0 0 0
0 0 0
0 0 0
0 0 0
0 0 0
0 0 0
0 0 0
0 0 0
0 0 0
0 0 0
0 0 0
0 0 0
0 0 0
0 0 0
0 0 0
0 0 0
0 0 0
0 0 0
0 0 0
0 0 0
0 0 0
0 0 0
0 0 0
0 0 0
0 0 0
0 0 0
0 0 0
0 0 0
0 0 0
0 0 0
0 0 0
0 0 0
0 0 0
0 0 0
0 0 0
0 0 0
0 0 0
0 0 0
0 0 0
0 0 0
0 0 0
0 0 0
0 0 0
0 0 0
0 0 0
0 0 0
0 0 0
0 0 0
0 0 0
0 0 0
0 0 0
0 0 0
0 0 0
0 0 0
0 0 0
0 0 0
0 0 0
0 0 0
0 0 0
0 0 0
0 0 0
0 0 0
0 0 0
0 0 0
0 0 0
0 0 0
0 0 0
0 0 0
0 0 0
0 0 0
0 0 0
0 0 0
0 0 0
0 0 0
0 0 0
0 0 0
0 0 0
0 0 0
0 0 0
0 0 0
0 0 0
0 0 0
0 0 0
0 0 0
0 0 0
0 0 0
0 0 0
0 0 0
0 0 0
0 0 0
0 0 0
0 0 0
0 0 0
0 0 0
0 0 0
0 0 0
0 0 0
0 0 0
0 0 0
0 0 0
0 0 0
0 0 0
0 0 0
0 0 0
0 0 0
0 0 0
0 0 0
0 0 0
0 0 0
0 0 0
0 0 0
0 0 0
0 0 0
0 0 0
0 0 0
0 0 0
0 0 0
0 0 0
0 0 0
0 0 0
0 0 0
0 0 0
0 0 0
0 0 0
0 0 0
0 0 0
0 0 0
0 0 0
0 0 0
0 0 0
0 0 0
0 0 0
0 0 0
0 0 0
0 0 0
0 0 0
0 0 0
0 0 0
0 0 0
0 0 0
0 0 0
0 0 0
0 0 0
0 0 0
0 0 0
0 0 0
0 0 0
0 0 0
0 0 0
0 0 0
0 0 0
0 0 0
0 0 0
0 0 0
0 0 0
0 0 0
0 0 0
0 0 0
0 0 0
0 0 0
0 0 0
0 0 0
0 0 0
0 0 0
0 0 0
0 0 0
0 0 0
0 0 0
0 0 0
0 0 0
0 0 0
0 0 0
0 0 0
0 0 0
0 0 0
0 0 0
0 0 0
0 0 0
0 0 0
0 0 0
0 0 0
0 0 0
0 0 0
0 0 0
0 0 0
0 0 0
0 0 0
0 0 0
0 0 0
0 0 0
0 0 0
0 0 0
0 0 0
0 0 0
0 0 0
0 0 0
0 0 0
0 0 0
0 0 0
0 0 0
0 0 0
0 0 0
0 0 0
0 0 0
0 0 0
0 0 0
0 0 0
0 0 0
0 0 0
0 0 0
0 0 0
0 0 0
0 0 0
0 0 0
0 0 0
0 0 0
0 0 0
0 0 0
0 0 0
0 0 0
0 0 0
0 0 0
0 0 0
0 0 0
0 0 0
0 0 0
0 0 0
0 0 0
0 0 0
0 0 0
0 0 0
0 0 0
0 0 0
0 0 0
0 0 0
0 0 0
0 0 0
0 0 0
0 0 0
0 0 0
0 0 0
0 0 0
0 0 0
0 0 0
0 0 0
0 0 0
0 0 0
0 0 0
0 0 0
0 0 0
0 0 0
0 0 0
0 0 0
0 0 0
0 0 0
0 0 0
0 0 0
0 0 0
0 0 0
0 0 0
0 0 0
0 0 0
0 0 0
0 0 0
0 0 0
0 0 0
0 0 0
0 0 0
0 0 0
0 0 0
0 0 0
0 0 0
0 0 0
0 0 0
0 0 0
0 0 0
0 0 0
0 0 0
0 0 0
0 0 0
0 0 0
0 0 0
0 0 0
0 0 0
0 0 0
0 0 0
0 0 0
0 0 0
0 0 0
0 0 0
0 0 0
0 0 0
0 0 0
0 0 0
0 0 0
0 0 0
0 0 0
0 0 0
0 0 0
0 0 0
0 0 0
0 0 0
0 0 0
0 0 0
0 0 0
0 0 0
0 0 0
0 0 0
0 0 0
0 0 0
0 0 0
0 0 0
0 0 0
0 0 0
0 0 0
0 0 0
0 0 0
0 0 0
0 0 0
0 0 0
0 0 0
0 0 0
0 0 0
0 0 0
0 0 0
0 0 0
0 0 0
0 0 0
0 0 0
0 0 0
0 0 0
0 0 0
0 0 0
0 0 0
0 0 0
0 0 0
0 0 0
0 0 0
0 0 0
0 0 0
0 0 0
0 0 0
0 0 0
0 0 0
0 0 0
0 0 0
0 0 0
0 0 0
0 0 0
0 0 0
0 0 0
0 0 0
0 0 0
0 0 0
0 0 0
0 0 0
0 0 0
0 0 0
0 0 0
0 0 0
0 0 0
0 0 0
0 0 0
0 0 0
0 0 0
0 0 0
0 0 0
0 0 0
0 0 0
0 0 0
0 0 0
0 0 0
0 0 0
0 0 0
0 0 0
0 0 0
0 0 0
0 0 0
0 0 0
0 0 0
0 0 0
0 0 0
0 0 0
0 0 0
0 0 0
0 0 0
0 0 0
0 0 0
0 0 0
0 0 0
0 0 0
0 0 0
0 0 0
0 0 0
0 0 0
0 0 0
0 0 0
0 0 0
0 0 0
0 0 0
0 0 0
0 0 0
0 0 0
0 0 0
0 0 0
0 0 0
0 0 0
0 0 0
0 0 0
0 0 0
0 0 0
0 0 0
0 0 0
0 0 0
0 0 0
0 0 0
0 0 0
0 0 0
0 0 0
0 0 0
0 0 0
0 0 0
0 0 0
0 0 0
0 0 0
0 0 0
0 0 0
0 0 0
0 0 0
0 0 0
0 0 0
0 0 0
0 0 0
0 0 0
0 0 0
0 0 0
0 0 0
0 0 0
0 0 0
0 0 0
0 0 0
0 0 0
0 0 0
0 0 0
0 0 0
0 0 0
0 0 0
0 0 0
0 0 0
0 0 0
0 0 0
0 0 0
0 0 0
0 0 0
0 0 0
0 0 0
0 0 0
0 0 0
0 0 0
0 0 0
0 0 0
0 0 0
0 0 0
0 0 0
0 0 0
0 0 0
0 0 0
0 0 0
0 0 0
0 0 0
0 0 0
0 0 0
0 0 0
0 0 0
0 0 0
0 0 0
0 0 0
0 0 0
0 0 0
0 0 0
0 0 0
0 0 0
0 0 0
0 0 0
0 0 0
0 0 0
0 0 0
0 0 0
0 0 0
0 0 0
0 0 0
0 0 0
0 0 0
0 0 0
0 0 0
0 0 0
0 0 0
0 0 0
0 0 0
0 0 0
0 0 0
0 0 0
0 0 0
0 0 0
0 0 0
0 0 0
0 0 0
0 0 0
0 0 0
0 0 0
0 0 0
0 0 0
0 0 0
0 0 0
0 0 0
0 0 0
0 0 0
0 0 0
0 0 0
0 0 0
0 0 0
0 0 0
0 0 0
0 0 0
0 0 0
0 0 0
0 0 0
0 0 0
0 0 0
0 0 0
0 0 0
0 0 0
0 0 0
0 0 0
0 0 0
0 0 0
0 0 0
0 0 0
0 0 0
0 0 0
0 0 0
0 0 0
0 0 0
0 0 0
0 0 0
0 0 0
0 0 0
0 0 0
0 0 0
0 0 0
0 0 0
0 0 0
0 0 0
0 0 0
0 0 0
0 0 0
0 0 0
0 0 0
0 0 0
0 0 0
0 0 0
0 0 0
0 0 0
0 0 0
0 0 0
0 0 0
0 0 0
0 0 0
0 0 0
0 0 0
0 0 0
0 0 0
0 0 0
0 0 0
0 0 0
0 0 0
0 0 0
0 0 0
0 0 0
0 0 0
0 0 0
0 0 0
0 0 0
0 0 0
0 0 0
0 0 0
0 0 0
0 0 0
0 0 0
0 0 0
0 0 0
0 0 0
0 0 0
0 0 0
0 0 0
0 0 0
0 0 0
0 0 0
0 0 0
0 0 0
0 0 0
0 0 0
0 0 0
0 0 0
0 0 0
0 0 0
0 0 0
0 0 0
0 0 0
0 0 0
0 0 0
0 0 0
0 0 0
0 0 0
0 0 0
0 0 0
0 0 0
0 0 0
0 0 0
0 0 0
0 0 0
0 0 0
0 0 0
0 0 0
0 0 0
0 0 0
0 0 0
0 0 0
0 0 0
0 0 0
0 0 0
0 0 0
0 0 0
0 0 0
0 0 0
0 0 0
0 0 0
0 0 0
0 0 0
0 0 0
0 0 0
0 0 0
0 0 0
0 0 0
0 0 0
0 0 0
0 0 0
0 0 0
0 0 0
0 0 0
0 0 0
0 0 0
0 0 0
0 0 0
0 0 0
0 0 0
0 0 0
0 0 0
0 0 0
0 0 0
0 0 0
0 0 0
0 0 0
0 0 0
0 0 0
0 0 0
0 0 0
0 0 0
0 0 0
0 0 0
0 0 0
0 0 0
0 0 0
0 0 0
0 0 0
0 0 0
0 0 0
0 0 0
0 0 0
0 0 0
0 0 0
0 0 0
0 0 0
0 0 0
0 0 0
0 0 0
0 0 0
0 0 0
0 0 0
0 0 0
0 0 0
0 0 0
0 0 0
0 0 0
0 0 0
0 0 0
0 0 0
0 0 0
0 0 0
0 0 0
0 0 0
0 0 0
0 0 0
0 0 0
0 0 0
0 0 0
0 0 0
0 0 0
0 0 0
0 0 0
0 0 0
0 0 0
0 0 0
0 0 0
0 0 0
0 0 0
0 0 0
0 0 0
0 0 0
0 0 0
0 0 0
0 0 0
0 0 0
0 0 0
0 0 0
0 0 0
0 0 0
0 0 0
0 0 0
0 0 0
0 0 0
0 0 0
0 0 0
0 0 0
0 0 0
0 0 0
0 0 0
0 0 0
0 0 0
0 0 0
0 0 0
0 0 0
0 0 0
0 0 0
0 0 0
0 0 0
0 0 0
0 0 0
0 0 0
0 0 0
0 0 0
0 0 0
0 0 0
0 0 0
0 0 0
0 0 0
0 0 0
0 0 0
0 0 0
0 0 0
0 0 0
0 0 0
0 0 0
0 0 0
0 0 0
0 0 0
0 0 0
0 0 0
0 0 0
0 0 0
0 0 0
0 0 0
0 0 0
0 0 0
0 0 0
0 0 0
0 0 0
0 0 0
0 0 0
0 0 0
0 0 0
0 0 0
0 0 0
0 0 0
0 0 0
0 0 0
0 0 0
0 0 0
0 0 0
0 0 0
0 0 0
0 0 0
0 0 0
0 0 0
0 0 0
0 0 0
0 0 0
0 0 0
0 0 0
0 0 0
0 0 0
0 0 0
0 0 0
0 0 0
0 0 0
0 0 0
0 0 0
0 0 0
0 0 0
0 0 0
0 0 0
0 0 0
0 0 0
0 0 0
0 0 0
0 0 0
0 0 0
0 0 0
0 0 0
0 0 0
0 0 0
0 0 0
0 0 0
0 0 0
0 0 0
0 0 0
0 0 0
0 0 0
0 0 0
0 0 0
0 0 0
0 0 0
0 0 0
0 0 0
0 0 0
0 0 0
0 0 0
0 0 0
0 0 0
0 0 0
0 0 0
0 0 0
0 0 0
0 0 0
0 0 0
0 0 0
0 0 0
0 0 0
0 0 0
0 0 0
0 0 0
0 0 0
0 0 0
0 0 0
0 0 0
0 0 0
0 0 0
0 0 0
0 0 0
0 0 0
0 0 0
0 0 0
0 0 0
0 0 0
0 0 0
0 0 0
0 0 0
0 0 0
0 0 0
0 0 0
0 0 0
0 0 0
0 0 0
0 0 0
0 0 0
0 0 0
0 0 0
0 0 0
0 0 0
0 0 0
0 0 0
0 0 0
0 0 0
0 0 0
0 0 0
0 0 0
0 0 0
0 0 0
0 0 0
0 0 0
0 0 0
0 0 0
0 0 0
0 0 0
0 0 0
0 0 0
0 0 0
0 0 0
0 0 0
0 0 0
0 0 0
0 0 0
0 0 0
0 0 0
0 0 0
0 0 0
0 0 0
0 0 0
0 0 0
0 0 0
0 0 0
0 0 0
0 0 0
0 0 0
0 0 0
0 0 0
0 0 0
0 0 0
0 0 0
0 0 0
0 0 0
0 0 0
0 0 0
0 0 0
0 0 0
0 0 0
0 0 0
0 0 0
0 0 0
0 0 0
0 0 0
0 0 0
0 0 0
0 0 0
0 0 0
0 0 0
0 0 0
0 0 0
0 0 0
0 0 0
0 0 0
0 0 0
0 0 0
0 0 0
0 0 0
0 0 0
0 0 0
0 0 0
0 0 0
0 0 0
0 0 0
0 0 0
0 0 0
0 0 0
0 0 0
0 0 0
0 0 0
0 0 0
0 0 0
0 0 0
0 0 0
0 0 0
0 0 0
0 0 0
0 0 0
0 0 0
0 0 0
0 0 0
0 0 0
0 0 0
0 0 0
0 0 0
0 0 0
0 0 0
0 0 0
0 0 0
0 0 0
0 0 0
0 0 0
0 0 0
0 0 0
0 0 0
0 0 0
0 0 0
0 0 0
0 0 0
0 0 0
0 0 0
0 0 0
0 0 0
0 0 0
0 0 0
0 0 0
0 0 0
0 0 0
0 0 0
0 0 0
0 0 0
0 0 0
0 0 0
0 0 0
0 0 0
0 0 0
0 0 0
0 0 0
0 0 0
0 0 0
0 0 0
0 0 0
0 0 0
0 0 0
0 0 0
0 0 0
0 0 0
0 0 0
0 0 0
0 0 0
0 0 0
0 0 0
0 0 0
0 0 0
0 0 0
0 0 0
0 0 0
0 0 0
0 0 0
0 0 0
0 0 0
0 0 0
0 0 0
0 0 0
0 0 0
0 0 0
0 0 0
0 0 0
0 0 0
0 0 0
0 0 0
0 0 0
0 0 0
0 0 0
0 0 0
0 0 0
0 0 0
0 0 0
0 0 0
0 0 0
0 0 0
0 0 0
0 0 0
0 0 0
0 0 0
0 0 0
0 0 0
0 0 0
0 0 0
0 0 0
0 0 0
0 0 0
0 0 0
0 0 0
0 0 0
0 0 0
0 0 0
0 0 0
0 0 0
0 0 0
0 0 0
0 0 0
0 0 0
0 0 0
0 0 0
0 0 0
0 0 0
0 0 0
0 0 0
0 0 0
0 0 0
0 0 0
0 0 0
0 0 0
0 0 0
0 0 0
0 0 0
0 0 0
0 0 0
0 0 0
0 0 0
0 0 0
0 0 0
0 0 0
0 0 0
0 0 0
0 0 0
0 0 0
0 0 0
0 0 0
0 0 0
0 0 0
0 0 0
0 0 0
0 0 0
0 0 0
0 0 0
0 0 0
0 0 0
0 0 0
0 0 0
0 0 0
0 0 0
0 0 0
0 0 0
0 0 0
0 0 0
0 0 0
0 0 0
0 0 0
0 0 0
0 0 0
0 0 0
0 0 0
0 0 0
0 0 0
0 0 0
0 0 0
0 0 0
0 0 0
0 0 0
0 0 0
0 0 0
0 0 0
0 0 0
0 0 0
0 0 0
0 0 0
0 0 0
0 0 0
0 0 0
0 0 0
0 0 0
0 0 0
0 0 0
0 0 0
0 0 0
0 0 0
0 0 0
0 0 0
0 0 0
0 0 0
0 0 0
0 0 0
0 0 0
0 0 0
0 0 0
0 0 0
0 0 0
0 0 0
0 0 0
0 0 0
0 0 0
0 0 0
0 0 0
0 0 0
0 0 0
0 0 0
0 0 0
0 0 0
0 0 0
0 0 0
0 0 0
0 0 0
0 0 0
0 0 0
0 0 0
0 0 0
0 0 0
0 0 0
0 0 0
0 0 0
0 0 0
0 0 0
0 0 0
0 0 0
0 0 0
0 0 0
0 0 0
0 0 0
0 0 0
0 0 0
0 0 0
0 0 0
0 0 0
0 0 0
0 0 0
0 0 0
0 0 0
0 0 0
0 0 0
0 0 0
0 0 0
0 0 0
0 0 0
0 0 0
0 0 0
0 0 0
0 0 0
0 0 0
0 0 0
0 0 0
0 0 0
0 0 0
0 0 0
0 0 0
0 0 0
0 0 0
0 0 0
0 0 0
0 0 0
0 0 0
0 0 0
0 0 0
0 0 0
0 0 0
0 0 0
0 0 0
0 0 0
0 0 0
0 0 0
0 0 0
0 0 0
0 0 0
0 0 0
0 0 0
0 0 0
0 0 0
0 0 0
0 0 0
0 0 0
0 0 0
0 0 0
0 0 0
0 0 0
0 0 0
0 0 0
0 0 0
0 0 0
0 0 0
0 0 0
0 0 0
0 0 0
0 0 0
0 0 0
0 0 0
0 0 0
0 0 0
0 0 0
0 0 0
0 0 0
0 0 0
0 0 0
0 0 0
0 0 0
0 0 0
0 0 0
0 0 0
0 0 0
0 0 0
0 0 0
0 0 0
0 0 0
0 0 0
0 0 0
0 0 0
0 0 0
0 0 0
0 0 0
0 0 0
0 0 0
0 0 0
0 0 0
0 0 0
0 0 0
0 0 0
0 0 0
0 0 0
0 0 0
0 0 0
0 0 0
0 0 0
0 0 0
0 0 0
0 0 0
0 0 0
0 0 0
0 0 0
0 0 0
0 0 0
0 0 0
0 0 0
0 0 0
0 0 0
0 0 0
0 0 0
0 0 0
0 0 0
0 0 0
0 0 0
0 0 0
0 0 0
0 0 0
0 0 0
0 0 0
0 0 0
0 0 0
0 0 0
0 0 0
0 0 0
0 0 0
0 0 0
0 0 0
0 0 0
0 0 0
0 0 0
0 0 0
0 0 0
0 0 0
0 0 0
0 0 0
0 0 0
0 0 0
0 0 0
0 0 0
0 0 0
0 0 0
0 0 0
0 0 0
0 0 0
0 0 0
0 0 0
0 0 0
0 0 0
0 0 0
0 0 0
0 0 0
0 0 0
0 0 0
0 0 0
0 0 0
0 0 0
0 0 0
0 0 0
0 0 0
0 0 0
0 0 0
0 0 0
0 0 0
0 0 0
0 0 0
0 0 0
0 0 0
0 0 0
0 0 0
0 0 0
0 0 0
0 0 0
0 0 0
0 0 0
0 0 0
0 0 0
0 0 0
0 0 0
0 0 0
0 0 0
0 0 0
0 0 0
0 0 0
0 0 0
0 0 0
0 0 0
0 0 0
0 0 0
0 0 0
0 0 0
0 0 0
0 0 0
0 0 0
0 0 0
0 0 0
0 0 0
0 0 0
0 0 0
0 0 0
0 0 0
0 0 0
0 0 0
0 0 0
0 0 0
0 0 0
0 0 0
0 0 0
0 0 0
0 0 0
0 0 0
0 0 0
0 0 0
0 0 0
0 0 0
0 0 0
0 0 0
0 0 0
0 0 0
0 0 0
0 0 0
0 0 0
0 0 0
0 0 0
0 0 0
0 0 0
0 0 0
0 0 0
0 0 0
0 0 0
0 0 0
0 0 0
0 0 0
0 0 0
0 0 0
0 0 0
0 0 0
0 0 0
0 0 0
0 0 0
0 0 0
0 0 0
0 0 0
0 0 0
0 0 0
0 0 0
0 0 0
0 0 0
0 0 0
0 0 0
0 0 0
0 0 0
0 0 0
0 0 0
0 0 0
0 0 0
0 0 0
0 0 0
0 0 0
0 0 0
0 0 0
0 0 0
0 0 0
0 0 0
0 0 0
0 0 0
0 0 0
0 0 0
0 0 0
0 0 0
0 0 0
0 0 0
0 0 0
0 0 0
0 0 0
0 0 0
0 0 0
0 0 0
0 0 0
0 0 0
0 0 0
0 0 0
0 0 0
0 0 0
0 0 0
0 0 0
0 0 0
0 0 0
0 0 0
0 0 0
0 0 0
0 0 0
0 0 0
0 0 0
0 0 0
0 0 0
0 0 0
0 0 0
0 0 0
0 0 0
0 0 0
0 0 0
0 0 0
0 0 0
0 0 0
0 0 0
0 0 0
0 0 0
0 0 0
0 0 0
0 0 0
0 0 0
0 0 0
0 0 0
0 0 0
0 0 0
0 0 0
0 0 0
0 0 0
0 0 0
0 0 0
0 0 0
0 0 0
0 0 0
0 0 0
0 0 0
0 0 0
0 0 0
0 0 0
0 0 0
0 0 0
0 0 0
0 0 0
0 0 0
0 0 0
0 0 0
0 0 0
0 0 0
0 0 0
0 0 0
0 0 0
0 0 0
0 0 0
0 0 0
0 0 0
0 0 0
0 0 0
0 0 0
0 0 0
0 0 0
0 0 0
0 0 0
0 0 0
0 0 0
0 0 0
0 0 0
0 0 0
0 0 0
0 0 0
0 0 0
0 0 0
0 0 0
0 0 0
0 0 0
0 0 0
0 0 0
0 0 0
0 0 0
0 0 0
0 0 0
0 0 0
0 0 0
0 0 0
0 0 0
0 0 0
0 0 0
0 0 0
0 0 0
0 0 0
0 0 0
0 0 0
0 0 0
0 0 0
0 0 0
0 0 0
0 0 0
0 0 0
0 0 0
0 0 0
0 0 0
0 0 0
0 0 0
0 0 0
0 0 0
0 0 0
0 0 0
0 0 0
0 0 0
0 0 0
0 0 0
0 0 0
0 0 0
0 0 0
0 0 0
0 0 0
0 0 0
0 0 0
0 0 0
0 0 0
0 0 0
0 0 0
0 0 0
0 0 0
0 0 0
0 0 0
0 0 0
0 0 0
0 0 0
0 0 0
0 0 0
0 0 0
0 0 0
0 0 0
0 0 0
0 0 0
0 0 0
0 0 0
0 0 0
0 0 0
0 0 0
0 0 0
0 0 0
0 0 0
0 0 0
0 0 0
0 0 0
0 0 0
0 0 0
0 0 0
0 0 0
0 0 0
0 0 0
0 0 0
0 0 0
0 0 0
0 0 0
0 0 0
0 0 0
0 0 0
0 0 0
0 0 0
0 0 0
0 0 0
0 0 0
0 0 0
0 0 0
0 0 0
0 0 0
0 0 0
0 0 0
0 0 0
0 0 0
0 0 0
0 0 0
0 0 0
0 0 0
0 0 0
0 0 0
0 0 0
0 0 0
0 0 0
0 0 0
0 0 0
0 0 0
0 0 0
0 0 0
0 0 0
0 0 0
0 0 0
0 0 0
0 0 0
0 0 0
0 0 0
0 0 0
0 0 0
0 0 0
0 0 0
0 0 0
0 0 0
0 0 0
0 0 0
0 0 0
0 0 0
0 0 0
0 0 0
0 0 0
0 0 0
0 0 0
0 0 0
0 0 0
0 0 0
0 0 0
0 0 0
0 0 0
0 0 0
0 0 0
0 0 0
0 0 0
0 0 0
0 0 0
0 0 0
0 0 0
0 0 0
0 0 0
0 0 0
0 0 0
0 0 0
0 0 0
0 0 0
0 0 0
0 0 0
0 0 0
0 0 0
0 0 0
0 0 0
0 0 0
0 0 0
0 0 0
0 0 0
0 0 0
0 0 0
0 0 0
0 0 0
0 0 0
0 0 0
0 0 0
0 0 0
0 0 0
0 0 0
0 0 0
0 0 0
0 0 0
0 0 0
0 0 0
0 0 0
0 0 0
0 0 0
0 0 0
0 0 0
0 0 0
0 0 0
0 0 0
0 0 0
0 0 0
0 0 0
0 0 0
0 0 0
0 0 0
0 0 0
0 0 0
0 0 0
0 0 0
0 0 0
0 0 0
0 0 0
0 0 0
0 0 0
0 0 0
0 0 0
0 0 0
0 0 0
0 0 0
0 0 0
0 0 0
0 0 0
0 0 0
0 0 0
0 0 0
0 0 0
0 0 0
0 0 0
0 0 0
0 0 0
0 0 0
0 0 0
0 0 0
0 0 0
0 0 0
0 0 0
0 0 0
0 0 0
0 0 0
0 0 0
0 0 0
0 0 0
0 0 0
0 0 0
0 0 0
0 0 0
0 0 0
0 0 0
0 0 0
0 0 0
0 0 0
0 0 0
0 0 0
0 0 0
0 0 0
0 0 0
0 0 0
0 0 0
0 0 0
0 0 0
0 0 0
0 0 0
0 0 0
0 0 0
0 0 0
0 0 0
0 0 0
0 0 0
0 0 0
0 0 0
0 0 0
0 0 0
0 0 0
0 0 0
0 0 0
0 0 0
0 0 0
0 0 0
0 0 0
0 0 0
0 0 0
0 0 0
0 0 0
0 0 0
0 0 0
0 0 0
0 0 0
0 0 0
0 0 0
0 0 0
0 0 0
0 0 0
0 0 0
0 0 0
0 0 0
0 0 0
0 0 0
0 0 0
0 0 0
0 0 0
0 0 0
0 0 0
0 0 0
0 0 0
0 0 0
0 0 0
0 0 0
0 0 0
0 0 0
0 0 0
0 0 0
0 0 0
0 0 0
0 0 0
0 0 0
0 0 0
0 0 0
0 0 0
0 0 0
0 0 0
0 0 0
0 0 0
0 0 0
0 0 0
0 0 0
0 0 0
0 0 0
0 0 0
0 0 0
0 0 0
0 0 0
0 0 0
0 0 0
0 0 0
0 0 0
0 0 0
0 0 0
0 0 0
0 0 0
0 0 0
0 0 0
0 0 0
0 0 0
0 0 0
0 0 0
0 0 0
0 0 0
0 0 0
0 0 0
0 0 0
0 0 0
0 0 0
0 0 0
0 0 0
0 0 0
0 0 0
0 0 0
0 0 0
0 0 0
0 0 0
0 0 0
0 0 0
0 0 0
0 0 0
0 0 0
0 0 0
0 0 0
0 0 0
0 0 0
0 0 0
0 0 0
0 0 0
0 0 0
0 0 0
0 0 0
0 0 0
0 0 0
0 0 0
0 0 0
0 0 0
0 0 0
0 0 0
0 0 0
0 0 0
0 0 0
0 0 0
0 0 0
0 0 0
0 0 0
0 0 0
0 0 0
0 0 0
0 0 0
0 0 0
0 0 0
0 0 0
0 0 0
0 0 0
0 0 0
0 0 0
0 0 0
0 0 0
0 0 0
0 0 0
0 0 0
0 0 0
0 0 0
0 0 0
0 0 0
0 0 0
0 0 0
0 0 0
0 0 0
0 0 0
0 0 0
0 0 0
0 0 0
0 0 0
0 0 0
0 0 0
0 0 0
0 0 0
0 0 0
0 0 0
0 0 0
0 0 0
0 0 0
0 0 0
0 0 0
0 0 0
0 0 0
0 0 0
0 0 0
0 0 0
0 0 0
0 0 0
0 0 0
0 0 0
0 0 0
0 0 0
0 0 0
0 0 0
0 0 0
0 0 0
0 0 0
0 0 0
0 0 0
0 0 0
0 0 0
0 0 0
0 0 0
0 0 0
0 0 0
0 0 0
0 0 0
0 0 0
0 0 0
0 0 0
0 0 0
0 0 0
0 0 0
0 0 0
0 0 0
0 0 0
0 0 0
0 0 0
0 0 0
0 0 0
0 0 0
0 0 0
0 0 0
0 0 0
0 0 0
0 0 0
0 0 0
0 0 0
0 0 0
0 0 0
0 0 0
0 0 0
0 0 0
0 0 0
0 0 0
0 0 0
0 0 0
0 0 0
0 0 0
0 0 0
0 0 0
0 0 0
0 0 0
0 0 0
0 0 0
0 0 0
0 0 0
0 0 0
0 0 0
0 0 0
0 0 0
0 0 0
0 0 0
0 0 0
0 0 0
0 0 0
0 0 0
0 0 0
0 0 0
0 0 0
0 0 0
0 0 0
0 0 0
0 0 0
0 0 0
0 0 0
0 0 0
0 0 0
0 0 0
0 0 0
0 0 0
0 0 0
0 0 0
0 0 0
0 0 0
0 0 0
0 0 0
0 0 0
0 0 0
0 0 0
0 0 0
0 0 0
0 0 0
0 0 0
0 0 0
0 0 0
0 0 0
0 0 0
0 0 0
0 0 0
0 0 0
0 0 0
0 0 0
0 0 0
0 0 0
0 0 0
0 0 0
0 0 0
0 0 0
0 0 0
0 0 0
0 0 0
0 0 0
0 0 0
0 0 0
0 0 0
0 0 0
0 0 0
0 0 0
0 0 0
0 0 0
0 0 0
0 0 0
0 0 0
0 0 0
0 0 0
0 0 0
0 0 0
0 0 0
0 0 0
0 0 0
0 0 0
0 0 0
0 0 0
0 0 0
0 0 0
0 0 0
0 0 0
0 0 0
0 0 0
0 0 0
0 0 0
0 0 0
0 0 0
0 0 0
0 0 0
0 0 0
0 0 0
0 0 0
0 0 0
0 0 0
0 0 0
0 0 0
0 0 0
0 0 0
0 0 0
0 0 0
0 0 0
0 0 0
0 0 0
0 0 0
0 0 0
0 0 0
0 0 0
0 0 0
0 0 0
0 0 0
0 0 0
0 0 0
0 0 0
0 0 0
0 0 0
0 0 0
0 0 0
0 0 0
0 0 0
0 0 0
0 0 0
0 0 0
0 0 0
0 0 0
0 0 0
0 0 0
0 0 0
0 0 0
0 0 0
0 0 0
0 0 0
0 0 0
0 0 0
0 0 0
0 0 0
0 0 0
0 0 0
0 0 0
0 0 0
0 0 0
0 0 0
0 0 0
0 0 0
0 0 0
0 0 0
0 0 0
0 0 0
0 0 0
0 0 0
0 0 0
0 0 0
0 0 0
0 0 0
0 0 0
0 0 0
0 0 0
0 0 0
0 0 0
0 0 0
0 0 0
0 0 0
0 0 0
0 0 0
0 0 0
0 0 0
0 0 0
0 0 0
0 0 0
0 0 0
0 0 0
0 0 0
0 0 0
0 0 0
0 0 0
0 0 0
0 0 0
0 0 0
0 0 0
0 0 0
0 0 0
0 0 0
0 0 0
0 0 0
0 0 0
0 0 0
0 0 0
0 0 0
0 0 0
0 0 0
0 0 0
0 0 0
0 0 0
0 0 0
0 0 0
0 0 0
0 0 0
0 0 0
0 0 0
0 0 0
0 0 0
0 0 0
0 0 0
0 0 0
0 0 0
0 0 0
0 0 0
0 0 0
0 0 0
0 0 0
0 0 0
0 0 0
0 0 0
0 0 0
0 0 0
0 0 0
0 0 0
0 0 0
0 0 0
0 0 0
0 0 0
0 0 0
0 0 0
0 0 0
0 0 0
0 0 0
0 0 0
0 0 0
0 0 0
0 0 0
0 0 0
0 0 0
0 0 0
0 0 0
0 0 0
0 0 0
0 0 0
0 0 0
0 0 0
0 0 0
0 0 0
0 0 0
0 0 0
0 0 0
0 0 0
0 0 0
0 0 0
0 0 0
0 0 0
0 0 0
0 0 0
0 0 0
0 0 0
0 0 0
0 0 0
0 0 0
0 0 0
0 0 0
0 0 0
0 0 0
0 0 0
0 0 0
0 0 0
0 0 0
0 0 0
0 0 0
0 0 0
0 0 0
0 0 0
0 0 0
0 0 0
0 0 0
0 0 0
0 0 0
0 0 0
0 0 0
0 0 0
0 0 0
0 0 0
0 0 0
0 0 0
0 0 0
0 0 0
0 0 0
0 0 0
0 0 0
0 0 0
0 0 0
0 0 0
0 0 0
0 0 0
0 0 0
0 0 0
0 0 0
0 0 0
0 0 0
0 0 0
0 0 0
0 0 0
0 0 0
0 0 0
0 0 0
0 0 0
0 0 0
0 0 0
0 0 0
0 0 0
0 0 0
0 0 0
0 0 0
0 0 0
0 0 0
0 0 0
0 0 0
0 0 0
0 0 0
0 0 0
0 0 0
0 0 0
0 0 0
0 0 0
0 0 0
0 0 0
0 0 0
0 0 0
0 0 0
0 0 0
0 0 0
0 0 0
0 0 0
0 0 0
0 0 0
0 0 0
0 0 0
0 0 0
0 0 0
0 0 0
0 0 0
0 0 0
0 0 0
0 0 0
0 0 0
0 0 0
0 0 0
0 0 0
0 0 0
0 0 0
0 0 0
0 0 0
0 0 0
0 0 0
0 0 0
0 0 0
0 0 0
0 0 0
0 0 0
0 0 0
0 0 0
0 0 0
0 0 0
0 0 0
0 0 0
0 0 0
0 0 0
0 0 0
0 0 0
0 0 0
0 0 0
0 0 0
0 0 0
0 0 0
0 0 0
0 0 0
0 0 0
0 0 0
0 0 0
0 0 0
0 0 0
0 0 0
0 0 0
0 0 0
0 0 0
0 0 0
0 0 0
0 0 0
0 0 0
0 0 0
0 0 0
0 0 0
0 0 0
0 0 0
0 0 0
0 0 0
0 0 0
0 0 0
0 0 0
0 0 0
0 0 0
0 0 0
0 0 0
0 0 0
0 0 0
0 0 0
0 0 0
0 0 0
0 0 0
0 0 0
0 0 0
0 0 0
0 0 0
0 0 0
0 0 0
0 0 0
0 0 0
0 0 0
0 0 0
0 0 0
0 0 0
0 0 0
0 0 0
0 0 0
0 0 0
0 0 0
0 0 0
0 0 0
0 0 0
0 0 0
0 0 0
0 0 0
0 0 0
0 0 0
0 0 0
0 0 0
0 0 0
0 0 0
0 0 0
0 0 0
0 0 0
0 0 0
0 0 0
0 0 0
0 0 0
0 0 0
0 0 0
0 0 0
0 0 0
0 0 0
0 0 0
0 0 0
0 0 0
0 0 0
0 0 0
0 0 0
0 0 0
0 0 0
0 0 0
0 0 0
0 0 0
0 0 0
0 0 0
0 0 0
0 0 0
0 0 0
0 0 0
0 0 0
0 0 0
0 0 0
0 0 0
0 0 0
0 0 0
0 0 0
0 0 0
0 0 0
0 0 0
0 0 0
0 0 0
0 0 0
0 0 0
0 0 0
0 0 0
0 0 0
0 0 0
0 0 0
0 0 0
0 0 0
0 0 0
0 0 0
0 0 0
0 0 0
0 0 0
0 0 0
0 0 0
0 0 0
0 0 0
0 0 0
0 0 0
0 0 0
0 0 0
0 0 0
0 0 0
0 0 0
0 0 0
0 0 0
0 0 0
0 0 0
0 0 0
0 0 0
0 0 0
0 0 0
0 0 0
0 0 0
0 0 0
0 0 0
0 0 0
0 0 0
0 0 0
0 0 0
0 0 0
0 0 0
0 0 0
0 0 0
0 0 0
0 0 0
0 0 0
0 0 0
0 0 0
0 0 0
0 0 0
0 0 0
0 0 0
0 0 0
0 0 0
0 0 0
0 0 0
0 0 0
0 0 0
0 0 0
0 0 0
0 0 0
0 0 0
0 0 0
0 0 0
0 0 0
0 0 0
0 0 0
0 0 0
0 0 0
0 0 0
0 0 0
0 0 0
0 0 0
0 0 0
0 0 0
0 0 0
0 0 0
0 0 0
0 0 0
0 0 0
0 0 0
0 0 0
0 0 0
0 0 0
0 0 0
0 0 0
0 0 0
0 0 0
0 0 0
0 0 0
0 0 0
0 0 0
0 0 0
0 0 0
0 0 0
0 0 0
0 0 0
0 0 0
0 0 0
0 0 0
0 0 0
0 0 0
0 0 0
0 0 0
0 0 0
0 0 0
0 0 0
0 0 0
0 0 0
0 0 0
0 0 0
0 0 0
0 0 0
0 0 0
0 0 0
0 0 0
0 0 0
0 0 0
0 0 0
0 0 0
0 0 0
0 0 0
0 0 0
0 0 0
0 0 0
0 0 0
0 0 0
0 0 0
0 0 0
0 0 0
0 0 0
0 0 0
0 0 0
0 0 0
0 0 0
0 0 0
0 0 0
0 0 0
0 0 0
0 0 0
0 0 0
0 0 0
0 0 0
0 0 0
0 0 0
0 0 0
0 0 0
0 0 0
0 0 0
0 0 0
0 0 0
0 0 0
0 0 0
0 0 0
0 0 0
0 0 0
0 0 0
0 0 0
0 0 0
0 0 0
0 0 0
0 0 0
0 0 0
0 0 0
0 0 0
0 0 0
0 0 0
0 0 0
0 0 0
0 0 0
0 0 0
0 0 0
0 0 0
0 0 0
0 0 0
0 0 0
0 0 0
0 0 0
0 0 0
0 0 0
0 0 0
0 0 0
0 0 0
0 0 0
0 0 0
0 0 0
0 0 0
0 0 0
0 0 0
0 0 0
0 0 0
0 0 0
0 0 0
0 0 0
0 0 0
0 0 0
0 0 0
0 0 0
0 0 0
0 0 0
0 0 0
0 0 0
0 0 0
0 0 0
0 0 0
0 0 0
0 0 0
0 0 0
0 0 0
0 0 0
0 0 0
0 0 0
0 0 0
0 0 0
0 0 0
0 0 0
0 0 0
0 0 0
0 0 0
0 0 0
0 0 0
0 0 0
0 0 0
0 0 0
0 0 0
0 0 0
0 0 0
0 0 0
0 0 0
0 0 0
0 0 0
0 0 0
0 0 0
0 0 0
0 0 0
0 0 0
0 0 0
0 0 0
0 0 0
0 0 0
0 0 0
0 0 0
0 0 0
0 0 0
0 0 0
0 0 0
0 0 0
0 0 0
0 0 0
0 0 0
0 0 0
0 0 0
0 0 0
0 0 0
0 0 0
0 0 0
0 0 0
0 0 0
0 0 0
0 0 0
0 0 0
0 0 0
0 0 0
0 0 0
0 0 0
0 0 0
0 0 0
0 0 0
0 0 0
0 0 0
0 0 0
0 0 0
0 0 0
0 0 0
0 0 0
0 0 0
0 0 0
0 0 0
0 0 0
0 0 0
0 0 0
0 0 0
0 0 0
0 0 0
0 0 0
0 0 0
0 0 0
0 0 0
0 0 0
0 0 0
0 0 0
0 0 0
0 0 0
0 0 0
0 0 0
0 0 0
0 0 0
0 0 0
0 0 0
0 0 0
0 0 0
0 0 0
0 0 0
0 0 0
0 0 0
0 0 0
0 0 0
0 0 0
0 0 0
0 0 0
0 0 0
0 0 0
0 0 0
0 0 0
0 0 0
0 0 0
0 0 0
0 0 0
0 0 0
0 0 0
0 0 0
0 0 0
0 0 0
0 0 0
0 0 0
0 0 0
0 0 0
0 0 0
0 0 0
0 0 0
0 0 0
0 0 0
0 0 0
0 0 0
0 0 0
0 0 0
0 0 0
0 0 0
0 0 0
0 0 0
0 0 0
0 0 0
0 0 0
0 0 0
0 0 0
0 0 0
0 0 0
0 0 0
0 0 0
0 0 0
0 0 0
0 0 0
0 0 0
0 0 0
0 0 0
0 0 0
0 0 0
0 0 0
0 0 0
0 0 0
0 0 0
0 0 0
0 0 0
0 0 0
0 0 0
0 0 0
0 0 0
0 0 0
0 0 0
0 0 0
0 0 0
0 0 0
0 0 0
0 0 0
0 0 0
0 0 0
0 0 0
0 0 0
0 0 0
0 0 0
0 0 0
0 0 0
0 0 0
0 0 0
0 0 0
0 0 0
0 0 0
0 0 0
0 0 0
0 0 0
0 0 0
0 0 0
0 0 0
0 0 0
0 0 0
0 0 0
0 0 0
0 0 0
0 0 0
0 0 0
0 0 0
0 0 0
0 0 0
0 0 0
0 0 0
0 0 0
0 0 0
0 0 0
0 0 0
0 0 0
0 0 0
0 0 0
0 0 0
0 0 0
0 0 0
0 0 0
0 0 0
0 0 0
0 0 0
0 0 0
0 0 0
0 0 0
0 0 0
0 0 0
0 0 0
0 0 0
0 0 0
0 0 0
0 0 0
0 0 0
0 0 0
0 0 0
0 0 0
0 0 0
0 0 0
0 0 0
0 0 0
0 0 0
0 0 0
0 0 0
0 0 0
0 0 0
0 0 0
0 0 0
0 0 0
0 0 0
0 0 0
0 0 0
0 0 0
0 0 0
0 0 0
0 0 0
0 0 0
0 0 0
0 0 0
0 0 0
0 0 0
0 0 0
0 0 0
0 0 0
0 0 0
0 0 0
0 0 0
0 0 0
0 0 0
0 0 0
0 0 0
0 0 0
0 0 0
0 0 0
0 0 0
0 0 0
0 0 0
0 0 0
0 0 0
0 0 0
0 0 0
0 0 0
0 0 0
0 0 0
0 0 0
0 0 0
0 0 0
0 0 0
0 0 0
0 0 0
0 0 0
0 0 0
0 0 0
0 0 0
0 0 0
0 0 0
0 0 0
0 0 0
0 0 0
0 0 0
0 0 0
0 0 0
0 0 0
0 0 0
0 0 0
0 0 0
0 0 0
0 0 0
0 0 0
0 0 0
0 0 0
0 0 0
0 0 0
0 0 0
0 0 0
0 0 0
0 0 0
0 0 0
0 0 0
0 0 0
0 0 0
0 0 0
0 0 0
0 0 0
0 0 0
0 0 0
0 0 0
0 0 0
0 0 0
0 0 0
0 0 0
0 0 0
0 0 0
0 0 0
0 0 0
0 0 0
0 0 0
0 0 0
0 0 0
0 0 0
0 0 0
0 0 0
0 0 0
0 0 0
0 0 0
0 0 0
0 0 0
0 0 0
0 0 0
0 0 0
0 0 0
0 0 0
0 0 0
0 0 0
0 0 0
0 0 0
0 0 0
0 0 0
0 0 0
0 0 0
0 0 0
0 0 0
0 0 0
0 0 0
0 0 0
0 0 0
0 0 0
0 0 0
0 0 0
0 0 0
0 0 0
0 0 0
0 0 0
0 0 0
0 0 0
0 0 0
0 0 0
0 0 0
0 0 0
0 0 0
0 0 0
0 0 0
0 0 0
0 0 0
0 0 0
0 0 0
0 0 0
0 0 0
0 0 0
0 0 0
0 0 0
0 0 0
0 0 0
0 0 0
0 0 0
0 0 0
0 0 0
0 0 0
0 0 0
0 0 0
0 0 0
0 0 0
0 0 0
0 0 0
0 0 0
0 0 0
0 0 0
0 0 0
0 0 0
0 0 0
0 0 0
0 0 0
0 0 0
0 0 0
0 0 0
0 0 0
0 0 0
0 0 0
0 0 0
0 0 0
0 0 0
0 0 0
0 0 0
0 0 0
0 0 0
0 0 0
0 0 0
0 0 0
0 0 0
0 0 0
0 0 0
0 0 0
0 0 0
0 0 0
0 0 0
0 0 0
0 0 0
0 0 0
0 0 0
0 0 0
0 0 0
0 0 0
0 0 0
0 0 0
0 0 0
0 0 0
0 0 0
0 0 0
0 0 0
0 0 0
0 0 0
0 0 0
0 0 0
0 0 0
0 0 0
0 0 0
0 0 0
0 0 0
0 0 0
0 0 0
0 0 0
0 0 0
0 0 0
0 0 0
0 0 0
0 0 0
0 0 0
0 0 0
0 0 0
0 0 0
0 0 0
0 0 0
0 0 0
0 0 0
0 0 0
0 0 0
0 0 0
0 0 0
0 0 0
0 0 0
0 0 0
0 0 0
0 0 0
0 0 0
0 0 0
0 0 0
0 0 0
0 0 0
0 0 0
0 0 0
0 0 0
0 0 0
0 0 0
0 0 0
0 0 0
0 0 0
0 0 0
0 0 0
0 0 0
0 0 0
0 0 0
0 0 0
0 0 0
0 0 0
0 0 0
0 0 0
0 0 0
0 0 0
0 0 0
0 0 0
0 0 0
0 0 0
0 0 0
0 0 0
0 0 0
0 0 0
0 0 0
0 0 0
0 0 0
0 0 0
0 0 0
0 0 0
0 0 0
0 0 0
0 0 0
0 0 0
0 0 0
0 0 0
0 0 0
0 0 0
0 0 0
0 0 0
0 0 0
0 0 0
0 0 0
0 0 0
0 0 0
0 0 0
0 0 0
0 0 0
0 0 0
0 0 0
0 0 0
0 0 0
0 0 0
0 0 0
0 0 0
0 0 0
0 0 0
0 0 0
0 0 0
0 0 0
0 0 0
0 0 0
0 0 0
0 0 0
0 0 0
0 0 0
0 0 0
0 0 0
0 0 0
0 0 0
0 0 0
0 0 0
0 0 0
0 0 0
0 0 0
0 0 0
0 0 0
0 0 0
0 0 0
0 0 0
0 0 0
0 0 0
0 0 0
0 0 0
0 0 0
0 0 0
0 0 0
0 0 0
0 0 0
0 0 0
0 0 0
0 0 0
0 0 0
0 0 0
0 0 0
0 0 0
0 0 0
0 0 0
0 0 0
0 0 0
0 0 0
0 0 0
0 0 0
0 0 0
0 0 0
0 0 0
0 0 0
0 0 0
0 0 0
0 0 0
0 0 0
0 0 0
0 0 0
0 0 0
0 0 0
0 0 0
0 0 0
0 0 0
0 0 0
0 0 0
0 0 0
0 0 0
0 0 0
0 0 0
0 0 0
0 0 0
0 0 0
0 0 0
0 0 0
0 0 0
0 0 0
0 0 0
0 0 0
0 0 0
0 0 0
0 0 0
0 0 0
0 0 0
0 0 0
0 0 0
0 0 0
0 0 0
0 0 0
0 0 0
0 0 0
0 0 0
0 0 0
0 0 0
0 0 0
0 0 0
0 0 0
0 0 0
0 0 0
0 0 0
0 0 0
0 0 0
0 0 0
0 0 0
0 0 0
0 0 0
0 0 0
0 0 0
0 0 0
0 0 0
0 0 0
0 0 0
0 0 0
0 0 0
0 0 0
0 0 0
0 0 0
0 0 0
0 0 0
0 0 0
0 0 0
0 0 0
0 0 0
0 0 0
0 0 0
0 0 0
0 0 0
0 0 0
0 0 0
0 0 0
0 0 0
0 0 0
0 0 0
0 0 0
0 0 0
0 0 0
0 0 0
0 0 0
0 0 0
0 0 0
0 0 0
0 0 0
0 0 0
0 0 0
0 0 0
0 0 0
0 0 0
0 0 0
0 0 0
0 0 0
0 0 0
0 0 0
0 0 0
0 0 0
0 0 0
0 0 0
0 0 0
0 0 0
0 0 0
0 0 0
0 0 0
0 0 0
0 0 0
0 0 0
0 0 0
0 0 0
0 0 0
0 0 0
0 0 0
0 0 0
0 0 0
0 0 0
0 0 0
0 0 0
0 0 0
0 0 0
0 0 0
0 0 0
0 0 0
0 0 0
0 0 0
0 0 0
0 0 0
0 0 0
0 0 0
0 0 0
0 0 0
0 0 0
0 0 0
0 0 0
0 0 0
0 0 0
0 0 0
0 0 0
0 0 0
0 0 0
0 0 0
0 0 0
0 0 0
0 0 0
0 0 0
0 0 0
0 0 0
0 0 0
0 0 0
0 0 0
0 0 0
0 0 0
0 0 0
0 0 0
0 0 0
0 0 0
0 0 0
0 0 0
0 0 0
0 0 0
0 0 0
0 0 0
0 0 0
0 0 0
0 0 0
0 0 0
0 0 0
0 0 0
0 0 0
0 0 0
0 0 0
0 0 0
0 0 0
0 0 0
0 0 0
0 0 0
0 0 0
0 0 0
0 0 0
0 0 0
0 0 0
0 0 0
0 0 0
0 0 0
0 0 0
0 0 0
0 0 0
0 0 0
0 0 0
0 0 0
0 0 0
0 0 0
0 0 0
0 0 0
0 0 0
0 0 0
0 0 0
0 0 0
0 0 0
0 0 0
0 0 0
0 0 0
0 0 0
0 0 0
0 0 0
0 0 0
0 0 0
0 0 0
0 0 0
0 0 0
0 0 0
0 0 0
0 0 0
0 0 0
0 0 0
0 0 0
0 0 0
0 0 0
0 0 0
0 0 0
0 0 0
0 0 0
0 0 0
0 0 0
0 0 0
0 0 0
0 0 0
0 0 0
0 0 0
0 0 0
0 0 0
0 0 0
0 0 0
0 0 0
0 0 0
0 0 0
0 0 0
0 0 0
0 0 0
0 0 0
0 0 0
0 0 0
0 0 0
0 0 0
0 0 0
0 0 0
0 0 0
0 0 0
0 0 0
0 0 0
0 0 0
0 0 0
0 0 0
0 0 0
0 0 0
0 0 0
0 0 0
0 0 0
0 0 0
0 0 0
0 0 0
0 0 0
0 0 0
0 0 0
0 0 0
0 0 0
0 0 0
0 0 0
0 0 0
0 0 0
0 0 0
0 0 0
0 0 0
0 0 0
0 0 0
0 0 0
0 0 0
0 0 0
0 0 0
0 0 0
0 0 0
0 0 0
0 0 0
0 0 0
0 0 0
0 0 0
0 0 0
0 0 0
0 0 0
0 0 0
0 0 0
0 0 0
0 0 0
0 0 0
0 0 0
0 0 0
0 0 0
0 0 0
0 0 0
0 0 0
0 0 0
0 0 0
0 0 0
0 0 0
0 0 0
0 0 0
0 0 0
0 0 0
0 0 0
0 0 0
0 0 0
0 0 0
0 0 0
0 0 0
0 0 0
0 0 0
0 0 0
0 0 0
0 0 0
0 0 0
0 0 0
0 0 0
0 0 0
0 0 0
0 0 0
0 0 0
0 0 0
0 0 0
0 0 0
0 0 0
0 0 0
0 0 0
0 0 0
0 0 0
0 0 0
0 0 0
0 0 0
0 0 0
0 0 0
0 0 0
0 0 0
0 0 0
0 0 0
0 0 0
0 0 0
0 0 0
0 0 0
0 0 0
0 0 0
0 0 0
0 0 0
0 0 0
0 0 0
0 0 0
0 0 0
0 0 0
0 0 0
0 0 0
0 0 0
0 0 0
0 0 0
0 0 0
0 0 0
0 0 0
0 0 0
0 0 0
0 0 0
0 0 0
0 0 0
0 0 0
0 0 0
0 0 0
0 0 0
0 0 0
0 0 0
0 0 0
0 0 0
0 0 0
0 0 0
0 0 0
0 0 0
0 0 0
0 0 0
0 0 0
0 0 0
0 0 0
0 0 0
0 0 0
0 0 0
0 0 0
0 0 0
0 0 0
0 0 0
0 0 0
0 0 0
0 0 0
0 0 0
0 0 0
0 0 0
0 0 0
0 0 0
0 0 0
0 0 0
0 0 0
0 0 0
0 0 0
0 0 0
0 0 0
0 0 0
0 0 0
0 0 0
0 0 0
0 0 0
0 0 0
0 0 0
0 0 0
0 0 0
0 0 0
0 0 0
0 0 0
0 0 0
0 0 0
0 0 0
0 0 0
0 0 0
0 0 0
0 0 0
0 0 0
0 0 0
0 0 0
0 0 0
0 0 0
0 0 0
0 0 0
0 0 0
0 0 0
0 0 0
0 0 0
0 0 0
0 0 0
0 0 0
0 0 0
0 0 0
0 0 0
0 0 0
0 0 0
0 0 0
0 0 0
0 0 0
0 0 0
0 0 0
0 0 0
0 0 0
0 0 0
0 0 0
0 0 0
0 0 0
0 0 0
0 0 0
0 0 0
0 0 0
0 0 0
0 0 0
0 0 0
0 0 0
0 0 0
0 0 0
0 0 0
0 0 0
0 0 0
0 0 0
0 0 0
0 0 0
0 0 0
0 0 0
0 0 0
0 0 0
0 0 0
0 0 0
0 0 0
0 0 0
0 0 0
0 0 0
0 0 0
0 0 0
0 0 0
0 0 0
0 0 0
0 0 0
0 0 0
0 0 0
0 0 0
0 0 0
0 0 0
0 0 0
0 0 0
0 0 0
0 0 0
0 0 0
0 0 0
0 0 0
0 0 0
0 0 0
0 0 0
0 0 0
0 0 0
0 0 0
0 0 0
0 0 0
0 0 0
0 0 0
0 0 0
0 0 0
0 0 0
0 0 0
0 0 0
0 0 0
0 0 0
0 0 0
0 0 0
0 0 0
0 0 0
0 0 0
0 0 0
0 0 0
0 0 0
0 0 0
0 0 0
0 0 0
0 0 0
0 0 0
0 0 0
0 0 0
0 0 0
0 0 0
0 0 0
0 0 0
0 0 0
0 0 0
0 0 0
0 0 0
0 0 0
0 0 0
0 0 0
0 0 0
0 0 0
0 0 0
0 0 0
0 0 0
0 0 0
0 0 0
0 0 0
0 0 0
0 0 0
0 0 0
0 0 0
0 0 0
0 0 0
0 0 0
0 0 0
0 0 0
0 0 0
0 0 0
0 0 0
0 0 0
0 0 0
0 0 0
0 0 0
0 0 0
0 0 0
0 0 0
0 0 0
0 0 0
0 0 0
0 0 0
0 0 0
0 0 0
0 0 0
0 0 0
0 0 0
0 0 0
0 0 0
0 0 0
0 0 0
0 0 0
0 0 0
0 0 0
0 0 0
0 0 0
0 0 0
0 0 0
0 0 0
0 0 0
0 0 0
0 0 0
0 0 0
0 0 0
0 0 0
0 0 0
0 0 0
0 0 0
0 0 0
0 0 0
0 0 0
0 0 0
0 0 0
0 0 0
0 0 0
0 0 0
0 0 0
0 0 0
0 0 0
0 0 0
0 0 0
0 0 0
0 0 0
0 0 0
0 0 0
0 0 0
0 0 0
0 0 0
0 0 0
0 0 0
0 0 0
0 0 0
0 0 0
0 0 0
0 0 0
0 0 0
0 0 0
0 0 0
0 0 0
0 0 0
0 0 0
0 0 0
0 0 0
0 0 0
0 0 0
0 0 0
0 0 0
0 0 0
0 0 0
0 0 0
0 0 0
0 0 0
0 0 0
0 0 0
0 0 0
0 0 0
0 0 0
0 0 0
0 0 0
0 0 0
0 0 0
0 0 0
0 0 0
0 0 0
0 0 0
0 0 0
0 0 0
0 0 0
0 0 0
0 0 0
0 0 0
0 0 0
0 0 0
0 0 0
0 0 0
0 0 0
0 0 0
0 0 0
0 0 0
0 0 0
0 0 0
0 0 0
0 0 0
0 0 0
0 0 0
0 0 0
0 0 0
0 0 0
0 0 0
0 0 0
0 0 0
0 0 0
0 0 0
0 0 0
0 0 0
0 0 0
0 0 0
0 0 0
0 0 0
0 0 0
0 0 0
0 0 0
0 0 0
0 0 0
0 0 0
0 0 0
0 0 0
0 0 0
0 0 0
0 0 0
0 0 0
0 0 0
0 0 0
0 0 0
0 0 0
0 0 0
0 0 0
0 0 0
0 0 0
0 0 0
0 0 0
0 0 0
0 0 0
0 0 0
0 0 0
0 0 0
0 0 0
0 0 0
0 0 0
0 0 0
0 0 0
0 0 0
0 0 0
0 0 0
0 0 0
0 0 0
0 0 0
0 0 0
0 0 0
0 0 0
0 0 0
0 0 0
0 0 0
0 0 0
0 0 0
0 0 0
0 0 0
0 0 0
0 0 0
0 0 0
0 0 0
0 0 0
0 0 0
0 0 0
0 0 0
0 0 0
0 0 0
0 0 0
0 0 0
0 0 0
0 0 0
0 0 0
0 0 0
0 0 0
0 0 0
0 0 0
0 0 0
0 0 0
0 0 0
0 0 0
0 0 0
0 0 0
0 0 0
0 0 0
0 0 0
0 0 0
0 0 0
0 0 0
0 0 0
0 0 0
0 0 0
0 0 0
0 0 0
0 0 0
0 0 0
0 0 0
0 0 0
0 0 0
0 0 0
0 0 0
0 0 0
0 0 0
0 0 0
0 0 0
0 0 0
0 0 0
0 0 0
0 0 0
0 0 0
0 0 0
0 0 0
0 0 0
0 0 0
0 0 0
0 0 0
0 0 0
0 0 0
0 0 0
0 0 0
0 0 0
0 0 0
0 0 0
0 0 0
0 0 0
0 0 0
0 0 0
0 0 0
0 0 0
0 0 0
0 0 0
0 0 0
0 0 0
0 0 0
0 0 0
0 0 0
0 0 0
0 0 0
0 0 0
0 0 0
0 0 0
0 0 0
0 0 0
0 0 0
0 0 0
0 0 0
0 0 0
0 0 0
0 0 0
0 0 0
0 0 0
0 0 0
0 0 0
0 0 0
0 0 0
0 0 0
0 0 0
0 0 0
0 0 0
0 0 0
0 0 0
0 0 0
0 0 0
0 0 0
0 0 0
0 0 0
0 0 0
0 0 0
0 0 0
0 0 0
0 0 0
0 0 0
0 0 0
0 0 0
0 0 0
0 0 0
0 0 0
0 0 0
0 0 0
0 0 0
0 0 0
0 0 0
0 0 0
0 0 0
0 0 0
0 0 0
0 0 0
0 0 0
0 0 0
0 0 0
0 0 0
0 0 0
0 0 0
0 0 0
0 0 0
0 0 0
0 0 0
0 0 0
0 0 0
0 0 0
0 0 0
0 0 0
0 0 0
0 0 0
0 0 0
0 0 0
0 0 0
0 0 0
0 0 0
0 0 0
0 0 0
0 0 0
0 0 0
0 0 0
0 0 0
0 0 0
0 0 0
0 0 0
0 0 0
0 0 0
0 0 0
0 0 0
0 0 0
0 0 0
0 0 0
0 0 0
0 0 0
0 0 0
0 0 0
0 0 0
0 0 0
0 0 0
0 0 0
0 0 0
0 0 0
0 0 0
0 0 0
0 0 0
0 0 0
0 0 0
0 0 0
0 0 0
0 0 0
0 0 0
0 0 0
0 0 0
0 0 0
0 0 0
0 0 0
0 0 0
0 0 0
0 0 0
0 0 0
0 0 0
0 0 0
0 0 0
0 0 0
0 0 0
0 0 0
0 0 0
0 0 0
0 0 0
0 0 0
0 0 0
0 0 0
0 0 0
0 0 0
0 0 0
0 0 0
0 0 0
0 0 0
0 0 0
0 0 0
0 0 0
0 0 0
0 0 0
0 0 0
0 0 0
0 0 0
0 0 0
0 0 0
0 0 0
0 0 0
0 0 0
0 0 0
0 0 0
0 0 0
0 0 0
0 0 0
0 0 0
0 0 0
0 0 0
0 0 0
0 0 0
0 0 0
0 0 0
0 0 0
0 0 0
0 0 0
0 0 0
0 0 0
0 0 0
0 0 0
0 0 0
0 0 0
0 0 0
0 0 0
0 0 0
0 0 0
0 0 0
0 0 0
0 0 0
0 0 0
0 0 0
0 0 0
0 0 0
0 0 0
0 0 0
0 0 0
0 0 0
0 0 0
0 0 0
0 0 0
0 0 0
0 0 0
0 0 0
0 0 0
0 0 0
0 0 0
0 0 0
0 0 0
0 0 0
0 0 0
0 0 0
0 0 0
0 0 0
0 0 0
0 0 0
0 0 0
0 0 0
0 0 0
0 0 0
0 0 0
0 0 0
0 0 0
0 0 0
0 0 0
0 0 0
0 0 0
0 0 0
0 0 0
0 0 0
0 0 0
0 0 0
0 0 0
0 0 0
0 0 0
0 0 0
0 0 0
0 0 0
0 0 0
0 0 0
0 0 0
0 0 0
0 0 0
0 0 0
0 0 0
0 0 0
0 0 0
0 0 0
0 0 0
0 0 0
0 0 0
0 0 0
0 0 0
0 0 0
0 0 0
0 0 0
0 0 0
0 0 0
0 0 0
0 0 0
0 0 0
0 0 0
0 0 0
0 0 0
0 0 0
0 0 0
0 0 0
0 0 0
0 0 0
0 0 0
0 0 0
0 0 0
0 0 0
0 0 0
0 0 0
0 0 0
0 0 0
0 0 0
0 0 0
0 0 0
0 0 0
0 0 0
0 0 0
0 0 0
0 0 0
0 0 0
0 0 0
0 0 0
0 0 0
0 0 0
0 0 0
0 0 0
0 0 0
0 0 0
0 0 0
0 0 0
0 0 0
0 0 0
0 0 0
0 0 0
0 0 0
0 0 0
0 0 0
0 0 0
0 0 0
0 0 0
0 0 0
0 0 0
0 0 0
0 0 0
0 0 0
0 0 0
0 0 0
0 0 0
0 0 0
0 0 0
0 0 0
0 0 0
0 0 0
0 0 0
0 0 0
0 0 0
0 0 0
0 0 0
0 0 0
0 0 0
0 0 0
0 0 0
0 0 0
0 0 0
0 0 0
0 0 0
0 0 0
0 0 0
0 0 0
0 0 0
0 0 0
0 0 0
0 0 0
0 0 0
0 0 0
0 0 0
0 0 0
0 0 0
0 0 0
0 0 0
0 0 0
0 0 0
0 0 0
0 0 0
0 0 0
0 0 0
0 0 0
0 0 0
0 0 0
0 0 0
0 0 0
0 0 0
0 0 0
0 0 0
0 0 0
0 0 0
0 0 0
0 0 0
0 0 0
0 0 0
0 0 0
0 0 0
0 0 0
0 0 0
0 0 0
0 0 0
0 0 0
0 0 0
0 0 0
0 0 0
0 0 0
0 0 0
0 0 0
0 0 0
0 0 0
0 0 0
0 0 0
0 0 0
0 0 0
0 0 0
0 0 0
0 0 0
0 0 0
0 0 0
0 0 0
0 0 0
0 0 0
0 0 0
0 0 0
0 0 0
0 0 0
0 0 0
0 0 0
0 0 0
0 0 0
0 0 0
0 0 0
0 0 0
0 0 0
0 0 0
0 0 0
0 0 0
0 0 0
0 0 0
0 0 0
0 0 0
0 0 0
0 0 0
0 0 0
0 0 0
0 0 0
0 0 0
0 0 0
0 0 0
0 0 0
0 0 0
0 0 0
0 0 0
0 0 0
0 0 0
0 0 0
0 0 0
0 0 0
0 0 0
0 0 0
0 0 0
0 0 0
0 0 0
0 0 0
0 0 0
0 0 0
0 0 0
0 0 0
0 0 0
0 0 0
0 0 0
0 0 0
0 0 0
0 0 0
0 0 0
0 0 0
0 0 0
0 0 0
0 0 0
0 0 0
0 0 0
0 0 0
0 0 0
0 0 0
0 0 0
0 0 0
0 0 0
0 0 0
0 0 0
0 0 0
0 0 0
0 0 0
0 0 0
0 0 0
0 0 0
0 0 0
0 0 0
0 0 0
0 0 0
0 0 0
0 0 0
0 0 0
0 0 0
0 0 0
0 0 0
0 0 0
0 0 0
0 0 0
0 0 0
0 0 0
0 0 0
0 0 0
0 0 0
0 0 0
0 0 0
0 0 0
0 0 0
0 0 0
0 0 0
0 0 0
0 0 0
0 0 0
0 0 0
0 0 0
0 0 0
0 0 0
0 0 0
0 0 0
0 0 0
0 0 0
0 0 0
0 0 0
0 0 0
0 0 0
0 0 0
0 0 0
0 0 0
0 0 0
0 0 0
0 0 0
0 0 0
0 0 0
0 0 0
0 0 0
0 0 0
0 0 0
0 0 0
0 0 0
0 0 0
0 0 0
0 0 0
0 0 0
0 0 0
0 0 0
0 0 0
0 0 0
0 0 0
0 0 0
0 0 0
0 0 0
0 0 0
0 0 0
0 0 0
0 0 0
0 0 0
0 0 0
0 0 0
0 0 0
0 0 0
0 0 0
0 0 0
0 0 0
0 0 0
0 0 0
0 0 0
0 0 0
0 0 0
0 0 0
0 0 0
0 0 0
0 0 0
0 0 0
0 0 0
0 0 0
0 0 0
0 0 0
0 0 0
0 0 0
0 0 0
0 0 0
0 0 0
0 0 0
0 0 0
0 0 0
0 0 0
0 0 0
0 0 0
0 0 0
0 0 0
0 0 0
0 0 0
0 0 0
0 0 0
0 0 0
0 0 0
0 0 0
0 0 0
0 0 0
0 0 0
0 0 0
0 0 0
0 0 0
0 0 0
0 0 0
0 0 0
0 0 0
0 0 0
0 0 0
0 0 0
0 0 0
0 0 0
0 0 0
0 0 0
0 0 0
0 0 0
0 0 0
0 0 0
0 0 0
0 0 0
0 0 0
0 0 0
0 0 0
0 0 0
0 0 0
0 0 0
0 0 0
0 0 0
0 0 0
0 0 0
0 0 0
0 0 0
0 0 0
0 0 0
0 0 0
0 0 0
0 0 0
0 0 0
0 0 0
0 0 0
0 0 0
0 0 0
0 0 0
0 0 0
0 0 0
0 0 0
0 0 0
0 0 0
0 0 0
0 0 0
0 0 0
0 0 0
0 0 0
0 0 0
0 0 0
0 0 0
0 0 0
0 0 0
0 0 0
0 0 0
0 0 0
0 0 0
0 0 0
0 0 0
0 0 0
0 0 0
0 0 0
0 0 0
0 0 0
0 0 0
0 0 0
0 0 0
0 0 0
0 0 0
0 0 0
0 0 0
0 0 0
0 0 0
0 0 0
0 0 0
0 0 0
0 0 0
0 0 0
0 0 0
0 0 0
0 0 0
0 0 0
0 0 0
0 0 0
0 0 0
0 0 0
0 0 0
0 0 0
0 0 0
0 0 0
0 0 0
0 0 0
0 0 0
0 0 0
0 0 0
0 0 0
0 0 0
0 0 0
0 0 0
0 0 0
0 0 0
0 0 0
0 0 0
0 0 0
0 0 0
0 0 0
0 0 0
0 0 0
0 0 0
0 0 0
0 0 0
0 0 0
0 0 0
0 0 0
0 0 0
0 0 0
0 0 0
0 0 0
0 0 0
0 0 0
0 0 0
0 0 0
0 0 0
0 0 0
0 0 0
0 0 0
0 0 0
0 0 0
0 0 0
0 0 0
0 0 0
0 0 0
0 0 0
0 0 0
0 0 0
0 0 0
0 0 0
0 0 0
0 0 0
0 0 0
0 0 0
0 0 0
0 0 0
0 0 0
0 0 0
0 0 0
0 0 0
0 0 0
0 0 0
0 0 0
0 0 0
0 0 0
0 0 0
0 0 0
0 0 0
0 0 0
0 0 0
0 0 0
0 0 0
0 0 0
0 0 0
0 0 0
0 0 0
0 0 0
0 0 0
0 0 0
0 0 0
0 0 0
0 0 0
0 0 0
0 0 0
0 0 0
0 0 0
0 0 0
0 0 0
0 0 0
0 0 0
0 0 0
0 0 0
0 0 0
0 0 0
0 0 0
0 0 0
0 0 0
0 0 0
0 0 0
0 0 0
0 0 0
0 0 0
0 0 0
0 0 0
0 0 0
0 0 0
0 0 0
0 0 0
0 0 0
0 0 0
0 0 0
0 0 0
0 0 0
0 0 0
0 0 0
0 0 0
0 0 0
0 0 0
0 0 0
0 0 0
0 0 0
0 0 0
0 0 0
0 0 0
0 0 0
0 0 0
0 0 0
0 0 0
0 0 0
0 0 0
0 0 0
0 0 0
0 0 0
0 0 0
0 0 0
0 0 0
0 0 0
0 0 0
0 0 0
0 0 0
0 0 0
0 0 0
0 0 0
0 0 0
0 0 0
0 0 0
0 0 0
0 0 0
0 0 0
0 0 0
0 0 0
0 0 0
0 0 0
0 0 0
0 0 0
0 0 0
0 0 0
0 0 0
0 0 0
0 0 0
0 0 0
0 0 0
0 0 0
0 0 0
0 0 0
0 0 0
0 0 0
0 0 0
0 0 0
0 0 0
0 0 0
0 0 0
0 0 0
0 0 0
0 0 0
0 0 0
0 0 0
0 0 0
0 0 0
0 0 0
0 0 0
0 0 0
0 0 0
0 0 0
0 0 0
0 0 0
0 0 0
0 0 0
0 0 0
0 0 0
0 0 0
0 0 0
0 0 0
0 0 0
0 0 0
0 0 0
0 0 0
0 0 0
0 0 0
0 0 0
0 0 0
0 0 0
0 0 0
0 0 0
0 0 0
0 0 0
0 0 0
0 0 0
0 0 0
0 0 0
0 0 0
0 0 0
0 0 0
0 0 0
0 0 0
0 0 0
0 0 0
0 0 0
0 0 0
0 0 0
0 0 0
0 0 0
0 0 0
0 0 0
0 0 0
0 0 0
0 0 0
0 0 0
0 0 0
0 0 0
0 0 0
0 0 0
0 0 0
0 0 0
0 0 0
0 0 0
0 0 0
0 0 0
0 0 0
0 0 0
0 0 0
0 0 0
0 0 0
0 0 0
0 0 0
0 0 0
0 0 0
0 0 0
0 0 0
0 0 0
0 0 0
0 0 0
0 0 0
0 0 0
0 0 0
0 0 0
0 0 0
0 0 0
0 0 0
0 0 0
0 0 0
0 0 0
0 0 0
0 0 0
0 0 0
0 0 0
0 0 0
0 0 0
0 0 0
0 0 0
0 0 0
0 0 0
0 0 0
0 0 0
0 0 0
0 0 0
0 0 0
0 0 0
0 0 0
0 0 0
0 0 0
0 0 0
0 0 0
0 0 0
0 0 0
0 0 0
0 0 0
0 0 0
0 0 0
0 0 0
0 0 0
0 0 0
0 0 0
0 0 0
0 0 0
0 0 0
0 0 0
0 0 0
0 0 0
0 0 0
0 0 0
0 0 0
0 0 0
0 0 0
0 0 0
0 0 0
0 0 0
0 0 0
0 0 0
0 0 0
0 0 0
0 0 0
0 0 0
0 0 0
0 0 0
0 0 0
0 0 0
0 0 0
0 0 0
0 0 0
0 0 0
0 0 0
0 0 0
0 0 0
0 0 0
0 0 0
0 0 0
0 0 0
0 0 0
0 0 0
0 0 0
0 0 0
0 0 0
0 0 0
0 0 0
0 0 0
0 0 0
0 0 0
0 0 0
0 0 0
0 0 0
0 0 0
0 0 0
0 0 0
0 0 0
0 0 0
0 0 0
0 0 0
0 0 0
0 0 0
0 0 0
0 0 0
0 0 0
0 0 0
0 0 0
0 0 0
0 0 0
0 0 0
0 0 0
0 0 0
0 0 0
0 0 0
0 0 0
0 0 0
0 0 0
0 0 0
0 0 0
0 0 0
0 0 0
0 0 0
0 0 0
0 0 0
0 0 0
0 0 0
0 0 0
0 0 0
0 0 0
0 0 0
0 0 0
0 0 0
0 0 0
0 0 0
0 0 0
0 0 0
0 0 0
0 0 0
0 0 0
0 0 0
0 0 0
0 0 0
0 0 0
0 0 0
0 0 0
0 0 0
0 0 0
0 0 0
0 0 0
0 0 0
0 0 0
0 0 0
0 0 0
0 0 0
0 0 0
0 0 0
0 0 0
0 0 0
0 0 0
0 0 0
0 0 0
0 0 0
0 0 0
0 0 0
0 0 0
0 0 0
0 0 0
0 0 0
0 0 0
0 0 0
0 0 0
0 0 0
0 0 0
0 0 0
0 0 0
0 0 0
0 0 0
0 0 0
0 0 0
0 0 0
0 0 0
0 0 0
0 0 0
0 0 0
0 0 0
0 0 0
0 0 0
0 0 0
0 0 0
0 0 0
0 0 0
0 0 0
0 0 0
0 0 0
0 0 0
0 0 0
0 0 0
0 0 0
0 0 0
0 0 0
0 0 0
0 0 0
0 0 0
0 0 0
0 0 0
0 0 0
0 0 0
0 0 0
0 0 0
0 0 0
0 0 0
0 0 0
0 0 0
0 0 0
0 0 0
0 0 0
0 0 0
0 0 0
0 0 0
0 0 0
0 0 0
0 0 0
0 0 0
0 0 0
0 0 0
0 0 0
0 0 0
0 0 0
0 0 0
0 0 0
0 0 0
0 0 0
0 0 0
0 0 0
0 0 0
0 0 0
0 0 0
0 0 0
0 0 0
0 0 0
0 0 0
0 0 0
0 0 0
0 0 0
0 0 0
0 0 0
0 0 0
0 0 0
0 0 0
0 0 0
0 0 0
0 0 0
0 0 0
0 0 0
0 0 0
0 0 0
0 0 0
0 0 0
0 0 0
0 0 0
0 0 0
0 0 0
0 0 0
0 0 0
0 0 0
0 0 0
0 0 0
0 0 0
0 0 0
0 0 0
0 0 0
0 0 0
0 0 0
0 0 0
0 0 0
0 0 0
0 0 0
0 0 0
0 0 0
0 0 0
0 0 0
0 0 0
0 0 0
0 0 0
0 0 0
0 0 0
0 0 0
0 0 0
0 0 0
0 0 0
0 0 0
0 0 0
0 0 0
0 0 0
0 0 0
0 0 0
0 0 0
0 0 0
0 0 0
0 0 0
0 0 0
0 0 0
0 0 0
0 0 0
0 0 0
0 0 0
0 0 0
0 0 0
0 0 0
0 0 0
0 0 0
0 0 0
0 0 0
0 0 0
0 0 0
0 0 0
0 0 0
0 0 0
0 0 0
0 0 0
0 0 0
0 0 0
0 0 0
0 0 0
0 0 0
0 0 0
0 0 0
0 0 0
0 0 0
0 0 0
0 0 0
0 0 0
0 0 0
0 0 0
0 0 0
0 0 0
0 0 0
0 0 0
0 0 0
0 0 0
0 0 0
0 0 0
0 0 0
0 0 0
0 0 0
0 0 0
0 0 0
0 0 0
0 0 0
0 0 0
0 0 0
0 0 0
0 0 0
0 0 0
0 0 0
0 0 0
0 0 0
0 0 0
0 0 0
0 0 0
0 0 0
0 0 0
0 0 0
0 0 0
0 0 0
0 0 0
0 0 0
0 0 0
0 0 0
0 0 0
0 0 0
0 0 0
0 0 0
0 0 0
0 0 0
0 0 0
0 0 0
0 0 0
0 0 0
0 0 0
0 0 0
0 0 0
0 0 0
0 0 0
0 0 0
0 0 0
0 0 0
0 0 0
0 0 0
0 0 0
0 0 0
0 0 0
0 0 0
0 0 0
0 0 0
0 0 0
0 0 0
0 0 0
0 0 0
0 0 0
0 0 0
0 0 0
0 0 0
0 0 0
0 0 0
0 0 0
0 0 0
0 0 0
0 0 0
0 0 0
0 0 0
0 0 0
0 0 0
0 0 0
0 0 0
0 0 0
0 0 0
0 0 0
0 0 0
0 0 0
0 0 0
0 0 0
0 0 0
0 0 0
0 0 0
0 0 0
0 0 0
0 0 0
0 0 0
0 0 0
0 0 0
0 0 0
0 0 0
0 0 0
0 0 0
0 0 0
0 0 0
0 0 0
0 0 0
0 0 0
0 0 0
0 0 0
0 0 0
0 0 0
0 0 0
0 0 0
0 0 0
0 0 0
0 0 0
0 0 0
0 0 0
0 0 0
0 0 0
0 0 0
0 0 0
0 0 0
0 0 0
0 0 0
0 0 0
0 0 0
0 0 0
0 0 0
0 0 0
0 0 0
0 0 0
0 0 0
0 0 0
0 0 0
0 0 0
0 0 0
0 0 0
0 0 0
0 0 0
0 0 0
0 0 0
0 0 0
0 0 0
0 0 0
0 0 0
0 0 0
0 0 0
0 0 0
0 0 0
0 0 0
0 0 0
0 0 0
0 0 0
0 0 0
0 0 0
0 0 0
0 0 0
0 0 0
0 0 0
0 0 0
0 0 0
0 0 0
0 0 0
0 0 0
0 0 0
0 0 0
0 0 0
0 0 0
0 0 0
0 0 0
0 0 0
0 0 0
0 0 0
0 0 0
0 0 0
0 0 0
0 0 0
0 0 0
0 0 0
0 0 0
0 0 0
0 0 0
0 0 0
0 0 0
0 0 0
0 0 0
0 0 0
0 0 0
0 0 0
0 0 0
0 0 0
0 0 0
0 0 0
0 0 0
0 0 0
0 0 0
0 0 0
0 0 0
0 0 0
0 0 0
0 0 0
0 0 0
0 0 0
0 0 0
0 0 0
0 0 0
0 0 0
0 0 0
0 0 0
0 0 0
0 0 0
0 0 0
0 0 0
0 0 0
0 0 0
0 0 0
0 0 0
0 0 0
0 0 0
0 0 0
0 0 0
0 0 0
0 0 0
0 0 0
0 0 0
0 0 0
0 0 0
0 0 0
0 0 0
0 0 0
0 0 0
0 0 0
0 0 0
0 0 0
0 0 0
0 0 0
0 0 0
0 0 0
0 0 0
0 0 0
0 0 0
0 0 0
0 0 0
0 0 0
0 0 0
0 0 0
0 0 0
0 0 0
0 0 0
0 0 0
0 0 0
0 0 0
0 0 0
0 0 0
0 0 0
0 0 0
0 0 0
0 0 0
0 0 0
0 0 0
0 0 0
0 0 0
0 0 0
0 0 0
0 0 0
0 0 0
0 0 0
0 0 0
0 0 0
0 0 0
0 0 0
0 0 0
0 0 0
0 0 0
0 0 0
0 0 0
0 0 0
0 0 0
0 0 0
0 0 0
0 0 0
0 0 0
0 0 0
0 0 0
0 0 0
0 0 0
0 0 0
0 0 0
0 0 0
0 0 0
0 0 0
0 0 0
0 0 0
0 0 0
0 0 0
0 0 0
0 0 0
0 0 0
0 0 0
0 0 0
0 0 0
0 0 0
0 0 0
0 0 0
0 0 0
0 0 0
0 0 0
0 0 0
0 0 0
0 0 0
0 0 0
0 0 0
0 0 0
0 0 0
0 0 0
0 0 0
0 0 0
0 0 0
0 0 0
0 0 0
0 0 0
0 0 0
0 0 0
0 0 0
0 0 0
0 0 0
0 0 0
0 0 0
0 0 0
0 0 0
0 0 0
0 0 0
0 0 0
0 0 0
0 0 0
0 0 0
0 0 0
0 0 0
0 0 0
0 0 0
0 0 0
0 0 0
0 0 0
0 0 0
0 0 0
0 0 0
0 0 0
0 0 0
0 0 0
0 0 0
0 0 0
0 0 0
0 0 0
0 0 0
0 0 0
0 0 0
0 0 0
0 0 0
0 0 0
0 0 0
0 0 0
0 0 0
0 0 0
0 0 0
0 0 0
0 0 0
0 0 0
0 0 0
0 0 0
0 0 0
0 0 0
0 0 0
0 0 0
0 0 0
0 0 0
0 0 0
0 0 0
0 0 0
0 0 0
0 0 0
0 0 0
0 0 0
0 0 0
0 0 0
0 0 0
0 0 0
0 0 0
0 0 0
0 0 0
0 0 0
0 0 0
0 0 0
0 0 0
0 0 0
0 0 0
0 0 0
0 0 0
0 0 0
0 0 0
0 0 0
0 0 0
0 0 0
0 0 0
0 0 0
0 0 0
0 0 0
0 0 0
0 0 0
0 0 0
0 0 0
0 0 0
0 0 0
0 0 0
0 0 0
0 0 0
0 0 0
0 0 0
0 0 0
0 0 0
0 0 0
0 0 0
0 0 0
0 0 0
0 0 0
0 0 0
0 0 0
0 0 0
0 0 0
0 0 0
0 0 0
0 0 0
0 0 0
0 0 0
0 0 0
0 0 0
0 0 0
0 0 0
0 0 0
0 0 0
0 0 0
0 0 0
0 0 0
0 0 0
0 0 0
0 0 0
0 0 0
0 0 0
0 0 0
0 0 0
0 0 0
0 0 0
0 0 0
0 0 0
0 0 0
0 0 0
0 0 0
0 0 0
0 0 0
0 0 0
0 0 0
0 0 0
0 0 0
0 0 0
0 0 0
0 0 0
0 0 0
0 0 0
0 0 0
0 0 0
0 0 0
0 0 0
0 0 0
0 0 0
0 0 0
0 0 0
0 0 0
0 0 0
0 0 0
0 0 0
0 0 0
0 0 0
0 0 0
0 0 0
0 0 0
0 0 0
0 0 0
0 0 0
0 0 0
0 0 0
0 0 0
0 0 0
0 0 0
0 0 0
0 0 0
0 0 0
0 0 0
0 0 0
0 0 0
0 0 0
0 0 0
0 0 0
0 0 0
0 0 0
0 0 0
0 0 0
0 0 0
0 0 0
0 0 0
0 0 0
0 0 0
0 0 0
0 0 0
0 0 0
0 0 0
0 0 0
0 0 0
0 0 0
0 0 0
0 0 0
0 0 0
0 0 0
0 0 0
0 0 0
0 0 0
0 0 0
0 0 0
0 0 0
0 0 0
0 0 0
0 0 0
0 0 0
0 0 0
0 0 0
0 0 0
0 0 0
0 0 0
0 0 0
0 0 0
0 0 0
0 0 0
0 0 0
0 0 0
0 0 0
0 0 0
0 0 0
0 0 0
0 0 0
0 0 0
0 0 0
0 0 0
0 0 0
0 0 0
0 0 0
0 0 0
0 0 0
0 0 0
0 0 0
0 0 0
0 0 0
0 0 0
0 0 0
0 0 0
0 0 0
0 0 0
0 0 0
0 0 0
0 0 0
0 0 0
0 0 0
0 0 0
0 0 0
0 0 0
0 0 0
0 0 0
0 0 0
0 0 0
0 0 0
0 0 0
0 0 0
0 0 0
0 0 0
0 0 0
0 0 0
0 0 0
0 0 0
0 0 0
0 0 0
0 0 0
0 0 0
0 0 0
0 0 0
0 0 0
0 0 0
0 0 0
0 0 0
0 0 0
0 0 0
0 0 0
0 0 0
0 0 0
0 0 0
0 0 0
0 0 0
0 0 0
0 0 0
0 0 0
0 0 0
0 0 0
0 0 0
0 0 0
0 0 0
0 0 0
0 0 0
0 0 0
0 0 0
0 0 0
0 0 0
0 0 0
0 0 0
0 0 0
0 0 0
0 0 0
0 0 0
0 0 0
0 0 0
0 0 0
0 0 0
0 0 0
0 0 0
0 0 0
0 0 0
0 0 0
0 0 0
0 0 0
0 0 0
0 0 0
0 0 0
0 0 0
0 0 0
0 0 0
0 0 0
0 0 0
0 0 0
0 0 0
0 0 0
0 0 0
0 0 0
0 0 0
0 0 0
0 0 0
0 0 0
0 0 0
0 0 0
0 0 0
0 0 0
0 0 0
0 0 0
0 0 0
0 0 0
0 0 0
0 0 0
0 0 0
0 0 0
0 0 0
0 0 0
0 0 0
0 0 0
0 0 0
0 0 0
0 0 0
0 0 0
0 0 0
0 0 0
0 0 0
0 0 0
0 0 0
0 0 0
0 0 0
0 0 0
0 0 0
0 0 0
0 0 0
0 0 0
0 0 0
0 0 0
0 0 0
0 0 0
0 0 0
0 0 0
0 0 0
0 0 0
0 0 0
0 0 0
0 0 0
0 0 0
0 0 0
0 0 0
0 0 0
0 0 0
0 0 0
0 0 0
0 0 0
0 0 0
0 0 0
0 0 0
0 0 0
0 0 0
0 0 0
0 0 0
0 0 0
0 0 0
0 0 0
0 0 0
0 0 0
0 0 0
0 0 0
0 0 0
0 0 0
0 0 0
0 0 0
0 0 0
0 0 0
0 0 0
0 0 0
0 0 0
0 0 0
0 0 0
0 0 0
0 0 0
0 0 0
0 0 0
0 0 0
0 0 0
0 0 0
0 0 0
0 0 0
0 0 0
0 0 0
0 0 0
0 0 0
0 0 0
0 0 0
0 0 0
0 0 0
0 0 0
0 0 0
0 0 0
0 0 0
0 0 0
0 0 0
0 0 0
0 0 0
0 0 0
0 0 0
0 0 0
0 0 0
0 0 0
0 0 0
0 0 0
0 0 0
0 0 0
0 0 0
0 0 0
0 0 0
0 0 0
0 0 0
0 0 0
0 0 0
0 0 0
0 0 0
0 0 0
0 0 0
0 0 0
0 0 0
0 0 0
0 0 0
0 0 0
0 0 0
0 0 0
0 0 0
0 0 0
0 0 0
0 0 0
0 0 0
0 0 0
0 0 0
0 0 0
0 0 0
0 0 0
0 0 0
0 0 0
0 0 0
0 0 0
0 0 0
0 0 0
0 0 0
0 0 0
0 0 0
0 0 0
0 0 0
0 0 0
0 0 0
0 0 0
0 0 0
0 0 0
0 0 0
0 0 0
0 0 0
0 0 0
0 0 0
0 0 0
0 0 0
0 0 0
0 0 0
0 0 0
0 0 0
0 0 0
0 0 0
0 0 0
0 0 0
0 0 0
0 0 0
0 0 0
0 0 0
0 0 0
0 0 0
0 0 0
0 0 0
0 0 0
0 0 0
0 0 0
0 0 0
0 0 0
0 0 0
0 0 0
0 0 0
0 0 0
0 0 0
0 0 0
0 0 0
0 0 0
0 0 0
0 0 0
0 0 0
0 0 0
0 0 0
0 0 0
0 0 0
0 0 0
0 0 0
0 0 0
0 0 0
0 0 0
0 0 0
0 0 0
0 0 0
0 0 0
0 0 0
0 0 0
0 0 0
0 0 0
0 0 0
0 0 0
0 0 0
0 0 0
0 0 0
0 0 0
0 0 0
0 0 0
0 0 0
0 0 0
0 0 0
0 0 0
0 0 0
0 0 0
0 0 0
0 0 0
0 0 0
0 0 0
0 0 0
0 0 0
0 0 0
0 0 0
0 0 0
0 0 0
0 0 0
0 0 0
0 0 0
0 0 0
0 0 0
0 0 0
0 0 0
0 0 0
0 0 0
0 0 0
0 0 0
0 0 0
0 0 0
0 0 0
0 0 0
0 0 0
0 0 0
0 0 0
0 0 0
0 0 0
0 0 0
0 0 0
0 0 0
0 0 0
0 0 0
0 0 0
0 0 0
0 0 0
0 0 0
0 0 0
0 0 0
0 0 0
0 0 0
0 0 0
0 0 0
0 0 0
0 0 0
0 0 0
0 0 0
0 0 0
0 0 0
0 0 0
0 0 0
0 0 0
0 0 0
0 0 0
0 0 0
0 0 0
0 0 0
0 0 0
0 0 0
0 0 0
0 0 0
0 0 0
0 0 0
0 0 0
0 0 0
0 0 0
0 0 0
0 0 0
0 0 0
0 0 0
0 0 0
0 0 0
0 0 0
0 0 0
0 0 0
0 0 0
0 0 0
0 0 0
0 0 0
0 0 0
0 0 0
0 0 0
0 0 0
0 0 0
0 0 0
0 0 0
0 0 0
0 0 0
0 0 0
0 0 0
0 0 0
0 0 0
0 0 0
0 0 0
0 0 0
0 0 0
0 0 0
0 0 0
0 0 0
0 0 0
0 0 0
0 0 0
0 0 0
0 0 0
0 0 0
0 0 0
0 0 0
0 0 0
0 0 0
0 0 0
0 0 0
0 0 0
0 0 0
0 0 0
0 0 0
0 0 0
0 0 0
0 0 0
0 0 0
0 0 0
0 0 0
0 0 0
0 0 0
0 0 0
0 0 0
0 0 0
0 0 0
0 0 0
0 0 0
0 0 0
0 0 0
0 0 0
0 0 0
0 0 0
0 0 0
0 0 0
0 0 0
0 0 0
0 0 0
0 0 0
0 0 0
0 0 0
0 0 0
0 0 0
0 0 0
0 0 0
0 0 0
0 0 0
0 0 0
0 0 0
0 0 0
0 0 0
0 0 0
0 0 0
0 0 0
0 0 0
0 0 0
0 0 0
0 0 0
0 0 0
0 0 0
0 0 0
0 0 0
0 0 0
0 0 0
0 0 0
0 0 0
0 0 0
0 0 0
0 0 0
0 0 0
0 0 0
0 0 0
0 0 0
0 0 0
0 0 0
0 0 0
0 0 0
0 0 0
0 0 0
0 0 0
0 0 0
0 0 0
0 0 0
0 0 0
0 0 0
0 0 0
0 0 0
0 0 0
0 0 0
0 0 0
0 0 0
0 0 0
0 0 0
0 0 0
0 0 0
0 0 0
0 0 0
0 0 0
0 0 0
0 0 0
0 0 0
0 0 0
0 0 0
0 0 0
0 0 0
0 0 0
0 0 0
0 0 0
0 0 0
0 0 0
0 0 0
0 0 0
0 0 0
0 0 0
0 0 0
0 0 0
0 0 0
0 0 0
0 0 0
0 0 0
0 0 0
0 0 0
0 0 0
0 0 0
0 0 0
0 0 0
0 0 0
0 0 0
0 0 0
0 0 0
0 0 0
0 0 0
0 0 0
0 0 0
0 0 0
0 0 0
0 0 0
0 0 0
0 0 0
0 0 0
0 0 0
0 0 0
0 0 0
0 0 0
0 0 0
0 0 0
0 0 0
0 0 0
0 0 0
0 0 0
0 0 0
0 0 0
0 0 0
0 0 0
0 0 0
0 0 0
0 0 0
0 0 0
0 0 0
0 0 0
0 0 0
0 0 0
0 0 0
0 0 0
0 0 0
0 0 0
0 0 0
0 0 0
0 0 0
0 0 0
0 0 0
0 0 0
0 0 0
0 0 0
0 0 0
0 0 0
0 0 0
0 0 0
0 0 0
0 0 0
0 0 0
0 0 0
0 0 0
0 0 0
0 0 0
0 0 0
0 0 0
0 0 0
0 0 0
0 0 0
0 0 0
0 0 0
0 0 0
0 0 0
0 0 0
0 0 0
0 0 0
0 0 0
0 0 0
0 0 0
0 0 0
0 0 0
0 0 0
0 0 0
0 0 0
0 0 0
0 0 0
0 0 0
0 0 0
0 0 0
0 0 0
0 0 0
0 0 0
0 0 0
0 0 0
0 0 0
0 0 0
0 0 0
0 0 0
0 0 0
0 0 0
0 0 0
0 0 0
0 0 0
0 0 0
0 0 0
0 0 0
0 0 0
0 0 0
0 0 0
0 0 0
0 0 0
0 0 0
0 0 0
0 0 0
0 0 0
0 0 0
0 0 0
0 0 0
0 0 0
0 0 0
0 0 0
0 0 0
0 0 0
0 0 0
0 0 0
0 0 0
0 0 0
0 0 0
0 0 0
0 0 0
0 0 0
0 0 0
0 0 0
0 0 0
0 0 0
0 0 0
0 0 0
0 0 0
0 0 0
0 0 0
0 0 0
0 0 0
0 0 0
0 0 0
0 0 0
0 0 0
0 0 0
0 0 0
0 0 0
0 0 0
0 0 0
0 0 0
0 0 0
0 0 0
0 0 0
0 0 0
0 0 0
0 0 0
0 0 0
0 0 0
0 0 0
0 0 0
0 0 0
0 0 0
0 0 0
0 0 0
0 0 0
0 0 0
0 0 0
0 0 0
0 0 0
0 0 0
0 0 0
0 0 0
0 0 0
0 0 0
0 0 0
0 0 0
0 0 0
0 0 0
0 0 0
0 0 0
0 0 0
0 0 0
0 0 0
0 0 0
0 0 0
0 0 0
0 0 0
0 0 0
0 0 0
0 0 0
0 0 0
0 0 0
0 0 0
0 0 0
0 0 0
0 0 0
0 0 0
0 0 0
0 0 0
0 0 0
0 0 0
0 0 0
0 0 0
0 0 0
0 0 0
0 0 0
0 0 0
0 0 0
0 0 0
0 0 0
0 0 0
0 0 0
0 0 0
0 0 0
0 0 0
0 0 0
0 0 0
0 0 0
0 0 0
0 0 0
0 0 0
0 0 0
0 0 0
0 0 0
0 0 0
0 0 0
0 0 0
0 0 0
0 0 0
0 0 0
0 0 0
0 0 0
0 0 0
0 0 0
0 0 0
0 0 0
0 0 0
0 0 0
0 0 0
0 0 0
0 0 0
0 0 0
0 0 0
0 0 0
0 0 0
0 0 0
0 0 0
0 0 0
0 0 0
0 0 0
0 0 0
0 0 0
0 0 0
0 0 0
0 0 0
0 0 0
0 0 0
0 0 0
0 0 0
0 0 0
0 0 0
0 0 0
0 0 0
0 0 0
0 0 0
0 0 0
0 0 0
0 0 0
0 0 0
0 0 0
0 0 0
0 0 0
0 0 0
0 0 0
0 0 0
0 0 0
0 0 0
0 0 0
0 0 0
0 0 0
0 0 0
0 0 0
0 0 0
0 0 0
0 0 0
0 0 0
0 0 0
0 0 0
0 0 0
0 0 0
0 0 0
0 0 0
0 0 0
0 0 0
0 0 0
0 0 0
0 0 0
0 0 0
0 0 0
0 0 0
0 0 0
0 0 0
0 0 0
0 0 0
0 0 0
0 0 0
0 0 0
0 0 0
0 0 0
0 0 0
0 0 0
0 0 0
0 0 0
0 0 0
0 0 0
0 0 0
0 0 0
0 0 0
0 0 0
0 0 0
0 0 0
0 0 0
0 0 0
0 0 0
0 0 0
0 0 0
0 0 0
0 0 0
0 0 0
0 0 0
0 0 0
0 0 0
0 0 0
0 0 0
0 0 0
0 0 0
0 0 0
0 0 0
0 0 0
0 0 0
0 0 0
0 0 0
0 0 0
0 0 0
0 0 0
0 0 0
0 0 0
0 0 0
0 0 0
0 0 0
0 0 0
0 0 0
0 0 0
0 0 0
0 0 0
0 0 0
0 0 0
0 0 0
0 0 0
0 0 0
0 0 0
0 0 0
0 0 0
0 0 0
0 0 0
0 0 0
0 0 0
0 0 0
0 0 0
0 0 0
0 0 0
0 0 0
0 0 0
0 0 0
0 0 0
0 0 0
0 0 0
0 0 0
0 0 0
0 0 0
0 0 0
0 0 0
0 0 0
0 0 0
0 0 0
0 0 0
0 0 0
0 0 0
0 0 0
0 0 0
0 0 0
0 0 0
0 0 0
0 0 0
0 0 0
0 0 0
0 0 0
0 0 0
0 0 0
0 0 0
0 0 0
0 0 0
0 0 0
0 0 0
0 0 0
0 0 0
0 0 0
0 0 0
0 0 0
0 0 0
0 0 0
0 0 0
0 0 0
0 0 0
0 0 0
0 0 0
0 0 0
0 0 0
0 0 0
0 0 0
0 0 0
0 0 0
0 0 0
0 0 0
0 0 0
0 0 0
0 0 0
0 0 0
0 0 0
0 0 0
0 0 0
0 0 0
0 0 0
0 0 0
0 0 0
0 0 0
0 0 0
0 0 0
0 0 0
0 0 0
0 0 0
0 0 0
0 0 0
0 0 0
0 0 0
0 0 0
0 0 0
0 0 0
0 0 0
0 0 0
0 0 0
0 0 0
0 0 0
0 0 0
0 0 0
0 0 0
0 0 0
0 0 0
0 0 0
0 0 0
0 0 0
0 0 0
0 0 0
0 0 0
0 0 0
0 0 0
0 0 0
0 0 0
0 0 0
0 0 0
0 0 0
0 0 0
0 0 0
0 0 0
0 0 0
0 0 0
0 0 0
0 0 0
0 0 0
0 0 0
0 0 0
0 0 0
0 0 0
0 0 0
0 0 0
0 0 0
0 0 0
0 0 0
0 0 0
0 0 0
0 0 0
0 0 0
0 0 0
0 0 0
0 0 0
0 0 0
0 0 0
0 0 0
0 0 0
0 0 0
0 0 0
0 0 0
0 0 0
0 0 0
0 0 0
0 0 0
0 0 0
0 0 0
0 0 0
0 0 0
0 0 0
0 0 0
0 0 0
0 0 0
0 0 0
0 0 0
0 0 0
0 0 0
0 0 0
0 0 0
0 0 0
0 0 0
0 0 0
0 0 0
0 0 0
0 0 0
0 0 0
0 0 0
0 0 0
0 0 0
0 0 0
0 0 0
0 0 0
0 0 0
0 0 0
0 0 0
0 0 0
0 0 0
0 0 0
0 0 0
0 0 0
0 0 0
0 0 0
0 0 0
0 0 0
0 0 0
0 0 0
0 0 0
0 0 0
0 0 0
0 0 0
0 0 0
0 0 0
0 0 0
0 0 0
0 0 0
0 0 0
0 0 0
0 0 0
0 0 0
0 0 0
0 0 0
0 0 0
0 0 0
0 0 0
0 0 0
0 0 0
0 0 0
0 0 0
0 0 0
0 0 0
0 0 0
0 0 0
0 0 0
0 0 0
0 0 0
0 0 0
0 0 0
0 0 0
0 0 0
0 0 0
0 0 0
0 0 0
0 0 0
0 0 0
0 0 0
0 0 0
0 0 0
0 0 0
0 0 0
0 0 0
0 0 0
0 0 0
0 0 0
0 0 0
0 0 0
0 0 0
0 0 0
0 0 0
0 0 0
0 0 0
0 0 0
0 0 0
0 0 0
0 0 0
0 0 0
0 0 0
0 0 0
0 0 0
0 0 0
0 0 0
0 0 0
0 0 0
0 0 0
0 0 0
0 0 0
0 0 0
0 0 0
0 0 0
0 0 0
0 0 0
0 0 0
0 0 0
0 0 0
0 0 0
0 0 0
0 0 0
0 0 0
0 0 0
0 0 0
0 0 0
0 0 0
0 0 0
0 0 0
0 0 0
0 0 0
0 0 0
0 0 0
0 0 0
0 0 0
0 0 0
0 0 0
0 0 0
0 0 0
0 0 0
0 0 0
0 0 0
0 0 0
0 0 0
0 0 0
0 0 0
0 0 0
0 0 0
0 0 0
0 0 0
0 0 0
0 0 0
0 0 0
0 0 0
0 0 0
0 0 0
0 0 0
0 0 0
0 0 0
0 0 0
0 0 0
0 0 0
0 0 0
0 0 0
0 0 0
0 0 0
0 0 0
0 0 0
0 0 0
0 0 0
0 0 0
0 0 0
0 0 0
0 0 0
0 0 0
0 0 0
0 0 0
0 0 0
0 0 0
0 0 0
0 0 0
0 0 0
0 0 0
0 0 0
0 0 0
0 0 0
0 0 0
0 0 0
0 0 0
0 0 0
0 0 0
0 0 0
0 0 0
0 0 0
0 0 0
0 0 0
0 0 0
0 0 0
0 0 0
0 0 0
0 0 0
0 0 0
0 0 0
0 0 0
0 0 0
0 0 0
0 0 0
0 0 0
0 0 0
0 0 0
0 0 0
0 0 0
0 0 0
0 0 0
0 0 0
0 0 0
0 0 0
0 0 0
0 0 0
0 0 0
0 0 0
0 0 0
0 0 0
0 0 0
0 0 0
0 0 0
0 0 0
0 0 0
0 0 0
0 0 0
0 0 0
0 0 0
0 0 0
0 0 0
0 0 0
0 0 0
0 0 0
0 0 0
0 0 0
0 0 0
0 0 0
0 0 0
0 0 0
0 0 0
0 0 0
0 0 0
0 0 0
0 0 0
0 0 0
0 0 0
0 0 0
0 0 0
0 0 0
0 0 0
0 0 0
0 0 0
0 0 0
0 0 0
0 0 0
0 0 0
0 0 0
0 0 0
0 0 0
0 0 0
0 0 0
0 0 0
0 0 0
0 0 0
0 0 0
0 0 0
0 0 0
0 0 0
0 0 0
0 0 0
0 0 0
0 0 0
0 0 0
0 0 0
0 0 0
0 0 0
0 0 0
0 0 0
0 0 0
0 0 0
0 0 0
0 0 0
0 0 0
0 0 0
0 0 0
0 0 0
0 0 0
0 0 0
0 0 0
0 0 0
0 0 0
0 0 0
0 0 0
0 0 0
0 0 0
0 0 0
0 0 0
0 0 0
0 0 0
0 0 0
0 0 0
0 0 0
0 0 0
0 0 0
0 0 0
0 0 0
0 0 0
0 0 0
0 0 0
0 0 0
0 0 0
0 0 0
0 0 0
0 0 0
0 0 0
0 0 0
0 0 0
0 0 0
0 0 0
0 0 0
0 0 0
0 0 0
0 0 0
0 0 0
0 0 0
0 0 0
0 0 0
0 0 0
0 0 0
0 0 0
0 0 0
0 0 0
0 0 0
0 0 0
0 0 0
0 0 0
0 0 0
0 0 0
0 0 0
0 0 0
0 0 0
0 0 0
0 0 0
0 0 0
0 0 0
0 0 0
0 0 0
0 0 0
0 0 0
0 0 0
0 0 0
0 0 0
0 0 0
0 0 0
0 0 0
0 0 0
0 0 0
0 0 0
0 0 0
0 0 0
0 0 0
0 0 0
0 0 0
0 0 0
0 0 0
0 0 0
0 0 0
0 0 0
0 0 0
0 0 0
0 0 0
0 0 0
0 0 0
0 0 0
0 0 0
0 0 0
0 0 0
0 0 0
0 0 0
0 0 0
0 0 0
0 0 0
0 0 0
0 0 0
0 0 0
0 0 0
0 0 0
0 0 0
0 0 0
0 0 0
0 0 0
0 0 0
0 0 0
0 0 0
0 0 0
0 0 0
0 0 0
0 0 0
0 0 0
0 0 0
0 0 0
0 0 0
0 0 0
0 0 0
0 0 0
0 0 0
0 0 0
0 0 0
0 0 0
0 0 0
0 0 0
0 0 0
0 0 0
0 0 0
0 0 0
0 0 0
0 0 0
0 0 0
0 0 0
0 0 0
0 0 0
0 0 0
0 0 0
0 0 0
0 0 0
0 0 0
0 0 0
0 0 0
0 0 0
0 0 0
0 0 0
0 0 0
0 0 0
0 0 0
0 0 0
0 0 0
0 0 0
0 0 0
0 0 0
0 0 0
0 0 0
0 0 0
0 0 0
0 0 0
0 0 0
0 0 0
0 0 0
0 0 0
0 0 0
0 0 0
0 0 0
0 0 0
0 0 0
0 0 0
0 0 0
0 0 0
0 0 0
0 0 0
0 0 0
0 0 0
0 0 0
0 0 0
0 0 0
0 0 0
0 0 0
0 0 0
0 0 0
0 0 0
0 0 0
0 0 0
0 0 0
0 0 0
0 0 0
0 0 0
0 0 0
0 0 0
0 0 0
0 0 0
0 0 0
0 0 0
0 0 0
0 0 0
0 0 0
0 0 0
0 0 0
0 0 0
0 0 0
0 0 0
0 0 0
0 0 0
0 0 0
0 0 0
0 0 0
0 0 0
0 0 0
0 0 0
0 0 0
0 0 0
0 0 0
0 0 0
0 0 0
0 0 0
0 0 0
0 0 0
0 0 0
0 0 0
0 0 0
0 0 0
0 0 0
0 0 0
0 0 0
0 0 0
0 0 0
0 0 0
0 0 0
0 0 0
0 0 0
0 0 0
0 0 0
0 0 0
0 0 0
0 0 0
0 0 0
0 0 0
0 0 0
0 0 0
0 0 0
0 0 0
0 0 0
0 0 0
0 0 0
0 0 0
0 0 0
0 0 0
0 0 0
0 0 0
0 0 0
0 0 0
0 0 0
0 0 0
0 0 0
0 0 0
0 0 0
0 0 0
0 0 0
0 0 0
0 0 0
0 0 0
0 0 0
0 0 0
0 0 0
0 0 0
0 0 0
0 0 0
0 0 0
0 0 0
0 0 0
0 0 0
0 0 0
0 0 0
0 0 0
0 0 0
0 0 0
0 0 0
0 0 0
0 0 0
0 0 0
0 0 0
0 0 0
0 0 0
0 0 0
0 0 0
0 0 0
0 0 0
0 0 0
0 0 0
0 0 0
0 0 0
0 0 0
0 0 0
0 0 0
0 0 0
0 0 0
0 0 0
0 0 0
0 0 0
0 0 0
0 0 0
0 0 0
0 0 0
0 0 0
0 0 0
0 0 0
0 0 0
0 0 0
0 0 0
0 0 0
0 0 0
0 0 0
0 0 0
0 0 0
0 0 0
0 0 0
0 0 0
0 0 0
0 0 0
0 0 0
0 0 0
0 0 0
0 0 0
0 0 0
0 0 0
0 0 0
0 0 0
0 0 0
0 0 0
0 0 0
0 0 0
0 0 0
0 0 0
0 0 0
0 0 0
0 0 0
0 0 0
0 0 0
0 0 0
0 0 0
0 0 0
0 0 0
0 0 0
0 0 0
0 0 0
0 0 0
0 0 0
0 0 0
0 0 0
0 0 0
0 0 0
0 0 0
0 0 0
0 0 0
0 0 0
0 0 0
0 0 0
0 0 0
0 0 0
0 0 0
0 0 0
0 0 0
0 0 0
0 0 0
0 0 0
0 0 0
0 0 0
0 0 0
0 0 0
0 0 0
0 0 0
0 0 0
0 0 0
0 0 0
0 0 0
0 0 0
0 0 0
0 0 0
0 0 0
0 0 0
0 0 0
0 0 0
0 0 0
0 0 0
0 0 0
0 0 0
0 0 0
0 0 0
0 0 0
0 0 0
0 0 0
0 0 0
0 0 0
0 0 0
0 0 0
0 0 0
0 0 0
0 0 0
0 0 0
0 0 0
0 0 0
0 0 0
0 0 0
0 0 0
0 0 0
0 0 0
0 0 0
0 0 0
0 0 0
0 0 0
0 0 0
0 0 0
0 0 0
0 0 0
0 0 0
0 0 0
0 0 0
0 0 0
0 0 0
0 0 0
25 48 28
0 0 0
0 0 0
0 0 0
68 18 18
33 30 17
0 0 0
6 23 7
0 0 0
60 34 23
0 0 0
49 13 13
0 0 0
0 0 0
0 0 0
15 30 17
0 0 0
23 12 7
0 0 0
14 29 15
0 0 0
2 0 0
0 0 0
102 90 90
1 1 0
0 0 0
0 0 0
0 0 0
25 48 28
0 0 0
41 80 46
0 0 0
51 29 20
0 0 0
68 18 18
0 0 0
0 0 0
1 7 1
19 5 5
2 2 0
0 0 0
0 5 0
3 3 1
74 59 37
12 6 3
72 72 72
6 0 0
29 56 32
68 18 18
12 27 9
0 0 0
25 48 28
0 0 0
72 72 72
0 1 0
0 0 0
0 0 0
0 0 0
25 48 28
0 0 0
0 0 0
0 0 0
0 0 0
0 0 0
0 0 0
0 4 0
45 45 45
0 0 0
0 0 0
104 111 105
0 0 0
58 16 16
29 56 32
0 0 0
5 20 6
2 2 0
72 72 72
0 0 0
0 0 0
0 0 0
17 9 5
72 54 54
29 56 32
0 0 0
0 0 0
0 0 0
25 1 1
0 0 0
0 0 0
21 41 23
83 73 73
68 18 18
68 19 18
0 0 0
68 18 18
76 87 77
72 72 72
0 0 0
30 57 32
0 0 0
42 11 11
55 56 33
0 0 0
8 32 10
0 0 0
47 3 3
51 66 53
0 0 0
0 0 0
0 0 0
0 0 0
0 0 0
0 0 0
0 0 0
74 59 37
0 0 0
29 56 32
29 56 32
0 0 0
25 48 28
0 0 0
0 0 0
0 0 0
29 56 32
61 61 61
0 0 0
0 0 0
0 0 0
60 77 62
72 72 72
0 0 0
0 0 0
5 20 6
1 0 0
0 0 0
11 1 1
0 0 0
0 0 0
0 0 0
25 48 28
26 30 17
58 16 16
0 0 0
61 61 61
32 62 36
4 4 1
6 23 7
42 45 26
47 3 3
6 0 0
40 3 3
0 0 0
49 13 13
0 0 0
0 0 0
0 0 0
0 0 0
0 0 0
18 35 20
0 0 0
4 1 0
29 56 32
0 0 0
0 0 0
60 59 36
72 72 72
0 0 0
0 0 0
0 0 0
0 2 0
95 95 95
0 0 0
5 20 6
0 0 0
0 0 0
72 72 72
0 0 0
0 0 0
0 0 0
0 0 0
0 4 0
0 0 0
102 102 102
0 0 0
0 0 0
29 56 32
72 72 72
0 0 0
20 10 6
115 115 115
0 0 0
72 72 72
25 48 28
0 0 0
15 6 3
52 52 52
68 18 18
21 41 23
72 72 72
76 87 77
87 73 73
0 0 0
0 0 0
0 0 0
76 87 77
0 0 0
72 72 72
0 0 0
0 0 0
72 72 72
0 0 0
72 72 72
0 0 0
0 0 0
25 48 28
0 0 0
72 72 72
78 92 79
17 9 5
0 0 0
0 0 0
29 56 32
7 0 0
29 2 2
19 36 20
0 0 0
0 0 0
0 0 0
25 48 28
19 30 17
29 56 32
65 59 36
36 10 10
29 56 32
0 0 0
0 0 0
0 0 0
0 0 0
0 0 0
0 0 0
46 45 45
0 0 0
0 0 0
0 0 0
23 0 0
0 0 0
72 72 72
59 17 16
0 0 0
0 0 0
0 0 0
36 10 10
72 72 72
0 0 0
0 2 0
0 0 0
4 0 0
2 2 0
11 0 0
1 2 0
31 63 34
0 0 0
8 16 9
0 0 0
72 72 72
31 8 8
0 0 0
0 0 0
0 0 0
0 0 0
49 14 13
0 0 0
0 0 0
72 72 72
72 72 72
4 0 0
0 0 0
0 0 0
8 0 0
8 16 9
71 45 30
4 17 5
0 0 0
78 72 72
0 0 0
26 52 30
29 56 32
61 61 61
7 0 0
0 0 0
72 72 72
0 0 0
0 0 0
72 72 72
0 0 0
68 18 18
0 0 0
2 15 3
0 0 0
18 1 1
1 0 0
13 1 1
0 0 0
68 18 18
76 19 19
0 0 0
40 46 41
23 0 0
0 0 0
0 0 0
8 32 10
0 0 0
16 2 1
0 0 0
68 18 18
58 16 16
68 18 18
0 0 0
14 7 4
38 38 38
9 18 10
0 0 0
0 0 0
70 42 41
0 0 0
0 0 0
0 0 0
52 52 52
0 0 0
29 56 32
13 0 0
0 0 0
1 2 0
0 0 0
0 0 0
0 0 0
38 38 38
72 72 72
0 0 0
29 56 32
58 16 16
0 0 0
9 4 2
0 0 0
68 18 18
0 0 0
17 9 5
31 8 8
0 0 0
68 18 18
0 0 0
0 0 0
0 0 0
20 14 6
0 0 0
0 0 0
0 0 0
3 1 0
0 0 0
12 6 3
72 72 72
0 0 0
34 2 2
0 0 0
0 0 0
0 0 0
52 52 52
22 21 12
32 49 28
19 23 8
5 0 0
0 0 0
0 0 0
49 13 13
78 55 55
68 18 18
0 0 0
0 0 0
10 5 3
0 0 0
0 0 0
0 0 0
3 0 0
0 0 0
0 0 0
72 72 72
72 72 72
0 0 0
0 0 0
0 0 0
0 0 0
0 0 0
72 72 72
0 0 0
0 0 0
0 0 0
0 0 0
0 0 0
72 54 54
0 0 0
99 74 74
0 0 0
0 0 0
47 3 3
68 18 18
42 11 11
23 12 7
0 0 0
72 72 72
1 0 0
0 0 0
0 0 0
51 26 18
0 0 0
65 18 18
0 0 0
26 7 7
0 0 0
0 0 0
0 0 0
29 56 32
0 0 0
0 0 0
0 3 0
29 56 32
21 1 1
0 0 0
0 0 0
45 49 28
0 0 0
19 0 0
72 79 73
0 0 0
34 56 33
0 0 0
0 0 0
99 74 74
49 13 13
0 0 0
0 0 0
0 0 0
60 18 17
34 2 2
21 41 23
29 56 32
0 0 0
0 0 0
90 25 25
0 0 0
5 0 0
0 0 0
19 5 5
58 16 16
0 0 0
59 10 10
0 0 0
72 72 72
0 0 0
0 0 0
4 17 5
36 11 10
66 63 56
0 0 0
0 0 0
7 7 2
42 11 11
92 74 74
0 0 0
61 61 61
6 0 0
58 21 16
0 0 0
0 0 0
0 0 0
43 80 46
0 0 0
52 52 52
0 0 0
49 13 13
21 2 1
72 72 72
68 18 18
0 0 0
0 0 0
9 13 3
34 2 2
25 48 28
0 0 0
0 0 0
29 56 32
0 0 0
15 25 14
0 0 0
72 72 72
0 0 0
0 0 0
18 35 20
0 0 0
9 1 0
72 72 72
0 0 0
49 13 13
0 0 0
0 0 0
0 0 0
0 0 0
0 0 0
0 0 0
23 0 0
8 1 0
1 0 0
10 1 0
19 2 1
68 18 18
0 0 0
0 0 0
7 4 2
15 30 17
0 0 0
0 0 0
0 0 0
0 0 0
0 0 0
0 0 0
17 9 5
28 25 15
0 0 0
0 0 0
0 0 0
0 0 0
0 0 0
0 0 0
15 30 17
4 4 1
0 0 0
0 0 0
0 0 0
0 0 0
58 16 16
58 16 16
0 0 0
0 0 0
30 56 32
0 0 0
0 0 0
17 9 1
0 0 0
11 1 1
0 0 0
0 0 0
0 0 0
21 41 23
0 0 0
0 0 0
72 72 72
0 0 0
0 0 0
0 0 0
52 52 52
49 13 13
0 0 0
72 72 72
16 0 0
29 56 32
0 0 0
72 72 72
42 11 11
72 72 72
0 0 0
0 0 0
0 0 0
0 0 0
0 0 0
0 0 0
0 0 0
0 0 0
0 0 0
0 0 0
0 0 0
0 0 0
0 0 0
0 0 0
0 0 0
0 0 0
0 0 0
0 0 0
0 0 0
0 0 0
0 0 0
0 0 0
0 0 0
0 0 0
0 0 0
0 0 0
0 0 0
0 0 0
0 0 0
10 38 12
72 72 72
74 80 75
83 73 73
34 50 28
48 3 3
18 35 20
56 58 54
26 54 29
99 74 74
18 35 20
10 1 0
5 0 0
11 22 12
2 15 3
24 12 7
0 0 0
74 72 72
39 45 39
13 8 1
47 4 3
32 8 8
1 5 1
25 48 28
19 35 20
20 10 6
21 9 5
18 18 10
20 0 0
78 93 79
99 74 74
25 48 28
0 0 0
35 43 24
86 72 72
8 16 9
47 3 3
0 0 0
42 11 11
25 48 28
102 101 96
25 54 29
21 41 23
25 50 28
20 11 2
10 1 0
0 0 0
10 1 0
67 78 62
7 27 9
11 27 9
78 86 76
103 105 103
62 69 62
85 114 88
37 50 29
51 58 34
0 0 0
8 32 10
5 0 0
25 48 28
38 26 13
143 143 143
0 0 0
25 48 28
53 75 44
7 27 9
0 1 0
0 2 0
0 0 0
72 72 72
0 0 0
72 72 72
23 22 8
0 0 0
75 73 72
31 9 8
72 75 72
73 72 72
72 72 72
28 12 7
8 32 10
99 29 27
0 0 0
0 0 0
36 70 40
49 13 13
88 122 92
25 48 28
0 0 0
52 52 52
0 0 0
0 0 0
16 0 0
0 0 0
8 33 10
72 72 72
29 56 32
97 74 47
0 0 0
21 41 23
101 74 74
34 50 28
21 45 22
34 2 2
0 0 0
18 35 20
28 28 28
108 109 108
23 12 7
50 66 36
67 33 32
61 55 53
48 50 30
29 56 32
29 2 2
49 13 13
3 1 0
38 75 43
0 0 0
108 116 109
99 74 74
5 6 2
72 72 72
17 9 5
40 69 40
0 0 0
0 0 0
10 5 3
40 3 3
75 83 76
22 42 24
21 42 24
7 1 0
57 13 13
36 10 10
0 0 0
49 13 13
72 73 72
0 0 0
1 0 0
25 27 10
61 61 61
68 18 18
64 62 62
0 0 0
84 23 23
8 33 11
8 4 1
72 72 72
82 56 49
72 72 72
13 25 14
10 5 3
29 56 32
0 0 0
5 6 2
0 0 0
18 6 1
8 32 10
19 42 21
25 1 1
8 1 0
21 41 23
78 92 79
72 72 72
0 0 0
78 92 79
68 18 18
72 72 72
0 0 0
71 62 61
35 68 39
50 65 34
34 2 2
84 23 23
0 0 0
29 56 32
111 117 107
29 56 32
95 95 95
76 90 78
80 72 72
34 66 38
25 48 28
95 80 76
102 102 102
35 58 33
0 0 0
34 2 2
60 77 62
37 58 33
0 0 0
72 77 72
1 0 0
39 12 11
41 56 32
70 21 19
71 21 19
32 57 33
7 0 0
99 105 98
72 76 72
80 101 82
103 93 81
85 64 63
74 81 75
72 72 72
0 0 0
30 56 32
61 61 61
89 89 89
0 0 0
0 0 0
31 56 32
34 56 32
111 75 75
0 0 0
23 0 0
0 0 0
23 18 8
73 41 28
72 77 72
62 63 37
8 1 0
73 72 72
4 0 0
19 35 20
34 64 37
29 56 32
99 74 74
72 76 72
8 32 10
42 11 11
49 13 13
80 73 73
20 10 6
68 18 18
62 61 61
81 95 83
68 18 18
93 74 74
1 0 0
0 0 0
34 66 38
58 33 33
80 72 72
0 0 0
10 1 0
103 102 102
8 3 2
27 25 15
0 0 0
72 72 72
86 56 56
45 15 12
0 0 0
62 44 28
0 0 0
21 3 1
77 87 77
25 48 28
0 0 0
8 5 1
78 94 80
25 1 1
47 16 13
5 20 6
0 0 0
72 72 72
0 0 0
0 0 0
80 72 72
0 0 0
17 9 5
58 16 16
23 6 6
74 72 72
0 0 0
110 105 103
107 103 102
35 68 39
18 9 5
29 56 32
90 64 64
0 0 0
92 45 29
81 104 83
20 11 6
25 1 1
36 70 40
14 7 4
72 72 72
9 0 0
72 72 72
89 24 24
30 59 34
96 73 73
62 44 28
73 58 36
0 0 0
18 35 20
7 0 0
72 72 72
25 48 28
10 0 0
0 0 0
0 0 0
0 0 0
35 57 33
0 0 0
72 72 72
58 36 19
38 49 28
4 0 0
0 3 0
97 95 95
34 50 28
20 10 6
48 93 54
47 57 33
0 0 0
5 0 0
69 18 18
62 16 16
0 0 0
0 0 0
16 0 0
72 19 19
0 0 0
46 13 13
16 3 1
75 72 72
106 105 86
21 10 6
99 66 42
77 83 76
0 0 0
71 29 20
92 74 74
0 0 0
87 73 73
11 22 12
64 53 53
72 72 72
63 51 32
42 23 13
73 72 72
102 102 102
45 45 45
77 72 72
0 0 0
87 73 73
49 14 13
40 3 3
75 73 72
36 22 12
38 74 43
44 11 11
61 61 61
109 91 90
0 0 0
57 14 14
20 10 6
72 72 72
102 28 28
18 35 20
15 0 0
82 19 19
36 57 33
0 0 0
13 29 10
0 0 0
70 16 16
0 1 0
115 76 76
29 2 2
48 3 3
68 18 18
11 0 0
14 8 4
14 27 15
68 18 18
5 3 1
72 72 72
26 48 28
105 68 66
92 89 89
77 73 73
42 11 11
68 18 18
95 90 90
70 31 21
74 72 72
20 10 6
61 61 61
0 0 0
102 28 28
72 72 72
0 0 0
99 74 74
0 0 0
59 53 53
72 72 72
23 1 0
68 18 18
0 0 0
55 63 56
82 77 62
59 27 20
68 18 18
52 52 52
0 0 0
0 0 0
2 2 0
91 25 25
0 0 0
1 9 1
69 18 18
7 4 2
25 48 28
72 72 72
72 72 72
40 3 3
63 16 16
75 83 76
58 52 32
52 52 52
75 18 18
93 101 93
52 52 52
8 32 10
66 59 36
34 2 2
8 6 2
25 48 28
47 43 26
73 72 72
72 72 72
1 1 0
34 9 2
83 73 73
72 72 72
99 74 74
0 0 0
0 0 0
0 0 0
34 50 28
72 72 72
40 3 3
24 12 7
0 0 0
35 6 3
29 56 32
82 19 19
72 72 72
0 0 0
47 3 3
58 16 16
58 71 59
0 1 0
72 52 33
55 45 45
0 0 0
68 18 18
69 69 69
0 0 0
21 1 1
27 60 30
42 11 11
0 0 0
99 74 74
72 72 72
81 73 72
58 16 16
61 61 61
68 37 21
15 1 1
13 2 1
0 0 0
83 73 73
84 87 78
73 72 72
1 0 0
31 12 7
93 74 74
73 72 72
72 72 72
100 78 75
65 16 16
75 51 32
0 0 0
68 18 18
83 76 73
0 0 0
58 16 16
73 72 72
9 0 0
49 13 13
0 0 0
68 19 19
5 0 0
105 86 78
29 56 32
1 2 0
0 0 0
52 52 52
91 89 89
13 0 0
73 72 72
40 3 3
6 1 0
1 8 1
19 5 5
40 3 3
30 2 2
88 24 24
42 11 11
17 0 0
85 66 64
58 16 16
73 72 72
0 0 0
21 41 23
0 0 0
0 0 0
0 0 0
20 10 6
57 58 35
118 32 32
13 0 0
0 0 0
46 56 32
16 2 1
0 0 0
42 11 11
0 0 0
102 75 75
4 4 1
0 0 0
93 74 74
33 3 2
0 0 0
106 84 84
75 73 72
31 56 32
8 1 0
0 1 0
93 76 74
7 23 7
56 53 53
76 72 72
105 113 106
0 0 0
74 19 19
58 49 28
23 12 7
0 0 0
14 0 0
11 0 0
40 3 3
60 18 16
59 43 27
18 1 1
1 0 0
12 32 11
123 104 104
87 87 87
72 72 72
109 109 108
0 0 0
62 56 33
3 0 0
0 0 0
0 0 0
0 0 0
0 0 0
0 0 0
0 0 0
0 0 0
0 0 0
0 0 0
0 0 0
0 0 0
0 0 0
0 0 0
0 0 0
0 0 0
0 0 0
0 0 0
0 0 0
0 0 0
0 0 0
0 0 0
0 0 0
0 0 0
0 0 0
0 0 0
0 0 0
0 0 0
0 0 0
0 0 0
49 26 14
25 48 28
72 72 72
62 62 61
4 17 5
30 63 34
63 51 32
68 18 18
19 36 20
5 11 2
69 32 24
7 4 2
25 48 28
73 72 72
25 48 28
2 2 0
0 0 0
1 2 0
15 30 17
2 0 0
62 22 17
18 38 20
0 0 0
0 0 0
0 0 0
0 1 0
3 3 1
2 1 0
0 0 0
0 0 0
0 0 0
57 67 58
6 23 7
0 0 0
20 13 2
78 87 77
29 56 32
73 73 72
18 35 20
7 27 9
14 7 4
68 18 18
0 0 0
0 0 0
29 2 2
0 0 0
29 43 24
43 64 37
76 87 77
29 56 32
0 0 0
5 20 6
0 0 0
25 48 28
47 13 8
0 0 0
0 0 0
31 13 10
34 66 38
10 5 3
0 0 0
30 56 32
89 89 89
49 13 13
29 56 32
18 35 20
63 20 17
0 0 0
114 141 116
73 72 72
0 0 0
70 40 27
34 50 28
29 56 32
37 58 33
26 1 1
53 57 53
30 56 32
0 0 0
5 20 6
5 6 2
0 0 0
29 56 32
4 17 5
0 0 0
19 45 22
0 0 0
72 72 72
10 1 0
99 74 74
8 32 10
3 0 0
26 14 8
49 60 34
30 63 34
0 0 0
86 23 20
0 0 0
108 102 102
0 0 0
29 56 32
106 102 102
40 3 3
64 52 32
31 8 8
49 13 13
5 20 6
76 19 19
58 16 16
68 18 18
6 23 7
46 54 41
42 18 12
36 56 32
66 78 67
0 0 0
6 20 6
49 13 13
3 3 1
0 0 0
72 72 72
68 20 19
23 9 5
121 118 108
0 0 0
78 69 40
74 46 31
64 81 48
0 0 0
29 2 2
89 89 89
26 15 7
25 48 28
59 16 16
18 35 20
78 72 72
29 56 32
0 0 0
7 2 0
74 80 75
6 9 1
47 43 26
9 32 10
43 11 11
72 72 72
0 1 0
0 0 0
34 54 36
25 48 28
64 62 62
0 0 0
29 56 32
18 25 9
17 9 5
25 48 28
21 41 23
39 56 32
47 3 3
14 7 4
11 22 12
0 0 0
2 0 0
15 30 17
68 70 42
73 72 72
93 94 90
30 65 34
0 0 0
4 2 1
29 56 32
65 59 36
5 5 1
41 30 26
29 56 32
82 109 84
0 0 0
73 72 72
0 0 0
72 72 72
68 18 18
3 3 1
49 13 13
5 5 1
99 74 74
75 20 20
72 72 72
0 0 0
67 83 68
1 0 0
17 34 11
0 0 0
104 103 103
29 56 32
45 14 12
103 93 81
43 41 24
38 38 38
80 22 22
72 72 72
72 72 72
107 114 107
52 52 52
10 2 0
0 0 0
0 0 0
103 102 102
20 14 6
72 22 20
81 73 73
102 101 97
0 0 0
10 5 3
0 1 0
73 72 72
73 76 73
2 18 3
68 18 18
72 52 33
29 58 33
72 72 72
46 57 34
5 17 5
78 72 72
21 43 24
52 52 52
29 56 32
23 12 7
0 0 0
64 62 62
21 41 23
5 0 0
63 52 32
58 16 16
78 87 77
0 0 0
79 92 79
8 11 2
0 0 0
75 73 72
1 9 1
29 56 32
70 35 25
72 74 72
82 72 72
102 102 102
7 0 0
29 5 2
0 0 0
128 137 129
65 59 36
58 16 16
29 41 24
3 1 0
78 77 73
115 115 115
7 7 2
72 72 72
72 72 72
21 41 23
0 0 0
83 73 73
99 75 74
99 95 76
84 23 23
25 32 18
68 18 18
68 19 18
62 67 63
76 73 72
29 56 32
42 11 11
72 74 72
9 4 2
0 0 0
0 0 0
95 95 95
0 0 0
23 0 0
25 48 28
35 32 11
7 0 0
47 16 13
0 0 0
82 104 84
70 20 19
26 7 7
65 59 36
25 1 1
17 17 10
54 46 27
18 35 20
92 93 80
60 52 52
21 41 23
0 0 0
18 11 5
28 41 23
0 0 0
92 72 72
49 13 13
72 72 72
16 0 0
0 0 0
72 22 20
29 56 32
72 72 72
72 72 72
68 18 18
0 0 0
34 66 38
71 59 37
64 32 32
60 77 62
3 14 4
68 18 18
42 57 33
72 72 72
27 42 24
0 0 0
34 2 2
0 0 0
112 91 91
0 1 0
0 0 0
0 0 0
88 73 73
98 95 90
69 78 62
47 3 3
96 26 26
0 0 0
96 42 28
9 9 3
76 87 77
25 48 28
1 0 0
59 21 16
14 22 13
0 0 0
68 18 18
72 72 72
74 72 72
29 56 32
32 57 33
61 61 61
20 10 6
2 7 2
48 38 38
105 86 79
7 27 9
74 59 37
92 74 74
34 2 2
4 4 1
0 0 0
85 85 85
97 40 30
72 72 72
49 13 13
77 33 21
45 45 45
72 72 72
1 0 0
0 0 0
79 72 72
107 27 27
49 13 13
47 11 11
63 61 61
68 18 18
0 0 0
23 12 7
76 73 72
72 54 54
32 4 4
124 109 105
76 72 72
57 67 58
0 0 0
86 73 72
57 3 3
52 52 52
60 9 6
58 16 16
26 35 20
51 57 33
72 72 72
0 3 0
0 0 0
104 102 102
1 1 0
99 29 27
49 13 13
88 73 73
57 27 27
3 3 1
119 97 97
0 0 0
0 6 1
0 1 0
0 0 0
84 92 79
0 0 0
88 24 24
68 18 18
65 61 61
87 73 73
0 0 0
76 73 72
68 18 18
102 102 102
49 13 13
0 0 0
102 102 102
87 83 51
34 2 2
72 72 72
70 20 19
0 0 0
49 13 13
0 0 0
78 72 72
68 18 18
54 3 3
3 0 0
0 0 0
24 13 7
68 19 19
0 0 0
36 49 28
0 0 0
0 0 0
30 57 32
23 36 20
33 35 20
8 32 10
0 0 0
61 61 61
62 61 61
47 3 3
73 23 20
59 58 35
6 14 4
68 18 18
20 10 6
29 56 32
75 47 31
102 102 102
68 18 18
0 0 0
0 0 0
69 18 18
0 0 0
84 23 23
95 95 95
32 0 0
47 3 3
0 0 0
95 75 74
72 52 33
38 38 38
52 52 52
59 16 16
0 0 0
68 18 18
62 19 17
68 18 18
96 73 73
97 95 95
72 72 72
78 55 55
2 2 0
46 50 46
74 72 72
0 0 0
2 0 0
5 2 1
73 72 72
102 75 75
72 72 72
62 57 34
59 10 10
31 56 32
24 12 7
45 45 45
68 18 18
20 11 6
68 18 18
82 27 23
73 47 47
40 13 11
63 52 52
9 4 2
7 0 0
69 16 13
76 72 72
0 0 0
28 28 28
27 12 7
0 0 0
0 0 0
52 16 14
86 20 20
0 0 0
45 45 45
0 0 0
70 20 19
0 0 0
0 0 0
17 9 5
91 92 79
29 2 2
68 18 18
82 72 72
29 2 2
1 9 1
29 56 32
0 0 0
92 74 74
12 6 3
26 7 7
90 64 64
0 0 0
70 56 54
80 88 77
9 4 2
43 11 11
6 4 2
7 0 0
81 75 73
76 87 77
68 61 61
1 1 0
47 16 13
40 3 3
17 9 5
25 48 28
0 0 0
52 11 7
68 18 18
0 0 0
0 0 0
31 29 10
7 4 2
72 72 72
0 0 0
60 16 16
43 13 11
21 23 7
40 3 3
82 87 77
21 10 6
29 56 32
0 0 0
0 1 0
0 0 0
95 95 95
20 10 6
18 35 20
29 56 32
23 12 7
75 72 72
97 93 81
0 0 0
106 102 102
48 14 12
0 0 0
12 0 0
23 12 7
31 8 8
19 2 1
0 0 0
0 0 0
0 0 0
0 0 0
0 0 0
0 0 0
0 0 0
0 0 0
0 0 0
0 0 0
0 0 0
0 0 0
0 0 0
0 0 0
0 0 0
0 0 0
0 0 0
0 0 0
0 0 0
0 0 0
0 0 0
0 0 0
0 0 0
0 0 0
0 0 0
0 0 0
0 0 0
0 0 0
29 56 32
9 4 2
9 28 9
23 47 25
1 1 0
1 13 2
89 72 72
7 13 7
58 16 16
25 48 28
72 72 72
1 0 0
3 3 1
76 73 72
72 72 72
76 21 21
0 0 0
0 1 0
58 16 16
10 40 13
10 5 3
72 72 72
0 0 0
59 64 36
8 8 2
72 75 72
40 4 3
0 0 0
72 72 72
34 2 2
0 0 0
0 0 0
72 72 72
0 0 0
18 35 20
21 41 23
102 102 102
3 3 1
4 4 1
32 11 6
119 119 119
12 6 3
5 0 0
84 92 79
0 0 0
0 0 0
78 92 79
27 42 24
0 0 0
29 56 32
53 13 13
76 73 72
52 52 52
80 100 82
72 72 72
0 0 0
21 41 23
74 72 72
72 72 72
41 71 41
45 87 50
82 88 77
25 48 28
5 5 1
26 14 8
85 83 80
44 38 38
105 113 106
92 64 64
102 105 102
6 20 6
72 72 72
0 0 0
42 11 11
10 1 0
0 0 0
68 18 18
58 16 16
52 52 52
20 10 6
13 2 1
72 72 72
71 45 30
78 92 79
0 0 0
21 42 23
1 14 2
39 11 6
72 72 72
82 104 84
32 49 28
18 35 20
52 13 13
0 0 0
78 95 79
27 31 12
6 23 7
18 35 20
68 30 20
40 6 3
0 0 0
53 59 53
78 92 79
26 7 7
30 54 29
68 83 70
13 2 1
29 56 32
0 0 0
58 61 36
40 3 3
25 48 28
39 24 9
38 58 33
64 62 62
15 1 1
74 59 37
38 74 43
75 83 76
82 92 79
31 60 35
72 72 72
94 104 84
32 57 33
29 56 32
77 87 77
72 72 72
72 72 72
24 30 11
12 0 0
75 84 76
64 32 25
37 56 32
72 72 72
23 12 7
72 72 72
100 75 74
3 3 1
25 32 11
29 56 32
79 72 44
7 13 2
78 92 79
79 79 79
102 102 102
40 27 9
81 67 42
34 12 7
6 3 2
78 92 79
100 96 95
74 80 75
58 28 18
49 13 13
10 5 3
78 92 79
52 52 52
29 56 32
0 0 0
15 11 2
12 18 6
4 4 1
18 52 21
21 41 23
76 76 76
72 72 72
68 18 18
27 48 28
79 19 19
77 87 77
72 25 20
49 13 13
4 17 5
72 72 72
9 0 0
49 13 13
72 72 72
29 42 24
11 22 12
64 71 65
0 0 0
23 12 7
25 48 28
23 12 7
6 0 0
102 103 102
95 95 95
69 41 41
86 25 24
53 57 33
21 42 24
0 0 0
98 87 72
99 74 74
0 0 0
74 72 72
38 37 20
20 7 4
68 18 18
44 16 12
31 57 32
85 104 84
85 24 23
67 66 40
72 72 72
77 78 77
29 56 32
0 0 0
68 18 18
68 21 19
2 10 3
0 0 0
38 69 39
29 57 32
106 110 105
34 2 2
29 15 9
74 101 77
40 52 40
94 106 95
62 63 61
72 72 72
57 58 35
29 56 32
0 0 0
41 56 32
39 57 33
115 127 111
106 105 86
105 108 104
77 79 73
102 102 102
21 41 23
8 0 0
53 17 15
74 35 25
42 11 11
18 36 20
0 0 0
55 58 33
92 74 74
58 16 16
74 59 37
72 72 72
0 0 0
2 4 0
72 72 72
25 48 28
20 0 0
84 81 74
1 3 0
72 73 72
1 3 0
75 83 76
72 72 72
24 41 23
34 2 2
18 35 20
22 36 20
0 0 0
18 35 20
72 72 72
69 86 71
72 76 72
4 17 5
8 27 9
58 16 16
2 7 2
13 25 14
85 85 85
62 61 61
102 102 102
0 0 0
1 3 0
91 92 79
72 72 72
5 0 0
7 3 2
72 72 72
89 89 89
0 0 0
32 63 36
29 56 32
12 6 3
72 52 33
83 84 70
33 57 33
3 0 0
23 19 8
72 72 72
73 72 72
20 10 6
0 0 0
61 19 17
73 72 72
1 0 0
8 27 9
8 8 2
0 0 0
0 0 0
33 23 15
29 56 32
6 24 7
72 72 72
21 41 23
105 113 106
48 5 4
0 0 0
72 72 72
31 8 8
49 13 13
1 9 1
61 61 61
19 27 15
5 0 0
80 61 39
72 72 72
16 2 1
55 18 15
22 11 6
74 78 74
108 59 59
8 1 0
57 58 35
30 63 34
99 57 57
103 94 81
73 72 72
45 3 3
2 2 0
0 0 0
0 0 0
67 16 16
93 74 74
83 73 73
77 73 72
3 16 3
0 0 0
73 19 19
72 72 72
10 1 0
72 72 72
68 68 41
78 42 42
76 87 77
113 91 91
52 52 52
33 48 28
68 70 42
89 73 73
4 1 0
15 1 1
50 3 3
68 19 19
92 73 73
72 72 72
0 0 0
29 56 32
4 17 5
44 10 10
0 0 0
0 0 0
92 48 34
99 74 74
35 21 20
17 9 5
1 0 0
29 56 32
74 72 72
0 0 0
25 48 28
90 25 25
73 52 33
18 10 5
29 56 32
10 1 0
68 19 18
124 102 95
72 72 72
49 13 13
68 18 18
99 74 74
0 0 0
72 73 72
79 72 72
20 11 6
72 72 72
78 72 72
96 26 26
5 22 7
56 53 53
0 0 0
58 16 16
0 0 0
118 104 93
81 73 73
74 74 74
0 1 0
76 90 78
0 0 0
33 38 22
34 57 33
13 33 11
59 26 17
42 11 11
106 117 107
72 72 72
68 18 18
0 0 0
92 90 89
0 0 0
13 3 1
47 33 33
0 0 0
40 41 24
73 72 72
83 73 73
78 92 79
11 1 0
66 64 39
19 2 1
0 0 0
34 2 2
79 55 55
9 0 0
75 59 37
10 0 0
0 0 0
91 90 89
0 0 0
72 72 72
29 56 32
82 72 72
25 48 28
35 33 32
58 16 16
10 1 0
34 2 2
11 0 0
80 72 72
47 3 3
40 3 3
8 0 0
29 35 20
61 61 61
81 76 73
2 0 0
80 92 79
17 9 5
109 73 69
0 0 0
52 52 52
94 74 74
123 76 76
0 0 0
78 92 79
78 21 21
16 2 1
100 74 74
18 35 20
0 0 0
5 3 1
8 32 10
87 73 73
58 25 17
42 11 11
7 0 0
71 47 26
58 16 16
75 72 72
0 0 0
0 0 0
0 0 0
0 0 0
23 12 7
0 0 0
4 1 0
42 11 11
0 0 0
74 36 25
0 0 0
35 5 5
76 83 76
57 65 37
6 0 0
72 72 72
58 16 16
65 18 18
10 0 0
37 2 2
71 45 30
68 18 18
76 33 21
102 102 102
45 41 24
52 52 52
24 24 24
68 19 19
102 102 102
58 16 16
72 72 72
3 0 0
58 16 16
21 41 23
0 0 0
54 32 17
47 3 3
84 23 23
65 62 62
0 0 0
0 0 0
0 0 0
0 0 0
0 0 0
72 72 72
68 18 18
55 52 52
115 77 76
23 12 7
143 126 126
49 13 13
57 54 53
72 72 72
45 15 12
93 27 26
72 76 72
68 18 18
74 72 72
61 16 16
2 9 3
72 72 72
71 19 19
18 35 20
58 16 16
21 1 1
119 119 119
51 26 18
72 72 72
34 9 5
96 74 74
89 24 24
72 72 72
87 92 85
0 0 0
6 20 6
79 79 79
102 74 74
72 72 72
19 2 1
42 11 11
111 111 111
7 27 9
58 16 16
22 49 25
72 72 72
13 2 1
36 10 10
49 13 13
21 41 23
0 0 0
73 72 72
12 6 3
41 3 3
64 14 14
58 16 16
0 0 0
83 73 72
45 45 45
26 1 1
77 25 21
15 6 2
68 19 19
0 0 0
0 0 0
0 0 0
0 0 0
0 0 0
0 0 0
0 0 0
0 0 0
0 0 0
0 0 0
0 0 0
0 0 0
0 0 0
0 0 0
0 0 0
0 0 0
0 0 0
0 0 0
0 0 0
0 0 0
0 0 0
0 0 0
0 0 0
0 0 0
0 0 0
0 0 0
0 0 0
0 0 0
30 65 34
6 7 2
0 0 0
9 5 2
0 0 0
0 0 0
7 27 9
52 52 52
29 37 21
37 63 34
0 0 0
23 6 3
6 23 7
0 0 0
4 4 1
23 46 24
72 72 72
6 23 7
29 56 32
0 0 0
3 0 0
29 56 32
0 0 0
21 41 23
24 30 11
15 30 17
107 96 96
89 89 89
69 20 19
0 0 0
72 72 72
73 82 74
6 23 7
7 27 9
61 61 61
23 12 7
65 78 66
24 14 7
29 56 32
5 3 1
43 83 47
26 31 18
36 70 40
61 61 61
29 56 32
0 0 0
72 72 72
11 1 0
38 74 43
78 61 61
33 57 32
0 6 0
106 117 107
26 7 7
98 97 96
47 3 3
29 56 32
1 8 1
29 56 32
11 1 1
115 76 76
122 121 117
14 32 10
9 9 1
86 95 80
55 50 31
5 5 1
72 72 72
42 11 11
20 10 6
72 72 72
34 2 2
66 66 62
60 16 16
62 44 28
0 0 0
9 31 10
76 87 77
2 0 0
38 38 38
29 56 32
23 0 0
102 102 102
0 0 0
102 102 102
0 0 0
72 72 72
0 0 0
20 20 20
0 0 0
105 75 75
0 0 0
25 48 28
67 68 64
77 38 23
0 0 0
1 13 2
1 0 0
61 61 61
0 0 0
29 56 32
49 13 13
0 0 0
18 33 11
74 61 35
6 23 7
2 9 3
74 60 37
86 72 72
79 73 72
72 72 72
89 87 77
97 90 89
82 72 72
54 43 27
72 72 72
75 88 76
61 61 61
59 40 20
28 41 23
0 0 0
0 0 0
0 0 0
16 2 1
0 0 0
0 0 0
38 38 38
56 52 52
72 72 72
2 0 0
0 0 0
16 38 19
0 6 1
8 7 2
1 0 0
18 1 1
49 13 13
29 56 32
80 98 82
46 81 46
29 56 32
23 12 7
101 85 78
63 64 62
72 77 72
73 75 73
29 56 32
58 63 56
0 0 0
5 0 0
75 72 72
18 37 20
68 18 18
78 92 79
83 92 79
2 0 0
24 2 1
36 57 33
124 104 104
0 0 0
31 43 25
6 3 2
4 1 0
0 0 0
72 72 72
27 48 28
104 74 74
34 2 2
45 13 7
28 35 20
69 47 28
76 72 72
0 0 0
96 92 90
3 3 1
82 82 82
25 48 28
117 97 97
72 30 30
68 19 19
1 2 0
104 94 81
5 20 6
68 18 18
0 0 0
68 19 18
111 109 108
63 16 16
4 4 1
1 2 0
43 57 33
102 102 102
89 78 48
82 19 19
24 24 24
29 37 21
42 52 43
47 48 28
24 13 7
45 56 32
9 5 2
2 18 3
78 92 79
0 0 0
0 0 0
27 28 16
31 51 29
58 16 16
72 72 72
43 16 12
36 70 40
74 59 37
21 41 23
65 59 36
27 0 0
29 56 32
7 27 9
74 72 72
72 72 72
1 0 0
68 18 18
29 2 2
29 2 2
72 72 72
72 72 72
55 38 38
3 14 4
63 52 52
74 80 75
25 48 28
11 1 0
56 53 53
29 58 32
22 15 3
29 56 32
72 72 72
21 6 3
72 72 72
35 68 39
36 11 10
72 73 72
23 12 7
20 10 6
0 0 0
0 0 0
42 11 11
0 0 0
72 72 72
29 60 33
30 63 34
72 72 72
29 56 32
74 76 72
68 18 18
0 0 0
26 7 7
72 72 72
67 75 66
101 85 78
33 23 7
20 10 6
75 83 76
29 57 32
72 72 72
4 2 1
60 14 14
72 72 72
58 16 16
28 54 31
40 3 3
27 0 0
72 72 72
49 61 51
72 72 72
93 55 55
6 25 8
20 10 6
47 3 3
1 0 0
77 87 77
0 0 0
68 18 18
72 72 72
17 20 6
29 56 32
72 72 72
3 1 0
89 24 24
58 16 16
80 23 22
58 16 16
10 0 0
25 48 28
103 90 90
85 85 85
25 48 28
88 73 73
94 84 75
0 0 0
19 2 0
0 0 0
106 102 102
119 102 102
74 19 19
8 5 2
7 27 9
0 0 0
58 16 16
24 2 1
42 11 11
4 1 0
58 71 59
102 102 102
68 18 18
0 0 0
73 72 72
78 92 79
68 18 18
84 58 36
96 95 95
68 18 18
102 102 102
9 19 6
0 0 0
0 0 0
0 0 0
0 0 0
85 87 77
61 61 61
58 16 16
60 14 14
0 0 0
26 48 28
23 0 0
0 0 0
46 37 23
17 9 5
0 0 0
18 1 1
81 69 60
25 5 3
42 27 18
0 0 0
0 0 0
76 87 77
8 32 10
72 72 72
72 72 72
25 48 28
19 6 2
72 72 72
25 48 28
45 45 45
43 12 11
0 0 0
101 85 78
0 0 0
84 23 23
5 12 4
42 3 3
72 20 20
89 89 89
87 73 73
22 6 6
45 11 6
47 3 3
72 72 72
46 57 34
29 60 33
0 0 0
55 13 13
58 16 16
82 72 72
76 19 19
0 0 0
68 18 18
51 66 53
64 81 48
78 92 79
23 12 7
83 25 25
0 0 0
0 0 0
117 103 103
86 92 80
18 29 10
0 0 0
72 72 72
7 7 2
72 72 72
56 9 9
7 27 9
68 18 18
59 51 31
30 57 32
31 8 8
12 0 0
94 74 74
58 29 20
78 81 75
0 0 0
74 80 75
34 2 2
85 85 84
32 0 0
7 27 9
19 30 17
0 0 0
70 19 19
83 21 21
0 0 0
68 18 18
68 18 18
96 90 90
70 16 16
105 37 30
92 74 74
7 5 0
102 102 102
1 0 0
0 0 0
36 60 33
0 0 0
20 10 6
7 1 0
0 0 0
0 0 0
72 72 72
63 83 63
77 73 72
56 50 31
68 30 20
22 6 6
71 20 17
68 18 18
30 60 33
17 0 0
0 0 0
7 4 2
40 3 3
20 17 9
11 5 1
68 18 18
72 72 72
0 0 0
92 72 72
34 2 2
98 106 99
20 10 6
37 8 5
91 90 89
69 20 19
0 0 0
73 20 19
46 57 34
77 21 21
24 35 20
1 0 0
6 0 0
22 42 24
70 19 19
55 53 53
62 56 54
68 19 18
79 72 72
34 2 2
0 0 0
0 0 0
5 6 2
68 18 18
9 0 0
95 74 74
134 77 77
9 20 6
50 20 14
0 0 0
72 72 72
0 0 0
84 23 23
0 0 0
73 72 72
0 0 0
93 65 64
76 83 76
14 26 15
2 0 0
58 16 16
61 61 61
0 0 0
4 0 0
4 4 1
61 63 61
68 22 20
72 72 72
41 80 46
49 13 13
87 52 46
84 23 23
75 20 20
37 13 7
14 0 0
47 3 3
77 77 77
74 59 37
85 63 63
0 0 0
68 18 18
74 72 72
112 96 96
0 0 0
8 32 10
0 0 0
77 45 30
80 72 72
74 72 72
65 87 50
0 0 0
20 10 6
86 23 23
5 5 1
49 13 13
11 0 0
43 33 33
40 12 7
53 52 52
72 72 72
82 82 82
25 48 28
0 0 0
0 0 0
20 11 6
68 75 66
0 0 0
99 74 74
38 38 38
0 0 0
47 43 26
74 80 75
87 73 73
2 15 3
2 0 0
22 7 4
87 73 73
84 24 23
29 57 32
68 49 47
20 10 6
72 72 72
49 13 13
61 53 53
0 0 0
0 0 0
18 4 4
13 2 1
36 10 10
51 9 9
72 72 72
72 72 72
58 16 16
11 1 1
94 74 74
49 13 13
59 17 16
110 74 74
40 27 9
23 12 7
18 1 1
2 0 0
20 11 6
0 0 0
3 1 0
19 2 1
0 0 0
0 0 0
0 0 0
0 0 0
0 0 0
0 0 0
0 0 0
0 0 0
0 0 0
0 0 0
0 0 0
0 0 0
0 0 0
0 0 0
0 0 0
0 0 0
0 0 0
0 0 0
0 0 0
0 0 0
0 0 0
0 0 0
0 0 0
0 0 0
0 0 0
0 0 0
0 0 0
29 41 15
0 0 0
28 49 28
5 1 0
25 48 28
5 6 2
0 0 0
10 4 1
0 0 0
10 2 2
22 47 25
7 27 9
32 63 36
0 0 0
13 25 14
23 19 8
76 72 72
80 72 72
29 56 32
57 83 60
91 24 23
0 0 0
25 48 28
1 0 0
0 0 0
3 14 4
8 32 10
20 10 6
0 0 0
32 43 25
25 48 28
31 48 28
0 0 0
0 0 0
92 93 80
0 0 0
77 90 78
21 41 23
52 52 52
30 56 32
0 0 0
10 5 3
71 21 19
24 43 25
22 41 24
0 0 0
76 73 72
54 43 27
54 57 49
60 71 40
21 41 23
5 3 1
76 78 73
95 95 95
0 0 0
13 8 4
2 10 3
0 0 0
80 84 76
102 75 75
0 0 0
0 0 0
81 60 38
18 6 3
0 0 0
29 55 31
75 83 76
0 0 0
18 35 20
68 18 18
29 56 32
40 65 43
2 2 0
31 10 6
61 61 61
8 32 10
37 8 5
29 56 32
76 73 72
2 15 3
23 12 7
0 0 0
26 54 29
71 53 31
68 18 18
80 53 34
0 0 0
80 98 82
95 56 56
58 71 59
7 7 2
93 105 94
6 24 8
25 48 28
49 49 30
7 27 9
85 85 85
86 115 88
49 13 13
3 1 0
57 67 58
73 72 72
0 0 0
14 7 4
18 35 20
29 56 32
68 84 70
72 72 72
21 3 1
71 45 30
77 75 73
42 11 11
0 0 0
21 41 23
1 13 2
72 72 72
0 0 0
58 22 16
0 0 0
0 0 0
34 2 2
52 52 52
0 0 0
27 48 28
0 0 0
106 117 107
72 72 72
0 0 0
0 0 0
0 0 0
90 84 77
0 0 0
58 16 16
46 85 49
0 0 0
0 0 0
72 72 72
69 62 62
12 6 3
10 5 3
20 20 20
34 2 2
0 0 0
8 32 10
72 72 72
102 102 102
15 7 4
0 0 0
0 0 0
29 56 32
81 92 79
68 83 70
3 3 1
2 2 0
58 16 16
0 0 0
103 64 64
92 74 74
29 48 28
58 16 16
78 42 42
29 56 32
23 41 23
22 41 23
82 104 84
74 72 72
74 78 74
0 0 0
72 20 20
54 52 52
21 41 23
0 0 0
0 0 0
23 12 7
0 0 0
55 14 12
42 11 11
9 14 10
69 19 18
76 60 38
75 72 72
0 0 0
72 72 72
0 0 0
35 27 9
61 16 16
72 72 72
0 0 0
64 18 14
81 75 73
10 1 0
0 3 1
36 56 32
74 81 75
49 56 32
0 0 0
72 72 72
25 3 2
41 80 46
65 74 66
0 0 0
29 56 32
72 72 72
28 41 23
29 2 2
0 0 0
0 0 0
20 18 8
101 95 95
32 32 32
42 11 11
5 0 0
45 45 45
7 8 2
25 48 28
87 73 73
87 74 73
0 0 0
68 37 21
5 5 1
3 3 1
0 0 0
30 57 32
61 16 16
71 68 59
47 26 18
53 58 34
74 81 73
58 16 16
0 0 0
61 61 61
1 4 1
72 72 72
0 0 0
63 22 12
25 12 7
0 0 0
80 94 82
53 52 52
70 19 18
92 27 25
8 8 2
28 41 23
72 72 72
79 79 79
0 0 0
104 106 102
0 0 0
25 24 8
25 48 28
72 72 72
7 12 3
0 0 0
38 10 10
0 0 0
5 20 6
67 46 37
60 14 14
22 34 12
65 62 62
68 18 18
76 91 78
38 38 38
0 0 0
70 35 25
143 106 106
0 0 0
0 0 0
76 21 21
18 35 20
53 38 24
31 8 8
29 57 32
75 20 20
71 63 62
78 60 55
0 0 0
110 30 30
72 72 72
4 0 0
47 3 3
17 8 4
80 74 73
53 53 52
68 20 19
0 0 0
97 88 79
61 61 61
25 48 28
96 26 26
79 49 48
93 74 73
69 18 18
0 0 0
29 56 32
33 56 32
73 72 72
48 16 13
28 0 0
25 50 28
61 61 61
3 14 4
0 0 0
80 72 72
29 56 32
18 11 6
77 78 74
66 78 67
5 0 0
1 0 0
10 1 0
0 0 0
21 26 10
18 35 20
0 0 0
124 96 83
4 0 0
25 20 7
72 72 72
3 3 1
53 39 39
60 52 52
84 23 23
72 72 72
102 102 102
105 79 51
72 72 72
2 18 3
68 18 18
90 70 44
18 35 20
29 56 32
0 0 0
0 0 0
76 72 72
0 0 0
72 72 72
79 76 73
84 75 73
89 61 40
58 16 16
93 52 36
121 103 103
15 1 1
8 32 10
72 72 72
72 72 72
108 102 102
46 13 7
58 16 16
77 77 74
70 21 19
97 72 72
0 0 0
0 0 0
72 72 72
33 31 17
40 39 38
74 72 72
34 60 35
36 70 40
0 0 0
17 6 3
95 74 74
78 55 55
56 9 9
34 2 2
0 0 0
82 82 82
58 16 16
58 16 16
30 56 32
91 91 74
26 55 29
51 43 24
102 102 102
61 77 62
85 82 82
53 55 53
68 18 18
73 72 72
35 56 32
25 16 3
23 12 7
72 54 33
0 0 0
0 0 0
44 39 39
6 23 7
9 20 7
25 48 28
106 117 107
5 1 0
86 72 72
23 12 7
79 19 19
38 38 38
89 73 73
126 125 125
58 16 16
27 0 0
96 25 25
72 52 33
30 8 4
0 0 0
61 63 62
70 30 20
6 0 0
74 59 37
54 45 45
49 13 13
72 72 72
20 2 1
75 72 72
15 30 17
75 72 72
28 28 28
0 0 0
19 5 5
123 104 104
1 6 2
74 59 37
6 23 7
34 50 28
21 41 23
73 76 73
0 0 0
67 36 36
72 72 72
29 2 2
26 48 28
19 9 5
20 10 6
50 14 13
0 0 0
28 2 2
116 103 103
58 16 16
84 90 77
45 46 45
38 38 38
72 72 72
17 10 5
85 73 72
68 18 18
9 0 0
8 32 10
0 0 0
89 81 75
72 72 72
74 59 37
0 0 0
0 0 0
76 72 72
68 18 18
34 57 33
75 73 72
39 38 38
13 0 0
72 52 33
0 0 0
80 22 22
72 75 72
77 72 72
89 24 24
68 18 18
0 0 0
68 18 18
1 3 0
68 18 18
51 58 34
86 56 56
144 106 105
68 18 18
61 61 61
68 18 18
96 23 23
68 18 18
38 38 38
68 18 18
89 63 40
0 0 0
12 6 3
86 75 75
96 26 26
76 21 21
68 18 18
72 72 72
72 77 72
0 0 0
0 0 0
71 53 53
68 18 18
11 32 10
55 12 12
94 106 95
13 0 0
71 19 19
0 0 0
115 76 76
0 0 0
68 18 18
75 23 21
120 77 77
0 0 0
0 0 0
6 6 2
68 18 18
112 116 107
55 52 52
104 75 75
25 48 28
58 21 16
33 64 37
72 72 72
0 0 0
61 61 61
0 0 0
17 9 5
95 45 45
2 0 0
47 3 3
128 97 97
11 1 1
45 47 45
0 0 0
87 64 63
58 16 16
75 83 76
9 18 10
14 7 4
0 0 0
53 62 51
20 11 6
18 1 1
1 0 0
40 3 3
0 0 0
90 80 80
2 0 0
58 16 16
0 0 0
20 10 6
68 18 18
0 0 0
5 6 2
110 102 102
20 10 6
0 0 0
87 73 73
76 20 19
30 2 2
0 0 0
1 0 0
0 0 0
0 0 0
42 11 11
33 34 19
34 2 2
72 72 72
72 72 72
33 57 33
38 9 5
0 0 0
62 39 26
72 72 72
61 61 61
100 74 74
74 19 19
0 0 0
0 0 0
30 14 8
13 0 0
0 0 0
0 0 0
0 0 0
0 0 0
0 0 0
0 0 0
0 0 0
0 0 0
0 0 0
0 0 0
0 0 0
0 0 0
0 0 0
0 0 0
0 0 0
0 0 0
0 0 0
0 0 0
0 0 0
0 0 0
0 0 0
0 0 0
0 0 0
0 0 0
0 0 0
0 0 0
0 0 0
23 12 7
29 56 32
22 15 7
0 0 0
0 0 0
8 21 7
8 0 0
2 14 2
21 41 23
22 27 10
7 0 0
58 28 18
25 50 28
37 55 32
34 50 28
2 0 0
57 58 35
16 2 1
57 52 52
42 8 8
0 0 0
82 72 72
0 0 0
34 50 28
0 0 0
34 52 29
53 52 52
29 56 32
21 41 23
2 0 0
105 30 29
68 18 18
68 37 21
49 13 13
21 19 11
73 72 72
78 76 75
29 48 28
97 81 70
21 41 23
68 18 18
0 0 0
21 41 23
72 72 72
25 48 28
0 0 0
29 56 32
72 72 72
0 0 0
68 18 18
0 0 0
69 38 22
18 35 20
9 4 0
2 0 0
2 11 3
0 0 0
26 58 30
22 41 23
71 81 48
0 0 0
78 92 79
70 91 68
68 24 19
38 56 32
25 1 1
29 56 32
72 72 72
102 102 102
0 0 0
65 87 66
29 56 32
43 84 48
29 56 32
74 48 48
65 60 36
29 56 32
52 44 25
124 112 106
72 84 50
18 35 20
10 5 3
0 0 0
0 0 0
7 20 6
9 8 2
0 0 0
47 20 7
21 41 23
76 19 19
7 7 2
31 8 8
72 72 72
0 0 0
29 57 32
15 30 17
72 72 72
0 0 0
59 16 16
29 57 32
72 78 73
0 0 0
29 56 32
50 13 13
29 56 32
49 68 50
78 92 79
82 104 84
101 85 78
0 0 0
0 0 0
34 2 2
29 56 32
23 20 7
1 13 2
97 114 88
1 3 0
78 92 79
0 0 0
76 83 76
72 73 72
1 2 0
29 2 2
14 8 4
80 100 82
0 0 0
75 78 74
77 62 39
20 14 8
91 26 25
32 49 28
49 13 13
13 5 3
6 23 7
29 57 32
9 3 1
2 0 0
33 61 33
58 71 59
61 19 17
30 56 32
29 58 32
47 3 3
26 55 29
25 48 28
52 52 52
57 51 31
72 76 72
61 61 61
4 0 0
52 62 35
49 13 13
123 104 104
78 92 79
76 87 77
72 72 72
7 27 9
29 56 32
25 48 28
0 0 0
29 56 32
72 72 72
79 81 49
7 1 0
42 48 28
72 72 72
41 58 43
69 84 70
11 0 0
22 42 24
52 52 52
0 0 0
0 0 0
15 30 17
104 110 105
78 92 79
72 72 72
104 110 105
17 49 16
4 0 0
78 92 79
0 5 1
0 0 0
0 0 0
40 18 4
9 32 10
0 0 0
72 72 72
16 0 0
72 72 72
52 52 52
52 52 52
7 0 0
85 85 85
29 56 32
72 72 72
70 52 52
72 73 72
25 48 28
73 72 72
7 0 0
74 78 74
83 104 84
25 48 28
0 0 0
102 102 102
29 41 23
19 9 5
3 1 0
0 0 0
70 83 70
72 72 72
0 1 0
0 0 0
23 12 7
89 57 56
72 72 72
58 71 59
72 72 72
78 92 79
26 41 23
102 102 102
11 1 1
86 81 76
90 89 89
0 0 0
41 18 6
64 17 17
63 51 32
95 95 95
103 102 102
19 5 5
0 0 0
26 12 7
2 0 0
78 92 79
104 75 75
83 112 86
49 13 13
21 35 20
61 61 61
13 2 1
85 63 63
34 2 2
86 23 23
65 91 68
102 102 102
72 50 33
72 72 72
20 0 0
60 77 62
0 0 0
34 2 2
55 56 33
0 0 0
30 67 35
103 93 81
37 73 41
17 9 5
25 48 28
0 0 0
72 72 72
75 72 72
4 3 1
0 0 0
33 30 17
23 12 7
68 18 18
73 72 72
25 48 28
3 0 0
0 0 0
9 0 0
50 31 16
73 72 72
29 56 32
74 76 74
0 2 0
52 52 52
0 0 0
23 12 7
22 6 6
23 12 7
18 8 3
20 35 20
0 0 0
0 0 0
72 72 72
96 26 26
113 103 103
58 16 16
94 74 74
29 58 32
37 50 29
74 19 19
72 74 72
8 16 9
29 56 32
11 0 0
0 0 0
29 56 32
72 72 72
14 0 0
35 57 33
72 73 72
89 89 89
13 6 3
14 7 4
72 72 72
94 85 85
71 45 30
89 79 75
52 52 52
0 0 0
62 20 17
32 63 36
76 73 72
17 9 5
68 33 21
29 1 1
25 32 10
5 0 0
99 77 75
102 102 102
71 19 19
42 11 11
0 0 0
2 7 2
88 73 73
0 0 0
78 60 55
97 50 30
76 76 76
12 6 3
1 0 0
73 77 73
35 49 28
25 48 28
17 9 5
40 3 3
77 73 72
29 36 25
0 0 0
0 0 0
15 1 1
68 18 18
0 0 0
49 3 3
29 56 32
68 18 18
33 64 37
36 70 40
10 1 0
25 48 28
37 8 5
0 0 0
0 0 0
24 21 9
110 103 103
72 73 72
72 19 19
0 0 0
69 19 18
13 9 4
66 16 16
37 13 10
75 75 74
29 56 32
23 12 7
72 54 54
0 1 0
14 6 3
72 72 72
0 0 0
75 83 76
27 10 7
25 36 25
52 52 52
8 16 9
69 20 19
24 41 23
44 11 6
77 72 72
0 0 0
110 59 59
0 0 0
68 18 18
61 61 61
68 18 18
0 0 0
93 74 74
72 72 72
0 0 0
61 61 61
106 58 51
30 56 32
59 30 22
0 0 0
0 0 0
29 56 32
42 48 28
21 2 1
44 57 34
0 0 0
58 16 16
114 123 114
102 102 102
55 53 53
77 21 21
37 58 33
72 72 72
34 2 2
6 15 5
0 0 0
107 90 80
83 73 73
4 8 4
25 48 28
39 17 11
87 99 88
34 2 2
19 9 5
98 62 41
42 47 41
23 0 0
23 0 0
107 29 29
14 7 4
52 52 52
80 72 72
36 63 36
64 53 53
68 33 21
50 24 15
3 0 0
68 18 18
4 10 3
83 92 79
72 72 72
42 11 11
36 57 33
26 7 7
36 10 10
109 103 102
6 0 0
72 72 72
104 76 75
72 22 20
52 52 52
52 52 52
92 74 74
0 0 0
0 0 0
74 72 72
93 55 55
12 6 3
25 48 28
76 71 43
21 10 6
58 16 16
5 1 0
72 72 72
0 0 0
68 18 18
72 72 72
47 24 8
68 18 18
72 72 72
92 74 74
0 0 0
99 75 74
6 23 7
86 72 72
100 63 49
0 0 0
33 56 32
47 3 3
17 25 14
4 0 0
1 2 0
89 25 24
72 72 72
26 7 7
23 12 7
68 18 18
63 52 43
8 1 0
68 18 18
72 72 72
116 103 103
72 74 72
102 102 102
104 52 47
25 9 5
68 18 18
72 18 18
0 0 0
30 43 24
99 80 75
72 72 72
123 106 104
17 9 5
68 18 18
31 8 8
66 52 52
16 0 0
28 28 28
28 36 19
58 16 16
105 103 102
25 1 1
14 5 3
26 12 7
0 0 0
101 85 78
87 87 78
42 7 4
0 0 0
94 25 25
62 16 16
4 1 0
85 95 86
40 3 3
73 72 72
4 4 1
75 25 21
72 72 72
41 10 10
56 15 15
17 20 6
25 48 28
58 16 16
25 48 28
92 74 74
87 73 73
67 82 69
74 73 72
17 9 5
45 45 45
85 63 63
44 13 12
22 34 12
0 0 0
78 72 72
20 11 6
100 92 80
53 52 52
62 44 28
87 73 73
3 14 4
52 52 52
20 10 6
5 0 0
1 0 0
14 5 3
75 73 72
45 6 6
72 54 54
48 3 3
25 48 28
17 9 5
3 3 1
85 73 72
76 59 36
21 41 23
5 2 0
10 10 10
47 3 3
7 0 0
89 24 24
63 4 4
47 3 3
0 0 0
0 0 0
0 0 0
0 0 0
0 0 0
0 0 0
0 0 0
0 0 0
0 0 0
0 0 0
0 0 0
0 0 0
0 0 0
0 0 0
0 0 0
0 0 0
0 0 0
0 0 0
0 0 0
0 0 0
0 0 0
0 0 0
0 0 0
0 0 0
0 0 0
0 0 0
0 0 0
0 0 0
0 0 0
21 41 23
12 7 2
37 58 33
29 56 32
27 52 18
31 56 32
20 12 6
34 2 2
24 21 9
58 16 16
85 92 85
0 0 0
64 40 26
34 50 28
22 35 20
5 20 6
82 104 84
4 17 5
67 74 60
61 61 61
0 0 0
1 11 2
72 73 72
0 0 0
1 2 0
0 2 0
61 61 61
0 0 0
0 0 0
5 20 6
11 1 1
7 7 2
1 0 0
72 52 33
0 0 0
1 3 0
14 6 3
15 30 17
21 41 23
72 72 72
68 83 70
72 72 72
74 73 72
25 52 28
85 85 85
62 82 64
52 52 52
11 10 1
68 19 18
72 72 72
72 72 72
29 57 32
29 56 32
36 10 10
99 74 74
83 93 79
45 14 12
72 72 72
75 73 72
29 57 32
29 56 32
53 44 27
37 49 28
74 78 74
105 113 106
0 0 0
25 48 28
11 32 10
78 92 79
1 0 0
0 0 0
55 49 29
23 22 8
29 56 32
5 20 6
72 73 72
42 11 11
0 0 0
77 93 78
31 60 34
51 58 34
40 59 33
0 0 0
49 13 13
0 0 0
1 0 0
15 30 17
48 93 54
22 41 24
21 41 23
25 48 28
7 23 8
7 27 9
5 7 1
53 57 34
102 102 102
38 74 43
3 0 0
29 57 33
68 18 18
68 18 18
23 12 7
0 0 0
1 1 0
20 10 6
87 73 73
0 0 0
0 0 0
0 1 0
97 74 74
72 72 72
0 0 0
62 66 62
22 42 24
79 92 79
96 95 95
0 0 0
0 0 0
105 112 105
103 79 75
54 43 27
0 0 0
38 58 33
55 60 55
72 72 72
24 26 10
91 73 73
68 47 47
78 92 79
0 0 0
72 76 72
72 72 72
72 76 72
0 0 0
49 13 13
77 83 76
95 84 77
45 87 50
72 72 72
69 62 62
5 0 0
7 27 9
41 80 46
24 12 7
2 4 0
72 72 72
29 56 32
71 45 30
76 83 76
127 126 126
49 13 13
60 57 33
0 0 0
72 72 72
0 0 0
0 0 0
0 1 0
49 49 30
65 59 36
36 70 40
0 0 0
104 96 81
0 0 0
20 0 0
2 3 0
36 75 41
0 0 0
52 52 52
25 48 28
51 41 24
34 64 37
2 21 3
1 11 2
3 3 1
5 20 6
69 20 19
59 36 19
72 72 72
78 92 79
14 2 1
0 0 0
77 72 40
82 87 77
75 83 76
21 41 23
16 0 0
2 0 0
74 58 35
12 6 3
24 13 7
68 18 18
87 73 73
68 83 70
26 12 7
14 7 4
0 0 0
0 0 0
93 76 74
83 73 73
68 18 18
62 77 62
12 5 2
29 56 32
68 19 19
99 27 27
58 16 16
0 0 0
72 52 33
63 62 62
63 61 61
68 20 19
36 28 28
72 72 72
89 89 89
77 20 19
58 16 16
84 73 73
21 41 23
75 69 40
68 18 18
115 115 115
68 19 18
1 5 1
80 85 76
58 16 16
58 16 16
75 80 75
12 6 3
68 18 18
30 56 32
82 100 83
30 59 33
61 61 61
92 74 74
0 0 0
8 32 10
73 76 73
14 7 4
74 80 75
87 73 73
21 41 23
72 72 72
30 5 2
70 54 53
24 42 24
30 12 7
72 72 72
9 18 10
0 0 0
78 55 55
70 21 19
0 4 0
64 86 66
23 12 7
47 6 4
60 18 16
70 21 19
72 72 72
0 0 0
31 60 34
28 11 8
72 72 72
30 30 11
95 95 95
49 3 3
52 53 52
0 0 0
72 72 72
0 5 0
0 0 0
73 72 72
74 78 74
73 59 36
18 37 20
70 21 19
72 72 72
0 0 0
76 100 76
85 63 63
82 72 72
7 15 3
72 52 33
0 0 0
7 13 7
40 3 3
4 2 0
17 17 17
69 18 18
87 73 73
6 0 0
58 16 16
72 72 72
25 48 28
68 18 18
27 53 30
40 3 3
62 61 61
113 91 91
87 75 73
0 0 0
41 80 46
68 18 18
3 1 0
44 49 29
0 0 0
10 18 10
52 52 52
102 102 102
125 104 104
0 0 0
0 0 0
0 0 0
66 64 39
0 0 0
52 52 52
32 9 9
53 63 48
125 125 125
2 0 0
34 2 2
18 35 20
26 1 1
19 5 5
72 72 72
0 0 0
0 0 0
75 83 76
78 72 72
24 35 20
90 76 76
0 0 0
2 2 0
102 102 102
0 0 0
72 72 72
23 12 7
72 72 72
64 20 17
89 56 56
31 65 35
58 16 16
69 21 19
72 72 72
18 11 2
16 4 4
18 2 1
82 45 30
43 11 11
66 64 62
72 74 72
82 69 43
0 0 0
0 0 0
25 1 1
58 16 16
1 2 0
92 74 74
45 45 45
128 118 111
72 72 72
88 73 73
4 4 1
99 74 74
72 72 72
60 17 16
74 72 72
10 1 0
106 95 95
34 2 2
45 32 21
29 56 32
68 18 18
15 30 17
87 73 73
20 10 6
1 3 0
63 52 32
19 20 6
43 56 32
81 73 73
15 1 1
34 2 2
29 56 32
152 134 134
26 7 7
72 76 72
65 61 61
14 2 0
0 0 0
58 16 16
72 72 72
75 75 73
9 18 6
90 102 91
58 16 16
76 73 72
16 2 1
88 85 85
84 61 61
106 83 83
92 74 74
72 72 72
11 0 0
0 0 0
23 13 7
18 1 1
71 45 30
28 29 28
121 114 107
44 15 9
72 77 72
49 56 32
54 15 15
22 28 16
62 30 22
23 12 7
76 87 77
65 62 62
22 38 13
72 72 72
38 38 38
77 21 21
9 0 0
72 72 72
40 3 3
68 18 18
84 23 23
72 76 72
0 0 0
109 65 65
41 56 32
73 72 72
0 0 0
10 7 2
107 67 54
70 52 52
36 10 10
21 41 23
2 0 0
0 0 0
53 53 52
55 13 13
79 63 63
99 74 74
25 1 1
0 0 0
72 72 72
81 73 73
25 49 28
61 61 61
44 28 19
74 59 37
72 72 72
72 31 23
93 74 74
0 0 0
65 59 36
78 72 72
73 72 72
2 0 0
90 84 77
40 11 10
104 77 77
40 3 3
3 3 1
69 19 18
80 22 22
72 72 72
72 72 72
69 19 18
33 35 20
67 16 16
77 72 72
41 43 25
49 13 13
72 72 72
52 52 52
53 52 52
70 19 19
39 11 6
26 11 6
77 21 21
0 0 0
72 72 72
45 11 11
30 56 32
0 0 0
68 18 18
17 4 4
89 24 24
25 1 1
39 57 33
0 0 0
0 0 0
79 92 79
72 72 72
72 72 72
39 48 28
113 102 102
102 102 102
45 45 45
76 72 72
18 21 7
65 59 36
60 16 16
6 11 6
76 73 72
32 41 23
0 0 0
66 61 61
0 0 0
23 12 7
20 10 6
80 79 79
84 45 30
72 72 72
39 57 33
12 6 3
8 32 10
47 3 3
0 0 0
129 109 104
82 82 82
14 26 15
72 72 72
47 3 3
17 9 5
10 1 0
83 73 73
63 51 32
72 72 72
51 14 14
0 0 0
89 24 24
0 0 0
72 72 72
5 0 0
88 73 73
61 61 61
72 30 21
0 0 0
4 1 0
40 3 3
50 13 13
55 38 38
11 0 0
12 6 3
92 74 74
7 7 2
75 72 72
72 72 72
0 0 0
0 0 0
70 59 36
67 18 18
11 0 0
18 35 20
72 72 72
48 4 3
59 52 52
75 80 75
54 69 50
21 1 0
36 15 7
29 2 2
14 7 4
43 21 12
0 0 0
19 0 0
20 11 6
32 16 9
17 9 5
0 0 0
0 0 0
0 0 0
0 0 0
0 0 0
0 0 0
0 0 0
0 0 0
0 0 0
0 0 0
0 0 0
0 0 0
0 0 0
0 0 0
0 0 0
0 0 0
0 0 0
0 0 0
0 0 0
0 0 0
0 0 0
0 0 0
0 0 0
0 0 0
0 0 0
0 0 0
0 0 0
0 0 0
19 35 20
21 41 23
36 27 11
41 65 35
4 4 1
4 17 5
0 0 0
58 16 16
3 12 4
12 14 4
74 80 75
36 70 40
8 8 2
0 0 0
5 20 6
25 1 1
16 11 5
0 0 0
0 0 0
79 67 42
23 12 7
0 0 0
102 107 102
5 20 6
0 0 0
23 12 7
0 0 0
62 17 16
0 0 0
58 16 16
74 59 37
16 0 0
78 92 79
0 0 0
78 92 79
24 12 6
25 48 28
21 41 23
16 2 1
52 52 52
1 0 0
34 2 2
102 102 102
17 43 19
57 58 35
60 34 23
72 72 72
11 1 1
72 72 72
76 89 78
1 0 0
29 56 32
11 19 11
37 75 41
0 0 0
0 0 0
2 15 3
61 50 31
29 2 2
0 0 0
0 5 1
72 72 72
36 70 40
29 56 32
133 119 109
29 56 32
55 43 27
89 90 89
0 0 0
1 0 0
72 72 72
29 56 32
72 72 72
72 73 72
11 32 10
57 53 53
17 9 5
122 129 122
9 23 7
53 17 15
53 52 52
0 0 0
6 23 7
29 10 6
78 92 79
0 0 0
23 17 7
89 89 89
29 56 32
1 11 2
0 0 0
0 0 0
29 56 32
32 63 36
46 42 15
0 0 0
79 87 77
36 10 10
0 0 0
4 18 6
58 16 16
0 0 0
74 72 72
62 62 61
156 130 130
72 72 72
13 1 0
0 0 0
29 56 32
0 0 0
75 83 76
11 1 1
0 0 0
1 0 0
58 16 16
18 1 1
0 0 0
83 87 83
8 0 0
29 57 32
0 0 0
4 2 1
1 1 0
106 113 106
80 22 22
43 71 39
12 26 13
45 47 45
1 2 0
0 0 0
76 87 77
6 23 7
72 72 72
72 72 72
65 27 19
23 31 18
24 12 7
44 35 20
69 76 46
102 106 102
87 75 73
72 72 72
0 0 0
0 1 0
0 0 0
73 72 72
59 28 18
10 6 3
17 0 0
113 113 113
25 48 28
68 18 18
34 66 38
61 61 61
0 0 0
69 69 69
14 28 9
75 83 76
32 56 32
77 72 44
65 59 36
49 13 13
18 35 20
30 58 33
0 0 0
0 0 0
0 0 0
25 48 28
76 73 72
100 75 74
31 60 35
11 17 5
8 32 10
74 59 37
25 48 28
76 87 77
61 61 61
23 12 7
102 102 102
0 0 0
11 22 12
72 72 72
0 0 0
21 41 23
20 0 0
72 72 72
12 6 3
7 7 2
29 56 32
115 95 82
7 0 0
15 11 2
78 92 79
79 88 77
102 75 75
99 74 74
0 0 0
76 76 73
49 14 13
21 41 23
72 65 37
77 75 72
23 12 7
20 7 4
25 48 28
62 61 61
79 92 79
71 18 18
73 72 72
0 0 0
71 21 19
29 56 32
0 0 0
0 0 0
49 13 13
80 73 72
58 16 16
7 1 0
0 0 0
92 74 74
0 0 0
68 18 18
72 72 72
5 20 6
23 12 7
72 72 72
47 3 3
41 80 46
36 10 10
44 14 12
72 72 72
0 0 0
38 74 43
71 26 19
71 26 20
0 0 0
41 81 46
117 103 103
76 72 72
48 57 49
68 23 19
53 48 28
72 72 72
40 11 6
79 84 76
82 104 84
47 5 4
0 5 0
5 1 0
29 56 32
26 42 24
95 95 95
65 62 62
14 7 4
5 5 1
89 28 25
24 23 7
52 52 52
80 63 37
35 12 7
64 71 65
0 0 0
2 2 0
50 27 15
0 0 0
3 0 0
89 45 44
14 3 3
52 52 52
84 23 23
58 16 16
70 40 27
8 32 10
60 18 16
1 9 1
76 21 21
29 2 2
28 28 28
87 92 79
27 0 0
92 27 25
18 40 20
11 32 13
11 2 1
74 16 16
72 23 20
61 58 34
102 102 102
72 22 20
15 1 1
24 11 6
89 24 24
124 105 105
74 53 34
44 49 29
117 97 97
10 1 0
17 8 4
20 35 20
0 0 0
65 18 18
70 19 18
99 29 27
0 0 0
75 83 76
64 53 53
55 24 15
0 0 0
85 63 63
0 0 0
15 3 3
34 2 2
112 103 103
30 57 32
0 0 0
68 18 18
26 10 5
96 27 26
52 30 30
18 3 1
118 112 106
49 60 34
73 72 72
0 0 0
116 76 76
9 4 2
0 0 0
72 72 72
72 53 33
57 13 13
0 0 0
48 4 3
55 18 15
20 0 0
99 74 74
39 58 33
49 13 13
72 72 72
83 73 73
2 15 3
29 56 32
25 5 5
53 13 13
15 30 17
74 16 16
61 77 62
13 1 1
1 2 0
66 56 53
102 104 102
47 3 3
49 13 13
74 59 37
58 16 16
0 0 0
41 10 10
0 0 0
58 16 16
28 29 28
0 0 0
0 0 0
0 0 0
120 104 103
38 48 28
61 61 61
6 0 0
29 2 2
68 19 19
72 72 72
61 38 26
76 72 72
94 26 26
74 80 75
118 108 104
0 0 0
72 72 72
87 73 73
31 60 34
72 72 72
5 0 0
0 0 0
63 16 16
81 92 79
0 0 0
17 10 3
0 0 0
89 24 24
89 73 72
10 1 0
82 20 20
72 72 72
63 54 32
70 21 19
92 74 74
76 87 77
73 72 72
92 64 64
55 50 31
107 29 29
0 0 0
49 13 13
104 95 95
77 61 61
29 56 32
81 92 79
15 8 4
68 18 18
91 89 89
68 18 18
78 72 72
10 0 0
9 4 2
72 72 72
12 6 3
73 75 73
25 2 1
43 64 37
68 18 18
91 73 67
87 56 56
82 24 23
72 73 72
10 4 1
0 0 0
24 13 7
68 18 18
72 72 72
19 5 5
53 53 52
78 83 76
82 48 48
0 0 0
32 0 0
95 54 37
68 18 18
29 56 32
0 0 0
0 0 0
37 58 33
0 0 0
0 0 0
68 18 18
35 41 24
2 0 0
3 0 0
74 72 72
9 32 10
29 56 32
88 74 73
0 0 0
45 11 11
106 76 75
72 72 72
102 26 26
34 2 2
87 73 73
41 11 11
3 0 0
105 75 75
89 49 49
0 0 0
52 58 34
61 61 61
89 89 89
62 59 58
0 0 0
68 18 18
1 2 0
0 0 0
72 72 72
52 52 52
21 25 14
97 28 26
0 0 0
16 0 0
2 0 0
7 27 9
43 12 11
13 25 14
68 18 18
99 74 74
73 20 20
71 21 19
43 48 28
89 89 89
72 72 72
29 2 2
89 89 89
0 0 0
71 19 15
85 56 55
72 72 72
58 16 16
34 2 2
34 2 2
48 13 13
72 72 72
79 19 19
49 15 13
58 16 16
21 33 23
88 85 75
69 19 18
0 0 0
73 72 72
4 0 0
20 10 6
109 75 75
70 40 27
68 18 18
0 0 0
38 38 38
47 3 3
72 72 72
5 2 0
87 53 36
0 0 0
52 52 52
42 11 11
53 52 52
15 30 17
7 4 1
72 72 72
58 16 16
6 2 0
90 73 73
0 0 0
88 92 79
68 18 18
72 72 72
1 0 0
41 3 3
62 61 61
119 76 76
4 14 4
31 8 8
34 2 2
29 56 32
59 17 16
70 29 19
79 19 19
73 41 28
23 12 7
37 2 2
5 6 2
2 0 0
1 3 0
72 72 72
74 16 16
58 16 16
92 74 74
4 17 5
29 2 2
0 5 1
11 1 1
76 21 21
70 19 19
27 1 0
51 3 3
46 29 29
0 0 0
5 5 1
0 0 0
29 2 2
74 14 14
57 15 9
76 19 19
17 9 5
0 0 0
40 3 3
20 0 0
0 0 0
0 0 0
0 0 0
0 0 0
0 0 0
0 0 0
0 0 0
0 0 0
0 0 0
0 0 0
0 0 0
0 0 0
0 0 0
0 0 0
0 0 0
0 0 0
0 0 0
0 0 0
0 0 0
0 0 0
0 0 0
0 0 0
0 0 0
0 0 0
0 0 0
0 0 0
0 0 0
0 0 0
0 0 0
23 12 7
22 50 25
8 32 10
40 58 33
0 0 0
1 11 2
0 0 0
50 98 56
58 16 16
6 23 7
0 0 0
39 81 44
78 55 55
72 78 72
73 76 73
20 20 20
3 3 1
76 87 77
2 2 0
0 0 0
35 68 39
14 7 4
49 13 13
9 0 0
75 83 76
123 104 104
0 0 0
0 0 0
57 58 35
93 59 38
26 35 13
29 56 32
7 6 2
24 12 7
0 0 0
29 56 32
0 0 0
16 4 4
86 72 72
0 4 0
115 115 115
35 68 39
0 0 0
75 83 76
0 0 0
73 72 72
21 41 23
19 42 21
39 51 29
5 24 4
38 63 35
17 9 5
0 0 0
26 42 24
23 12 7
78 87 77
18 35 20
69 19 18
97 92 80
99 74 74
50 22 14
0 7 0
0 0 0
72 75 72
61 62 61
41 80 46
86 56 56
29 56 32
31 65 34
29 56 32
0 0 0
68 25 19
108 86 79
29 56 32
30 56 32
35 57 33
9 4 2
0 0 0
75 73 72
58 16 16
68 26 19
4 0 0
72 72 72
7 27 9
75 38 38
1 3 0
36 57 33
0 0 0
71 23 20
59 16 16
72 72 72
2 15 3
9 4 2
77 72 72
0 0 0
30 32 11
80 91 78
29 56 32
0 0 0
29 2 2
0 0 0
3 7 1
95 51 50
72 72 72
29 56 32
25 53 28
78 92 79
58 16 16
75 85 75
72 75 72
62 77 62
23 20 7
0 0 0
0 0 0
0 0 0
52 55 52
79 82 75
91 74 74
3 12 4
1 1 0
111 76 76
24 42 24
13 25 14
75 83 76
0 0 0
70 35 25
12 6 3
14 7 4
3 14 4
29 56 32
62 44 28
115 76 76
15 18 10
72 79 73
15 30 17
39 49 29
99 74 74
58 16 16
43 38 16
36 70 40
42 12 11
49 14 4
74 37 21
21 42 24
68 26 19
0 0 0
72 76 72
0 0 0
72 72 72
18 29 10
72 72 72
73 72 72
15 30 17
68 24 21
68 24 19
102 102 102
68 19 18
80 64 62
58 16 16
4 0 0
72 72 72
18 35 20
68 18 18
7 23 7
75 73 72
73 72 72
0 0 0
20 48 23
72 72 72
0 0 0
35 57 33
93 74 74
0 0 0
72 75 72
14 32 10
29 56 32
49 46 45
57 58 35
3 0 0
0 0 0
0 0 0
69 19 18
44 14 12
61 61 61
55 56 33
58 16 16
123 104 104
74 78 74
0 0 0
23 12 7
63 51 32
0 0 0
35 57 33
74 52 33
41 48 28
41 80 46
0 0 0
73 72 72
94 106 95
29 2 2
77 87 77
106 86 79
80 73 73
76 87 77
4 0 0
115 115 115
65 61 61
35 3 2
30 56 32
76 19 19
29 56 32
90 89 89
104 102 102
8 0 0
25 28 11
83 73 73
37 57 33
0 0 0
0 0 0
49 13 13
8 0 0
110 75 69
33 24 24
27 0 0
0 0 0
81 59 49
78 55 55
114 77 76
1 0 0
0 0 0
14 7 4
93 101 93
82 65 49
64 59 35
2 3 0
5 20 6
68 18 18
72 72 72
65 61 61
0 0 0
0 0 0
72 72 72
69 20 19
29 56 32
5 6 2
101 85 78
40 3 3
68 19 19
29 56 32
5 5 1
70 21 19
61 61 61
46 48 28
16 4 4
73 72 72
0 0 0
3 3 1
72 72 72
71 21 19
27 48 28
16 23 7
72 72 72
74 46 31
72 72 72
66 78 67
58 16 16
0 0 0
17 9 5
25 48 28
68 18 18
0 0 0
0 0 0
101 85 78
68 18 18
74 61 37
78 92 79
72 72 72
18 35 20
10 1 0
1 3 0
104 102 102
16 5 2
79 21 21
99 96 95
82 73 61
2 0 0
0 0 0
0 0 0
14 7 4
26 1 1
95 95 95
72 72 72
50 24 15
93 74 74
12 16 9
29 2 2
92 74 74
111 117 107
75 79 73
52 53 52
103 108 104
98 96 95
72 72 72
47 3 3
78 72 72
5 25 7
26 51 29
72 72 72
78 93 78
72 72 72
0 0 0
33 0 0
61 61 61
0 0 0
86 27 24
18 0 0
18 35 20
0 0 0
73 72 72
0 0 0
102 102 102
72 72 72
111 112 100
7 1 0
29 41 23
0 0 0
82 92 79
0 0 0
93 74 74
68 20 18
74 78 74
0 1 0
29 56 32
87 92 79
24 30 11
21 1 1
84 23 23
49 13 13
18 35 20
0 0 0
0 0 0
0 0 0
50 20 14
29 10 8
29 56 32
69 19 18
87 84 73
38 11 10
69 18 18
49 13 13
0 0 0
73 73 72
87 74 73
1 0 0
65 60 37
14 4 1
0 0 0
76 73 72
92 74 74
19 13 10
21 41 23
0 0 0
49 13 13
86 56 56
68 19 19
0 0 0
72 72 72
87 73 73
58 16 16
3 3 1
0 0 0
0 1 0
6 10 3
32 32 32
49 13 13
0 0 0
72 72 72
0 0 0
20 10 6
68 18 18
34 2 2
69 61 61
52 19 9
58 16 16
0 0 0
21 41 23
0 0 0
1 1 0
0 0 0
4 0 0
100 74 74
99 74 74
75 83 76
31 10 8
0 0 0
27 3 2
30 56 32
74 72 72
76 73 72
82 19 19
100 54 36
6 0 0
25 48 28
17 9 5
42 11 11
99 74 74
52 52 52
68 18 18
36 10 10
3 3 1
74 59 37
0 0 0
42 4 4
72 72 72
68 19 19
100 26 26
111 36 30
0 0 0
74 16 16
3 12 4
61 62 61
4 4 1
0 0 0
23 13 7
29 36 20
49 13 13
0 0 0
31 8 8
5 3 1
58 16 16
0 0 0
16 0 0
99 74 74
81 21 21
58 16 16
84 73 73
74 16 16
58 44 28
84 53 35
42 11 11
58 16 16
0 0 0
82 63 63
30 57 32
5 1 0
61 61 61
96 35 27
59 17 16
47 3 3
68 19 18
41 39 38
32 56 32
2 2 0
74 72 72
73 76 73
82 19 19
88 92 80
68 18 18
74 59 37
71 45 30
0 0 0
25 48 28
57 77 45
72 72 72
5 20 6
29 2 2
27 0 0
61 16 16
103 75 75
0 0 0
49 13 13
68 19 18
70 19 19
26 12 7
17 0 0
49 13 13
86 73 67
72 72 72
72 62 62
23 0 0
0 0 0
18 35 20
68 19 19
71 45 30
17 9 5
37 2 2
24 12 7
3 3 1
0 0 0
32 0 0
101 28 28
9 5 3
99 74 74
30 14 8
29 56 32
23 12 7
57 18 13
25 48 28
58 16 16
0 0 0
14 3 1
1 0 0
56 15 15
84 23 23
76 72 72
5 6 2
72 72 72
0 0 0
0 0 0
34 2 2
7 7 2
70 35 25
74 60 37
0 0 0
40 48 28
62 62 61
2 0 0
101 75 75
74 50 48
29 2 2
69 19 18
57 58 35
75 73 72
53 13 11
20 20 8
92 74 74
122 118 108
76 59 36
130 112 107
78 21 21
0 0 0
5 0 0
75 36 19
31 0 0
72 72 72
27 6 3
9 4 2
0 0 0
40 3 3
115 76 76
79 72 72
23 12 7
67 43 31
0 0 0
0 0 0
55 22 16
42 48 28
0 0 0
0 0 0
111 31 30
49 13 13
21 1 1
49 13 13
0 0 0
7 7 2
0 0 0
0 0 0
81 63 62
23 12 7
47 48 28
58 16 16
31 8 8
21 2 1
82 19 19
0 0 0
0 0 0
63 4 4
2 4 0
71 19 19
84 23 23
0 0 0
0 0 0
0 0 0
0 0 0
0 0 0
0 0 0
0 0 0
0 0 0
0 0 0
0 0 0
0 0 0
0 0 0
0 0 0
0 0 0
0 0 0
0 0 0
0 0 0
0 0 0
0 0 0
0 0 0
0 0 0
0 0 0
0 0 0
0 0 0
0 0 0
0 0 0
0 0 0
0 0 0
0 0 0
26 49 28
25 48 28
19 33 12
23 12 7
3 21 4
39 66 38
2 15 3
4 1 0
21 41 23
25 31 12
0 0 0
7 7 2
103 102 102
73 72 72
21 41 23
0 0 0
0 0 0
17 9 5
38 18 8
21 41 23
25 51 28
13 9 1
26 48 28
7 24 8
3 3 1
5 20 6
77 72 72
76 72 72
78 92 79
68 19 18
78 94 80
20 11 6
32 63 36
35 57 33
0 0 0
25 48 28
16 2 1
0 0 0
79 89 80
20 10 6
72 72 72
25 48 28
0 0 0
27 55 29
43 9 6
7 27 9
8 27 9
54 57 33
96 76 74
0 0 0
75 81 75
58 71 59
74 80 75
9 18 10
31 21 9
36 10 10
12 21 7
15 1 1
41 57 32
75 83 76
22 43 24
9 4 2
43 11 11
30 61 33
0 0 0
58 16 16
29 56 32
61 16 16
12 6 3
76 87 77
85 64 63
0 0 0
80 72 72
38 47 25
6 23 7
59 61 59
0 0 0
51 69 53
72 72 72
45 58 33
29 57 32
72 72 72
15 30 17
90 97 82
102 102 102
25 48 28
86 99 87
0 0 0
25 48 28
2 4 0
29 56 32
25 48 28
99 78 75
41 82 46
0 0 0
47 3 3
74 74 74
78 92 79
61 61 61
3 0 0
51 46 45
30 58 33
0 0 0
30 62 34
1 2 0
55 14 13
106 117 107
81 92 79
6 4 0
72 74 72
29 56 32
91 97 81
61 61 61
0 0 0
1 0 0
73 72 72
21 41 23
47 60 34
58 16 16
0 0 0
74 82 75
52 52 52
88 98 89
74 60 37
18 35 20
6 23 7
82 104 84
20 18 7
25 48 28
0 0 0
6 23 7
22 6 6
0 0 0
18 35 20
6 23 7
76 105 79
30 57 32
91 94 79
0 0 0
29 59 33
78 92 79
66 52 52
72 74 72
62 16 16
70 77 46
78 92 79
96 83 83
0 0 0
76 60 38
29 37 21
75 79 73
59 16 16
61 61 61
22 40 13
72 19 19
0 1 0
0 0 0
64 66 37
12 0 0
17 9 5
68 83 70
81 72 72
7 27 9
72 72 72
0 0 0
0 0 0
56 44 28
75 72 72
28 12 7
0 0 0
105 108 104
62 16 16
78 92 79
58 66 37
6 3 2
72 72 72
13 2 1
51 58 34
14 7 4
29 56 32
6 23 7
70 41 40
0 0 0
11 0 0
101 82 77
65 83 49
79 84 76
49 13 13
50 39 24
72 72 72
60 79 62
40 3 3
23 12 7
16 2 1
52 52 52
1 9 1
41 80 46
56 14 14
68 21 19
82 72 72
72 72 72
70 78 46
29 56 32
58 52 31
88 72 72
39 38 38
41 65 34
102 102 102
103 96 82
84 92 79
98 40 31
73 72 72
78 87 77
81 100 82
35 14 10
102 102 102
0 0 0
62 61 61
113 103 103
61 61 61
37 21 14
0 0 0
77 73 72
13 25 14
42 11 11
68 18 18
3 0 0
95 95 95
30 63 34
0 0 0
2 18 3
99 99 99
72 72 72
72 72 72
84 23 23
0 0 0
0 2 0
20 0 0
61 17 17
68 18 18
0 0 0
7 27 9
16 2 1
72 72 72
58 71 59
72 38 31
76 76 73
72 72 72
0 0 0
58 16 16
114 142 117
75 83 76
49 56 32
52 57 33
29 2 2
76 19 19
37 10 10
17 0 0
55 50 31
36 49 28
53 53 52
102 102 102
110 102 102
105 103 102
29 57 33
58 21 16
0 0 0
110 59 59
72 72 72
52 52 52
0 0 0
86 73 72
52 52 52
0 0 0
22 6 6
66 18 18
72 72 72
39 20 12
0 0 0
42 11 11
10 1 0
75 80 75
1 1 0
21 41 23
0 0 0
68 18 18
20 14 6
52 29 20
0 0 0
103 102 102
84 82 82
78 92 79
119 60 60
8 13 7
89 24 24
26 7 7
72 72 72
1 3 0
73 72 72
45 89 51
29 56 32
0 0 0
9 27 9
64 14 14
89 89 89
74 19 19
52 52 52
7 27 9
123 104 104
45 80 46
26 22 21
96 89 89
19 17 17
107 76 74
93 31 24
148 134 134
40 13 11
32 62 36
9 1 0
38 38 38
68 19 18
30 57 32
41 56 32
72 72 72
20 12 6
65 18 16
3 3 1
96 26 26
39 11 6
80 56 55
25 48 28
86 84 77
61 19 17
1 0 0
49 13 13
58 67 58
0 0 0
68 37 21
119 119 119
78 87 77
92 28 26
31 41 24
0 0 0
72 72 72
108 74 74
95 90 89
0 0 0
0 0 0
30 56 32
86 59 56
23 12 7
6 23 7
78 83 76
9 4 2
92 93 80
72 72 72
5 0 0
111 76 76
36 36 21
79 92 79
0 0 0
0 0 0
68 33 21
25 1 1
0 0 0
85 91 86
18 35 20
103 94 81
62 20 17
1 9 1
20 10 6
89 28 25
73 72 72
1 8 1
112 91 91
0 0 0
70 36 25
0 0 0
68 18 18
9 20 6
1 1 0
68 20 18
9 4 2
16 0 0
103 102 102
75 83 76
92 63 62
58 16 16
34 0 0
28 15 8
8 8 2
72 72 72
2 0 0
1 0 0
72 72 72
58 16 16
72 79 73
62 65 62
92 64 64
102 102 102
0 0 0
58 16 16
40 6 3
113 103 103
7 27 9
72 72 72
83 73 73
0 0 0
75 83 76
16 19 5
0 0 0
47 13 13
25 1 1
76 21 21
0 0 0
85 44 43
112 74 74
0 0 0
0 0 0
67 59 36
72 76 72
102 102 102
71 32 24
42 9 4
0 0 0
68 18 18
20 10 6
45 10 10
0 0 0
58 16 16
42 11 11
51 41 24
105 113 106
83 81 75
68 18 18
72 52 33
52 52 52
102 102 102
72 72 72
99 110 100
42 11 11
78 72 72
4 4 4
43 12 12
101 75 75
11 1 1
0 0 0
0 0 0
99 74 74
102 102 102
43 36 34
76 21 21
78 92 79
61 61 61
72 72 72
68 19 19
25 48 28
61 61 61
34 0 0
89 89 89
0 0 0
20 5 0
101 74 74
29 56 32
95 89 89
41 20 20
67 54 54
16 2 1
71 21 19
0 0 0
34 57 33
73 72 72
1 13 2
26 7 7
0 0 0
43 11 11
68 18 18
9 0 0
35 35 20
89 24 24
72 72 72
0 0 0
0 0 0
72 72 72
51 14 14
42 11 11
116 67 67
49 13 13
72 72 72
45 45 45
55 52 52
15 30 17
70 53 52
12 6 3
113 96 96
113 96 96
0 0 0
40 3 3
107 74 74
138 105 105
68 18 18
92 25 25
72 72 72
16 2 1
92 74 74
49 13 13
72 72 72
18 35 20
21 10 6
68 22 19
0 0 0
30 2 2
72 72 72
44 2 2
68 18 18
14 7 4
100 75 74
28 45 29
35 57 33
36 58 33
0 0 0
0 0 0
0 0 0
2 0 0
0 0 0
94 74 74
0 0 0
102 75 75
13 25 14
0 0 0
25 49 28
52 52 52
93 74 74
10 0 0
76 21 21
68 18 18
0 0 0
0 0 0
43 56 32
91 90 89
72 72 72
68 18 18
87 73 73
55 18 15
48 13 8
58 16 16
54 10 10
58 16 16
17 9 5
86 72 72
99 74 74
77 21 20
87 73 72
0 0 0
63 50 30
0 0 0
11 0 0
33 17 10
32 0 0
49 23 14
53 14 14
72 72 72
44 13 7
36 12 7
35 2 1
79 22 22
4 0 0
0 0 0
47 3 3
1 0 0
70 16 16
0 0 0
84 23 23
0 0 0
0 0 0
0 0 0
0 0 0
0 0 0
0 0 0
0 0 0
0 0 0
0 0 0
0 0 0
0 0 0
0 0 0
0 0 0
0 0 0
0 0 0
0 0 0
0 0 0
0 0 0
0 0 0
0 0 0
0 0 0
0 0 0
0 0 0
0 0 0
0 0 0
0 0 0
0 0 0
0 0 0
20 10 6
15 30 17
5 6 2
45 75 40
39 69 35
37 59 30
29 56 32
35 44 25
34 50 28
40 65 37
12 4 1
102 102 102
6 26 8
25 49 28
25 48 28
16 6 4
0 0 0
7 1 0
35 43 20
72 72 72
76 72 72
12 6 3
29 56 32
0 1 0
43 12 11
0 0 0
104 110 105
20 10 6
72 73 72
0 0 0
106 94 81
74 72 72
5 3 1
42 79 45
57 46 46
15 30 17
29 57 32
8 18 4
21 10 6
25 48 28
76 87 77
0 1 0
76 73 72
7 24 8
29 59 33
0 0 0
0 0 0
52 52 52
25 48 28
72 77 72
31 35 20
57 80 52
0 0 0
72 74 72
0 0 0
78 87 77
0 0 0
9 18 10
74 78 74
10 5 1
54 62 53
31 56 32
72 72 72
68 18 18
5 3 1
32 60 34
1 1 0
68 18 18
106 117 107
1 0 0
25 52 28
10 40 13
4 4 1
0 0 0
2 7 2
0 0 0
0 0 0
0 0 0
0 0 0
30 56 32
0 0 0
0 0 0
6 24 7
31 16 9
91 96 91
3 3 1
35 68 39
60 77 62
39 70 40
0 0 0
0 0 0
0 0 0
72 72 72
73 72 72
53 10 10
0 0 0
16 2 1
77 22 21
72 72 72
0 0 0
27 50 26
72 79 73
5 20 6
0 0 0
0 0 0
119 119 119
74 49 32
72 72 72
0 0 0
105 109 104
7 27 9
72 73 72
12 2 1
72 72 72
57 58 35
0 0 0
50 6 6
15 30 17
58 16 16
14 7 4
25 48 28
82 104 84
106 117 107
0 0 0
34 50 28
17 9 5
46 61 35
12 6 3
21 41 23
20 10 6
68 18 18
70 85 70
40 3 3
49 13 13
2 15 3
2 9 3
31 57 32
4 1 0
36 10 10
0 4 0
72 72 72
12 0 0
47 45 45
101 95 95
0 0 0
47 64 37
49 13 13
0 0 0
7 7 2
25 50 28
29 56 32
1 13 2
78 92 79
0 0 0
4 1 0
37 57 33
30 12 8
46 13 7
32 56 32
72 74 72
52 13 11
72 72 72
119 119 119
72 72 72
47 4 3
78 72 72
0 0 0
102 42 42
84 23 23
6 23 7
82 74 72
65 91 68
0 3 1
60 19 17
34 66 38
0 0 0
95 95 95
75 72 72
36 10 10
0 0 0
49 13 13
4 8 4
60 16 16
91 25 24
0 0 0
3 3 1
29 2 2
78 97 80
15 7 4
58 16 16
72 72 72
61 52 27
90 73 73
7 1 0
17 9 5
32 2 1
0 3 0
49 49 30
83 73 73
30 61 33
50 81 54
0 0 0
63 72 60
32 56 32
13 25 14
71 86 73
7 0 0
5 0 0
113 103 103
61 61 61
31 67 35
6 23 7
31 56 32
0 0 0
0 0 0
64 61 61
79 81 79
61 14 14
0 0 0
38 14 10
0 0 0
114 33 31
0 0 0
1 0 0
98 86 72
113 103 85
61 61 61
72 72 72
78 75 72
2 0 0
1 2 0
110 103 88
40 21 7
28 34 28
7 6 2
0 0 0
8 1 0
0 0 0
79 37 22
1 0 0
99 74 74
72 72 72
40 11 11
67 79 68
59 16 16
13 25 14
70 24 19
52 52 52
18 1 1
6 23 7
68 18 18
72 72 72
17 27 9
49 13 13
73 76 73
0 0 0
99 75 75
88 84 77
0 0 0
104 102 102
56 43 27
103 28 28
23 12 7
7 24 8
42 57 33
0 7 0
0 0 0
4 17 5
10 5 3
49 13 13
32 32 32
42 11 11
55 18 15
0 0 0
6 23 7
7 27 9
45 45 45
0 0 0
89 24 24
26 7 7
8 27 9
80 87 77
72 74 72
0 0 0
16 2 1
102 102 102
23 12 7
0 0 0
0 0 0
99 110 100
0 0 0
96 26 26
20 0 0
23 12 7
72 72 72
67 16 16
22 6 6
0 0 0
102 102 102
49 13 13
30 56 32
89 89 89
87 63 58
0 0 0
0 0 0
21 41 23
25 48 28
0 0 0
0 0 0
29 2 2
0 0 0
1 0 0
74 80 75
79 95 80
63 62 62
21 10 6
120 122 120
17 0 0
29 56 32
0 0 0
0 0 0
79 80 79
30 2 2
95 95 95
59 31 19
91 93 90
0 0 0
0 0 0
71 23 22
58 16 16
25 48 28
23 12 7
68 19 18
40 3 3
36 10 10
13 25 14
52 52 52
22 6 6
58 16 16
29 43 24
8 32 10
115 94 82
18 35 20
29 56 32
75 83 76
42 14 11
5 20 6
72 72 72
87 73 73
116 107 97
22 49 25
75 73 72
76 75 72
126 118 109
99 74 74
0 0 0
52 3 3
62 16 16
72 72 72
29 56 32
59 54 54
29 56 32
0 0 0
59 58 35
115 29 29
56 13 13
108 84 84
1 12 1
72 72 72
92 74 74
64 62 61
20 10 6
69 37 21
0 0 0
72 72 72
3 0 0
97 74 74
0 0 0
68 18 18
17 9 5
19 5 5
18 35 20
86 74 73
68 18 18
52 52 52
75 83 76
58 16 16
60 16 16
9 0 0
0 0 0
24 12 7
47 3 3
74 59 37
3 15 3
61 61 61
68 62 61
80 93 81
123 104 104
71 22 20
0 0 0
76 19 19
70 68 68
20 10 6
82 72 72
29 56 32
38 40 38
2 15 3
53 52 52
0 0 0
74 72 72
0 0 0
10 5 3
76 87 77
0 0 0
24 12 7
0 0 0
114 69 69
68 18 18
73 61 35
0 0 0
0 0 0
49 13 13
78 41 29
68 18 18
81 73 73
52 52 52
34 2 2
45 14 12
96 26 26
28 9 8
72 72 72
107 75 75
25 1 1
0 0 0
4 4 1
111 76 76
102 75 75
47 3 3
25 9 2
84 23 23
0 0 0
58 16 16
52 43 24
20 10 6
23 41 24
8 16 9
92 74 74
0 0 0
59 16 16
1 0 0
4 17 5
69 19 18
105 113 106
1 0 0
86 54 54
21 41 23
36 64 37
4 1 0
74 59 37
84 23 23
41 80 46
0 0 0
9 0 0
72 72 72
29 5 3
107 109 88
15 1 1
89 24 24
26 41 23
73 18 18
34 2 2
84 73 73
136 119 110
72 72 72
4 2 1
60 16 16
68 18 18
81 50 49
104 104 104
61 17 15
20 10 6
63 21 17
0 0 0
20 10 6
49 14 13
2 0 0
40 36 22
0 0 0
89 24 24
86 56 56
78 77 62
31 15 9
2 0 0
7 7 2
124 77 77
93 54 37
71 19 19
74 16 16
58 16 16
36 10 10
84 21 21
68 18 18
73 72 72
68 59 37
95 95 95
25 1 1
25 48 28
0 0 0
86 73 72
89 50 50
0 0 0
49 13 13
29 56 32
99 74 74
52 52 52
103 106 103
0 0 0
4 0 0
89 89 89
80 22 22
58 21 16
92 74 74
42 80 46
53 13 13
77 72 72
83 49 49
54 52 52
20 10 6
68 18 18
82 23 19
36 10 10
103 102 102
21 5 3
77 73 72
0 0 0
28 51 28
34 2 2
38 9 5
55 13 13
0 0 0
29 56 32
84 92 79
75 87 76
71 27 20
0 0 0
85 30 30
69 20 19
16 2 1
46 57 34
0 0 0
39 10 10
0 0 0
0 0 0
47 48 28
56 9 9
1 13 2
92 26 25
29 57 32
34 49 28
34 2 2
6 0 0
40 3 3
3 0 0
61 15 9
27 14 8
0 0 0
47 15 8
12 6 3
23 12 7
27 10 7
82 24 23
55 6 4
0 0 0
0 0 0
0 0 0
0 0 0
0 0 0
0 0 0
0 0 0
0 0 0
0 0 0
0 0 0
0 0 0
0 0 0
0 0 0
0 0 0
0 0 0
0 0 0
0 0 0
0 0 0
0 0 0
0 0 0
0 0 0
0 0 0
0 0 0
0 0 0
0 0 0
0 0 0
0 0 0
9 4 2
29 56 32
27 14 8
20 10 6
29 56 32
0 0 0
6 21 4
0 0 0
7 7 2
2 18 3
14 7 4
0 0 0
36 44 25
29 56 32
72 77 72
72 73 72
7 27 9
78 92 79
21 16 15
74 78 74
30 48 28
76 83 76
49 13 13
95 95 95
82 88 82
47 25 14
95 95 95
72 72 72
48 95 54
75 83 76
80 92 79
23 12 7
72 76 72
13 25 14
44 56 29
18 35 20
14 7 4
18 35 20
46 57 33
19 35 20
31 58 32
0 0 0
64 62 62
0 0 0
28 37 21
22 51 25
75 83 76
72 72 72
22 41 23
24 12 7
0 0 0
26 58 30
68 18 18
72 72 72
29 57 32
58 16 16
15 38 17
36 10 10
33 38 22
85 84 82
0 0 0
0 0 0
30 57 33
8 16 9
78 73 72
29 59 33
0 0 0
13 27 9
20 15 6
0 0 0
2 1 0
73 72 72
29 56 32
1 0 0
0 0 0
72 72 72
0 0 0
30 2 2
44 27 17
125 112 106
0 0 0
20 34 12
78 56 55
56 53 53
6 23 7
2 15 3
68 19 18
0 0 0
72 72 72
8 0 0
102 102 102
31 57 32
0 0 0
10 1 0
111 96 96
65 59 36
7 27 9
18 35 20
0 0 0
20 10 6
21 31 22
29 17 7
29 56 32
38 74 43
30 65 34
29 48 28
72 72 72
25 48 28
103 106 93
29 56 32
87 84 77
74 77 72
88 74 73
8 32 10
58 16 16
68 18 18
12 6 3
78 92 79
76 73 72
0 0 0
17 9 5
68 18 18
53 53 52
66 52 52
38 74 43
68 18 18
68 78 67
91 88 78
36 10 10
72 72 72
66 71 65
65 59 36
72 72 72
2 2 0
1 0 0
72 75 72
92 61 40
75 83 76
29 56 32
0 0 0
0 0 0
38 42 39
60 34 23
0 9 1
14 28 12
127 78 78
20 10 6
0 0 0
74 59 37
51 15 14
69 20 19
69 19 18
79 87 77
72 72 72
76 60 35
24 26 10
87 73 73
0 0 0
62 69 62
102 89 79
0 0 0
84 72 72
38 58 33
57 58 35
81 73 73
68 18 18
37 56 39
0 0 0
89 73 42
0 0 0
14 7 4
25 48 28
72 72 72
0 0 0
18 1 1
0 0 0
22 35 20
0 0 0
76 87 77
23 13 7
17 9 5
29 56 32
14 9 4
68 19 19
54 11 10
72 72 72
76 83 76
6 14 4
29 48 28
0 0 0
75 83 76
134 134 134
109 126 111
24 1 0
16 2 1
0 0 0
74 16 16
59 17 16
60 77 62
12 37 12
11 11 3
10 5 3
45 15 12
3 12 4
72 72 72
5 5 1
92 93 80
78 42 42
72 72 72
0 0 0
86 72 72
118 107 105
78 92 79
72 74 72
66 71 39
25 48 28
90 27 25
79 79 68
76 72 72
79 63 63
47 84 47
29 56 32
36 15 10
65 74 66
39 38 38
0 0 0
1 13 2
49 6 4
1 2 0
30 59 33
68 18 18
53 62 53
68 19 18
53 17 15
0 0 0
0 0 0
1 0 0
52 52 52
74 72 72
102 102 102
76 59 37
104 95 95
0 0 0
21 41 23
77 72 72
0 0 0
17 9 5
7 1 0
96 26 26
72 75 72
64 61 61
72 72 72
21 11 6
102 102 102
72 72 72
106 84 84
23 12 7
74 80 75
102 27 26
0 0 0
1 11 2
0 0 0
72 76 72
39 49 29
84 54 35
102 103 102
99 74 74
72 72 72
51 66 53
13 2 1
52 16 14
29 2 2
6 23 7
78 72 72
36 10 10
127 104 104
72 72 72
0 0 0
6 20 6
0 0 0
75 73 72
4 17 5
2 18 3
52 55 52
10 18 3
72 72 72
27 41 24
114 47 37
66 58 47
17 0 0
74 72 72
72 79 73
83 87 77
75 73 72
0 0 0
29 56 32
9 18 10
21 41 23
0 0 0
102 102 102
0 0 0
69 33 21
29 56 32
69 67 58
0 0 0
10 5 3
49 13 13
75 72 72
113 103 103
107 29 29
0 0 0
99 74 74
26 32 11
27 9 2
3 0 0
25 1 1
58 16 16
72 72 72
8 1 0
29 56 32
18 35 20
86 84 76
50 15 13
3 0 0
117 117 108
122 103 103
62 65 63
0 0 0
38 38 38
59 16 16
82 73 73
0 0 0
89 87 77
76 63 63
0 0 0
72 72 72
69 18 18
1 3 0
34 2 2
71 19 19
73 18 18
125 104 104
66 21 18
0 0 0
34 2 2
30 57 32
111 76 76
94 73 73
69 41 41
27 0 0
62 62 61
102 102 102
68 18 18
0 0 0
97 109 87
104 102 102
19 9 5
91 92 79
72 73 72
34 62 36
52 52 52
81 92 79
4 3 0
83 22 22
65 59 36
68 19 18
0 0 0
18 35 20
15 1 1
58 16 16
0 0 0
76 75 72
0 0 0
108 75 75
75 73 72
76 19 19
72 53 33
7 0 0
72 72 72
0 1 0
42 11 11
23 36 20
0 0 0
0 0 0
60 11 10
83 73 73
6 6 2
68 84 70
6 0 0
58 16 16
0 0 0
0 0 0
20 0 0
37 2 2
70 23 19
41 49 28
6 0 0
19 0 0
0 0 0
3 0 0
103 94 81
102 102 102
36 10 10
21 41 23
0 0 0
76 19 19
88 24 24
21 41 23
0 0 0
102 102 102
55 17 15
6 23 7
7 0 0
54 14 13
0 0 0
51 43 25
74 78 74
0 0 0
75 51 32
15 7 4
100 62 41
80 72 72
111 118 107
2 1 0
76 80 63
69 54 54
13 0 0
107 57 57
68 18 18
45 45 45
49 13 13
29 48 28
69 18 18
1 0 0
76 73 72
3 0 0
62 16 16
24 14 7
3 0 0
6 20 6
6 0 0
68 18 18
14 7 4
35 56 32
0 0 0
65 59 36
79 60 55
72 72 72
36 10 10
0 0 0
0 0 0
52 14 13
2 0 0
68 21 19
3 0 0
72 72 72
77 77 77
29 56 32
23 0 0
52 52 52
47 3 3
45 45 45
11 0 0
49 13 13
40 3 3
0 0 0
89 24 24
96 74 74
49 13 13
64 16 16
26 48 28
36 8 8
50 13 13
36 70 40
74 24 21
0 0 0
118 98 97
0 0 0
58 16 16
92 64 64
68 18 18
0 0 0
13 0 0
22 42 24
6 0 0
66 81 48
58 58 35
80 72 72
85 93 81
87 23 23
74 78 74
80 72 72
80 73 72
70 20 19
49 17 13
108 30 30
89 89 89
58 16 16
68 18 18
83 49 49
75 20 20
0 0 0
22 0 0
60 18 16
0 0 0
47 3 3
0 0 0
5 6 2
29 56 32
85 53 35
51 41 24
72 72 72
31 8 8
0 0 0
123 34 34
72 72 72
0 2 0
28 43 24
20 7 5
52 52 52
29 56 32
0 0 0
0 0 0
15 30 17
22 6 6
99 74 74
25 41 23
101 74 74
74 72 72
82 104 84
0 0 0
101 59 58
54 52 52
58 16 16
54 43 27
0 0 0
111 57 41
17 9 5
57 64 56
29 56 32
5 6 2
22 1 1
42 8 5
74 72 72
96 73 73
0 0 0
79 63 63
29 37 21
53 33 33
86 72 72
68 18 18
32 49 28
74 72 72
91 74 73
1 0 0
52 52 52
55 13 13
19 2 1
50 14 14
15 6 3
33 1 1
59 17 14
39 15 8
14 0 0
23 12 7
68 18 18
5 4 1
61 4 4
69 13 8
39 2 2
29 14 8
55 4 4
47 3 3
0 0 0
0 0 0
0 0 0
0 0 0
0 0 0
0 0 0
0 0 0
0 0 0
0 0 0
0 0 0
0 0 0
0 0 0
0 0 0
0 0 0
0 0 0
0 0 0
0 0 0
0 0 0
0 0 0
0 0 0
0 0 0
0 0 0
0 0 0
0 0 0
0 0 0
0 0 0
0 0 0
0 0 0
5 1 0
0 0 0
13 41 15
0 0 0
0 0 0
42 52 30
28 35 13
31 48 28
10 38 12
27 14 8
0 5 0
6 15 3
22 35 20
115 75 75
1 0 0
58 17 16
10 2 0
24 41 23
2 0 0
75 83 76
38 38 38
70 21 19
0 0 0
46 68 39
29 2 2
29 57 32
68 83 70
38 27 18
73 54 35
78 72 72
7 7 2
52 11 7
19 33 12
47 57 33
95 84 70
125 125 125
25 48 28
0 0 0
53 79 45
1 0 0
25 48 28
39 75 43
6 17 5
8 34 11
25 48 28
19 33 12
60 52 32
79 55 55
30 57 32
0 0 0
78 93 79
76 87 77
123 103 103
34 56 32
54 43 27
33 32 32
25 48 28
13 25 14
70 76 46
0 0 0
75 80 75
20 0 0
55 63 56
49 13 13
45 45 45
0 3 0
17 0 0
0 0 0
1 0 0
8 32 10
50 38 18
16 4 4
83 72 72
2 2 0
22 49 25
5 5 1
4 4 1
29 56 32
86 72 72
8 28 10
72 72 72
89 89 89
9 0 0
72 72 72
72 72 72
0 0 0
67 5 5
29 56 32
29 56 32
21 45 22
72 72 72
12 6 3
13 2 1
37 8 5
38 74 43
54 59 35
38 56 32
0 0 0
20 10 6
58 12 12
10 33 11
0 1 0
62 57 33
59 17 16
61 61 61
51 47 45
0 0 0
1 3 0
72 72 72
72 72 72
0 0 0
60 59 36
72 72 72
74 78 74
25 48 28
5 5 1
18 30 17
80 93 78
18 35 20
99 110 100
72 72 72
1 1 0
0 0 0
23 12 7
108 94 82
58 16 16
43 82 44
25 48 28
6 23 7
4 3 1
51 16 13
26 58 30
0 0 0
0 0 0
25 48 28
33 63 36
4 2 0
78 92 79
29 56 32
74 59 37
120 77 77
0 0 0
0 0 0
32 59 33
4 17 5
58 28 18
0 0 0
0 0 0
0 0 0
26 51 29
53 52 52
72 72 72
29 42 24
20 10 6
0 0 0
0 0 0
18 29 10
67 96 70
0 4 0
0 0 0
29 57 32
5 20 6
82 80 79
95 95 95
71 94 73
102 102 102
102 102 102
9 0 0
2 0 0
59 36 19
1 11 2
0 0 0
0 9 1
45 32 21
0 6 1
97 95 95
0 0 0
29 56 32
39 74 43
0 0 0
41 35 20
0 0 0
72 72 72
36 7 7
72 72 72
1 3 0
68 18 18
87 87 78
21 1 1
83 73 73
0 0 0
75 83 76
0 0 0
125 138 126
72 72 72
101 74 74
34 2 2
102 102 102
89 89 89
58 16 16
74 80 75
72 72 72
8 11 2
1 7 0
29 56 32
43 26 14
45 11 11
77 73 72
78 92 79
75 83 76
62 17 17
80 78 74
40 65 37
115 76 76
25 48 28
0 0 0
53 38 24
21 41 23
32 32 32
5 14 4
19 45 22
72 72 72
0 0 0
63 68 64
38 2 2
1 3 0
97 79 65
74 72 72
0 0 0
29 56 32
7 0 0
72 52 33
52 16 14
31 57 32
13 25 14
74 72 72
25 48 28
0 0 0
6 0 0
0 0 0
1 3 0
68 18 18
45 45 45
4 4 1
72 72 72
61 61 61
98 63 42
78 92 79
68 18 18
4 18 3
4 0 0
0 0 0
62 59 36
72 72 72
82 65 40
10 1 0
0 0 0
0 0 0
0 0 0
1 0 0
0 0 0
46 47 32
0 0 0
0 0 0
94 74 74
47 3 3
45 45 45
2 15 3
0 0 0
0 0 0
68 18 18
125 125 125
28 35 13
17 9 5
98 95 95
94 90 90
92 74 74
75 63 62
105 113 106
58 58 33
52 28 16
85 85 85
79 61 56
72 72 72
68 27 20
1 3 0
40 56 32
70 83 70
2 0 0
14 0 0
99 74 74
40 41 24
2 0 0
65 22 18
39 6 6
0 0 0
72 72 72
83 92 79
0 0 0
1 0 0
2 10 3
0 0 0
68 18 18
2 2 0
59 43 27
74 72 72
38 38 38
73 35 23
0 0 0
0 0 0
72 78 73
0 0 0
97 122 92
78 92 79
61 61 61
3 0 0
70 18 18
61 61 61
102 75 75
2 10 3
31 9 8
72 19 19
36 32 32
20 0 0
58 16 16
0 0 0
4 4 1
102 102 102
31 56 32
79 74 73
61 61 61
42 11 11
31 45 26
75 73 72
34 57 33
6 23 7
74 66 39
78 94 79
29 53 29
0 0 0
42 11 11
0 0 0
0 0 0
77 22 21
75 16 16
75 80 73
19 30 17
61 61 61
86 88 77
1 0 0
105 82 76
72 72 72
48 4 3
81 73 72
72 72 72
58 22 16
73 77 72
0 0 0
76 73 72
0 0 0
10 5 3
71 74 66
87 63 63
73 72 72
17 9 5
72 76 72
0 0 0
52 33 22
58 21 16
72 72 72
5 6 2
62 62 61
20 1 0
72 74 72
76 19 19
132 79 78
99 76 75
73 74 73
42 8 8
17 9 5
10 33 11
76 76 76
102 102 102
0 0 0
68 18 18
125 114 107
40 3 3
24 12 7
12 0 0
76 87 77
59 16 16
0 0 0
102 81 77
92 74 74
89 28 25
0 0 0
58 16 16
72 72 72
6 23 7
68 19 18
38 49 28
49 13 13
53 4 4
80 22 22
72 77 72
68 18 18
96 26 26
56 45 45
108 75 75
77 72 72
96 19 19
23 12 7
68 30 20
0 0 0
74 72 72
86 26 20
72 72 72
78 72 72
81 72 72
22 6 6
76 72 72
3 3 1
40 3 3
99 74 74
27 41 24
0 0 0
85 24 23
73 46 31
0 0 0
80 38 28
39 58 33
98 74 74
72 72 72
73 61 61
10 1 0
50 15 13
56 53 53
47 6 4
105 75 75
110 59 59
102 102 102
78 95 79
101 74 74
72 72 72
37 12 7
8 0 0
83 73 73
72 77 72
1 5 0
0 0 0
0 0 0
24 24 24
16 2 1
81 73 72
102 102 102
0 0 0
21 42 23
38 38 38
72 72 72
0 0 0
72 72 72
20 10 6
80 92 79
78 72 72
68 18 18
53 48 28
49 13 13
0 0 0
84 22 22
0 0 0
7 0 0
40 45 39
49 13 13
71 20 18
25 48 28
14 7 4
68 18 18
1 3 0
49 13 13
80 22 22
80 22 22
0 0 0
0 0 0
0 0 0
12 6 3
38 38 38
72 72 72
0 0 0
55 58 33
68 22 19
24 41 24
109 75 75
68 18 18
75 78 74
18 30 17
87 73 73
55 15 9
0 1 0
58 16 16
67 36 36
68 18 18
104 102 102
0 0 0
23 12 7
18 35 20
71 19 19
20 10 6
20 7 4
49 12 10
75 73 72
48 4 3
10 14 4
72 72 72
84 23 23
72 72 72
77 21 21
109 75 75
0 0 0
71 27 27
79 63 63
5 5 1
0 0 0
0 0 0
73 72 72
18 1 1
0 0 0
15 1 0
0 0 0
72 72 72
109 27 27
0 0 0
58 17 16
18 35 20
4 0 0
99 28 27
59 58 33
2 0 0
25 48 28
0 0 0
11 2 0
25 1 1
68 14 14
22 6 6
50 17 14
92 90 89
25 1 1
3 0 0
95 95 95
111 76 76
42 11 11
76 73 72
110 59 59
60 16 16
78 92 79
11 1 1
91 73 73
40 3 3
89 61 40
51 13 13
38 15 9
7 4 2
91 24 21
59 16 16
23 12 7
112 30 30
55 4 4
89 25 24
16 0 0
69 19 18
2 0 0
23 12 7
0 0 0
0 0 0
0 0 0
0 0 0
0 0 0
0 0 0
0 0 0
0 0 0
0 0 0
0 0 0
0 0 0
0 0 0
0 0 0
0 0 0
0 0 0
0 0 0
0 0 0
0 0 0
0 0 0
0 0 0
0 0 0
0 0 0
0 0 0
0 0 0
0 0 0
0 0 0
0 0 0
0 0 0
21 41 23
4 2 1
17 9 5
22 36 12
37 58 33
0 7 0
17 30 17
8 32 10
30 35 17
7 9 1
15 30 17
28 16 8
2 4 0
15 30 17
0 0 0
109 119 110
0 0 0
7 4 2
84 72 72
68 19 18
8 32 10
58 16 16
34 9 5
54 57 53
17 33 11
1 0 0
23 12 7
2 0 0
21 41 23
76 87 77
6 3 2
24 24 24
31 15 8
17 0 0
0 0 0
10 19 10
23 12 7
37 70 40
72 72 72
58 16 16
0 0 0
0 0 0
102 102 102
0 0 0
0 2 0
25 48 28
77 87 77
72 72 72
0 0 0
15 15 6
0 0 0
0 0 0
107 117 107
84 78 74
103 95 95
8 24 8
6 30 8
72 22 20
29 57 32
3 0 0
17 0 0
105 83 78
0 6 1
0 0 0
0 0 0
15 30 17
48 46 45
31 12 7
78 92 79
38 38 38
25 48 28
59 33 18
0 0 0
30 57 32
0 0 0
23 12 7
79 87 77
5 0 0
23 0 0
10 11 3
72 72 72
29 2 2
42 23 13
80 73 73
29 56 32
15 2 1
71 21 19
0 0 0
32 14 4
17 9 5
29 56 32
0 0 0
3 3 1
72 72 72
0 0 0
1 8 1
89 116 89
29 37 21
20 10 6
78 92 79
0 0 0
25 52 28
104 102 102
90 72 72
47 3 3
61 61 61
0 0 0
80 52 33
29 56 32
71 42 28
57 44 27
16 4 4
41 80 46
30 63 34
24 14 7
20 10 6
29 41 23
29 56 32
49 13 13
25 48 28
0 0 0
0 0 0
90 92 80
73 37 26
40 3 3
18 35 20
0 0 0
78 92 79
23 12 7
10 0 0
3 0 0
26 20 7
75 59 37
45 40 39
78 93 79
70 71 43
79 73 72
23 12 7
111 109 109
30 66 34
13 2 1
73 63 62
0 0 0
100 74 74
101 110 86
7 7 2
41 80 46
0 0 0
52 33 22
33 49 34
38 38 38
6 13 2
78 96 80
49 13 13
14 7 4
117 117 108
68 83 70
23 31 11
107 96 96
55 51 31
11 1 1
14 23 7
0 0 0
50 27 15
5 20 6
80 90 81
69 70 52
100 74 74
1 3 0
80 55 55
12 0 0
8 1 0
76 83 76
29 56 32
8 7 1
58 17 16
59 50 31
51 58 34
18 35 20
24 12 7
81 80 73
0 0 0
72 72 72
70 62 62
72 72 72
29 56 32
18 35 20
85 62 37
84 21 21
0 0 0
25 50 28
1 11 2
25 1 1
18 26 15
38 60 34
32 33 19
76 72 72
1 0 0
90 89 78
73 79 73
58 16 16
0 0 0
0 0 0
0 0 0
78 72 72
11 22 12
53 52 52
50 27 15
28 2 1
115 120 116
68 19 19
72 72 72
65 74 66
21 42 23
43 26 14
65 59 36
81 63 63
42 85 47
72 72 72
79 100 81
31 57 32
0 0 0
0 0 0
11 1 1
84 92 79
118 91 91
73 72 72
102 102 102
25 1 1
102 102 102
83 81 75
25 1 1
23 12 7
5 1 0
78 92 79
78 77 47
62 98 57
53 67 38
31 50 28
3 3 1
0 0 0
76 87 77
29 12 4
0 0 0
72 76 72
75 47 31
8 32 10
51 13 13
94 107 95
68 20 18
106 105 102
0 0 0
68 18 18
57 53 53
102 102 102
96 26 26
1 0 0
72 72 72
50 3 3
3 3 1
4 4 1
0 0 0
72 72 72
23 12 7
20 0 0
50 3 3
93 74 74
7 3 0
72 72 72
62 16 16
0 0 0
80 63 57
108 31 30
72 54 54
64 78 53
29 56 32
18 35 20
24 6 4
29 56 32
59 17 16
92 74 74
19 0 0
0 0 0
72 72 72
62 20 17
1 9 1
99 74 74
10 5 3
90 105 85
72 72 72
100 75 74
88 73 73
25 32 18
16 15 9
80 98 82
33 15 8
7 0 0
58 16 16
1 0 0
38 75 43
1 0 0
0 9 1
29 56 32
40 3 3
8 32 10
0 0 0
73 103 60
138 126 126
8 32 10
14 7 4
79 95 80
2 0 0
0 0 0
124 77 77
8 1 0
72 72 72
31 8 8
68 18 18
68 18 18
29 56 32
0 0 0
72 72 72
72 74 72
99 74 74
49 13 13
75 73 72
72 52 33
72 72 72
47 3 3
4 0 0
72 72 72
114 117 107
96 105 95
47 3 3
58 16 16
72 72 72
0 0 0
102 103 102
91 25 25
63 62 62
29 56 32
30 56 32
36 10 10
1 3 0
49 13 13
40 3 3
25 44 25
31 9 8
0 0 0
72 72 72
102 102 102
79 72 72
29 56 32
21 1 1
83 75 72
95 95 95
20 0 0
99 106 99
69 29 22
2 0 0
0 0 0
101 85 78
42 11 11
102 89 79
78 92 79
96 26 26
108 81 67
68 18 18
83 73 73
49 13 13
0 0 0
61 61 61
88 57 56
72 79 73
107 29 29
68 18 18
58 57 34
53 53 52
0 0 0
48 3 3
36 70 40
84 23 23
99 45 34
68 18 18
85 25 23
49 13 13
58 16 16
146 127 127
6 3 2
0 0 0
35 57 33
10 1 0
24 15 5
40 13 11
50 35 17
7 27 9
81 27 22
72 72 72
0 0 0
72 52 33
0 0 0
99 74 74
1 2 0
58 16 16
40 23 8
0 1 0
69 18 18
14 1 1
25 42 24
71 19 19
18 35 20
9 0 0
76 73 72
20 3 0
76 19 19
27 0 0
52 4 4
81 21 20
47 3 3
0 0 0
74 81 74
41 57 33
0 0 0
72 72 72
86 72 72
40 5 3
74 72 72
99 27 27
76 73 72
32 32 32
68 18 18
11 0 0
72 72 72
68 18 18
14 3 3
0 0 0
23 12 7
22 6 6
73 76 73
87 87 87
6 0 0
45 45 45
31 16 9
16 6 2
82 87 82
53 11 11
73 72 72
78 59 37
79 23 22
20 11 6
57 54 53
42 58 33
4 0 0
111 62 42
105 75 75
72 72 72
98 86 72
73 79 73
86 72 72
73 72 72
45 15 12
64 39 26
36 10 10
109 102 102
68 18 18
96 74 74
74 72 72
74 59 37
52 52 52
20 3 1
16 4 4
23 12 7
0 0 0
21 41 23
0 0 0
94 76 76
0 3 0
27 0 0
83 73 73
49 13 13
0 0 0
5 5 1
4 4 1
0 1 0
80 53 34
134 104 104
3 12 4
110 94 87
61 61 61
46 4 4
72 19 19
72 72 72
61 61 61
0 0 0
70 53 53
20 0 0
21 1 1
68 19 19
98 88 88
20 10 6
6 5 1
22 29 9
72 72 72
61 61 61
0 0 0
20 10 6
4 17 5
61 61 61
8 32 10
72 72 72
31 7 7
81 73 72
72 76 72
15 30 17
12 7 2
68 19 18
0 0 0
12 6 3
25 23 8
0 0 0
74 19 19
2 0 0
8 1 0
66 18 18
50 50 50
52 20 15
0 0 0
21 41 23
104 58 58
37 8 5
99 74 74
77 18 18
4 1 0
68 23 20
0 0 0
0 0 0
19 9 5
4 1 1
52 13 13
42 11 11
1 3 0
108 117 107
0 0 0
76 21 21
29 2 2
47 3 3
5 0 0
72 72 72
72 72 72
98 62 58
102 102 102
4 5 0
49 13 13
5 1 0
19 2 1
21 41 23
42 8 5
0 0 0
95 74 74
43 11 11
68 18 18
69 18 18
102 24 23
41 2 1
68 18 18
0 0 0
20 10 6
0 0 0
0 0 0
1 1 0
25 1 1
70 19 19
13 2 1
0 0 0
0 0 0
0 0 0
0 0 0
0 0 0
0 0 0
0 0 0
0 0 0
0 0 0
0 0 0
0 0 0
0 0 0
0 0 0
0 0 0
0 0 0
0 0 0
0 0 0
0 0 0
0 0 0
0 0 0
0 0 0
0 0 0
0 0 0
0 0 0
0 0 0
0 0 0
0 0 0
40 58 33
0 0 0
25 48 28
18 35 20
21 13 6
0 0 0
4 12 2
4 17 5
0 0 0
44 68 39
2 1 0
0 0 0
20 11 6
8 8 2
27 14 8
38 27 18
17 9 5
29 48 28
20 7 4
9 36 12
2 10 3
21 41 23
0 0 0
25 48 28
102 102 102
72 73 72
10 39 13
29 56 32
72 77 72
43 71 41
90 74 62
73 72 72
0 0 0
0 0 0
0 0 0
63 45 28
15 31 17
76 53 34
86 72 72
44 11 11
5 6 2
21 41 23
102 102 102
0 0 0
2 3 0
72 72 72
13 25 14
4 0 0
0 0 0
75 72 72
15 30 17
79 92 79
80 88 77
106 117 107
25 48 28
23 35 20
17 9 5
112 74 74
25 48 28
30 52 28
0 0 0
0 0 0
0 0 0
80 76 72
75 83 76
56 30 17
28 28 9
0 0 0
72 72 72
42 11 11
84 33 24
1 0 0
18 10 5
28 12 7
80 98 82
104 102 102
26 50 29
0 0 0
42 42 25
72 79 73
2 0 0
42 42 25
11 32 11
0 0 0
2 2 0
63 51 32
42 42 25
78 82 78
95 95 95
0 0 0
30 58 33
63 21 17
27 50 28
44 85 49
0 0 0
90 90 89
72 72 72
37 58 33
75 73 72
54 18 15
78 92 79
46 57 33
38 41 23
71 62 62
5 0 0
0 0 0
5 0 0
16 0 0
41 3 3
7 0 0
23 12 7
58 16 16
49 13 13
29 1 1
92 74 74
0 0 0
100 111 100
0 0 0
86 52 34
15 39 16
49 79 44
12 27 9
9 0 0
0 0 0
0 0 0
29 56 32
72 72 72
25 48 28
77 84 70
60 77 62
21 41 23
86 56 56
15 30 17
78 92 79
95 75 74
0 0 0
72 72 72
72 52 33
41 56 32
2 18 3
72 72 72
14 7 4
45 45 45
0 0 0
34 2 2
72 72 72
0 0 0
7 1 0
6 0 0
35 48 36
70 16 16
0 0 0
0 0 0
36 6 2
0 0 0
97 93 81
103 74 74
68 18 18
11 23 12
34 2 2
1 13 2
41 80 46
92 64 64
66 52 52
0 0 0
5 6 2
74 66 39
90 66 41
72 72 72
78 92 79
18 35 20
68 19 18
0 0 0
17 9 5
99 75 74
42 42 25
68 18 18
62 65 62
33 17 10
0 0 0
109 127 110
29 48 28
54 44 27
72 72 72
36 70 40
101 82 77
5 6 2
72 72 72
6 7 2
95 81 70
0 0 0
57 58 35
3 1 0
72 72 72
18 35 20
6 0 0
125 125 125
90 26 25
49 13 13
7 10 2
41 80 46
0 0 0
77 72 72
21 41 23
78 87 77
117 117 113
53 53 52
25 2 1
29 56 32
84 72 72
25 48 28
29 56 32
27 41 23
23 12 7
40 35 20
1 2 0
58 16 16
71 21 19
102 102 102
104 110 105
45 56 32
73 75 73
20 11 6
59 17 16
26 42 24
48 26 26
0 0 0
61 16 16
21 41 23
7 1 0
16 8 5
26 0 0
34 9 4
18 35 20
72 72 72
68 19 18
83 82 82
37 58 33
76 73 72
24 50 25
16 21 8
0 0 0
125 116 116
136 105 105
92 74 74
58 16 16
44 49 29
40 3 3
103 106 95
89 89 89
76 87 77
92 64 64
0 0 0
73 72 72
103 46 46
42 11 11
89 24 24
103 82 77
21 41 23
29 5 2
75 50 48
11 3 2
0 0 0
13 0 0
76 87 77
75 45 38
79 86 79
20 10 5
72 72 72
10 1 0
52 45 45
6 18 3
72 72 72
70 33 21
72 77 72
65 41 24
40 3 3
52 62 51
75 73 72
73 75 73
97 93 81
82 48 48
78 72 72
75 65 40
66 88 66
26 14 8
72 72 72
0 0 0
39 25 25
129 125 111
0 0 0
20 7 4
72 72 72
58 16 16
92 74 74
96 89 89
94 74 74
0 0 0
13 2 1
55 63 56
49 13 13
74 69 62
0 0 0
25 36 21
13 4 2
33 33 28
72 72 72
19 7 4
13 25 14
65 62 62
84 72 72
55 52 52
72 74 72
0 1 0
69 20 19
22 50 25
42 48 28
0 0 0
128 78 78
69 23 19
52 53 52
72 20 20
25 48 28
63 67 38
0 0 0
30 56 32
40 3 3
67 54 54
67 64 62
87 74 73
71 45 30
90 24 24
0 0 0
88 56 56
39 2 2
60 59 36
8 32 10
57 58 35
20 8 4
26 42 24
13 1 1
68 18 18
76 68 39
5 0 0
72 72 72
51 16 14
48 28 9
24 0 0
73 23 20
32 32 32
0 0 0
0 0 0
0 0 0
46 57 34
0 0 0
46 57 34
78 92 79
68 20 19
92 74 74
100 77 75
72 72 72
2 18 3
25 48 28
82 48 48
84 23 23
57 75 44
57 55 46
78 92 79
77 72 72
0 0 0
92 74 74
22 41 23
8 0 0
31 2 2
0 0 0
112 91 91
8 32 10
76 19 19
85 77 74
1 0 0
1 0 0
82 49 48
24 13 7
76 21 21
20 10 6
0 0 0
0 0 0
101 75 75
22 34 12
0 0 0
23 12 7
69 20 19
88 74 73
72 76 72
93 81 74
72 72 72
107 102 102
75 73 72
72 72 72
58 16 16
100 74 74
94 44 44
0 0 0
73 52 33
5 5 1
29 56 32
64 16 16
34 2 2
68 19 19
72 72 72
72 72 72
2 2 0
34 26 12
31 53 30
84 23 23
16 4 4
89 79 75
123 104 104
25 1 1
104 94 76
35 30 13
105 100 84
70 32 24
98 95 95
93 48 34
87 73 73
0 0 0
0 0 0
84 23 23
0 0 0
36 10 10
72 52 33
0 0 0
0 0 0
4 0 0
92 74 74
53 59 53
0 0 0
68 18 18
0 0 0
45 45 45
93 74 74
25 1 1
68 18 18
0 0 0
5 1 0
25 35 20
0 0 0
46 9 9
76 73 72
40 3 3
7 27 9
69 19 19
72 74 72
68 18 18
58 53 53
74 19 19
76 73 72
132 120 119
128 110 110
109 109 109
82 82 82
61 61 61
43 12 11
115 103 103
72 72 72
8 0 0
0 0 0
72 20 20
0 0 0
59 16 16
72 72 72
81 73 73
55 18 15
94 74 74
73 72 72
77 73 72
4 1 0
29 2 2
81 81 81
114 96 96
40 6 3
1 9 1
72 72 60
60 34 23
58 16 16
52 52 52
68 16 16
75 72 72
75 20 20
4 4 1
72 30 30
34 29 12
114 103 103
59 16 16
47 28 9
0 0 0
70 21 19
18 1 1
19 3 1
96 57 57
71 20 17
1 0 0
0 0 0
96 73 73
0 0 0
99 54 37
68 19 19
80 72 72
0 0 0
23 12 7
47 5 3
55 18 14
0 0 0
99 74 74
0 0 0
89 82 82
75 74 72
49 4 3
12 6 3
1 0 0
72 72 72
75 73 72
45 13 7
0 0 0
48 3 3
73 19 19
42 12 11
0 0 0
54 15 14
47 3 3
39 11 6
99 74 74
34 50 28
14 0 0
99 74 74
52 52 52
49 3 3
0 0 0
0 0 0
0 0 0
85 73 73
75 25 21
112 102 102
10 0 0
20 11 6
23 12 7
2 0 0
27 15 7
72 54 54
121 97 97
92 74 74
58 17 16
0 0 0
0 0 0
53 11 7
65 62 62
7 7 2
27 3 1
36 10 10
0 0 0
58 16 16
68 14 14
25 12 7
57 20 16
19 5 5
7 1 0
68 18 18
2 4 0
0 0 0
43 3 3
0 0 0
47 3 3
0 0 0
0 0 0
0 0 0
0 0 0
0 0 0
0 0 0
0 0 0
0 0 0
0 0 0
0 0 0
0 0 0
0 0 0
0 0 0
0 0 0
0 0 0
0 0 0
0 0 0
0 0 0
0 0 0
0 0 0
0 0 0
0 0 0
0 0 0
0 0 0
0 0 0
0 0 0
0 0 0
19 2 1
17 9 5
5 20 6
12 8 2
22 41 23
1 0 0
0 0 0
27 14 8
27 14 8
28 49 28
12 29 9
0 0 0
39 68 38
0 0 0
28 29 11
0 0 0
25 1 1
6 23 7
35 68 39
0 0 0
43 11 11
18 35 20
72 72 72
0 0 0
37 71 40
0 0 0
72 72 72
72 72 72
39 74 43
86 85 77
72 72 72
68 18 18
37 58 33
107 90 80
32 53 28
115 80 76
60 18 16
40 3 3
61 61 61
25 49 25
76 91 78
27 37 21
48 67 38
102 89 79
65 59 36
70 19 18
49 18 14
8 32 10
76 87 77
6 23 7
29 57 32
12 23 7
10 5 3
0 0 0
0 0 0
87 73 73
79 95 80
47 3 3
25 48 28
78 92 79
0 0 0
42 69 40
3 0 0
29 56 32
75 83 76
8 1 0
123 108 104
51 3 3
88 115 89
58 16 16
0 0 0
63 20 17
41 75 43
4 17 5
5 20 6
72 72 72
76 73 72
0 0 0
49 13 13
25 48 28
29 56 32
55 17 15
72 72 72
49 56 32
41 56 32
36 10 10
25 48 28
58 71 59
26 56 28
103 102 102
55 57 33
21 41 23
58 18 16
29 56 32
7 27 9
37 71 41
78 93 79
12 0 0
39 57 33
86 97 75
69 41 41
28 17 8
5 6 2
52 52 52
70 88 71
51 58 34
0 0 0
25 48 28
25 48 28
31 22 11
101 74 74
0 0 0
0 0 0
37 10 10
0 0 0
82 19 19
51 15 14
49 13 13
32 49 28
21 41 23
105 113 106
11 27 9
72 72 72
0 0 0
21 41 23
21 41 23
72 72 72
72 54 54
73 72 72
6 24 7
29 56 32
72 72 72
102 102 102
123 104 104
63 40 26
63 65 62
34 66 38
58 71 59
33 56 32
29 56 32
75 73 72
29 29 17
3 3 0
12 6 3
72 72 72
40 3 3
0 0 0
23 12 7
0 0 0
72 72 72
0 0 0
72 52 33
0 1 0
72 79 73
74 73 72
53 72 55
6 1 0
42 57 33
0 0 0
23 12 7
29 56 32
23 41 24
76 73 72
14 7 4
30 56 32
20 10 6
41 80 46
58 16 16
0 0 0
81 92 79
0 0 0
35 57 33
19 2 0
5 6 2
85 92 79
121 103 103
79 84 76
99 74 74
29 56 32
102 102 102
4 17 5
72 72 72
29 56 32
49 57 34
71 82 49
4 17 5
119 119 119
72 36 26
68 18 18
25 48 28
109 93 81
49 45 45
102 102 102
71 26 20
74 59 37
15 3 1
10 1 0
20 10 6
50 14 14
56 52 52
0 0 0
0 0 0
0 0 0
62 61 61
49 13 13
100 62 42
72 72 72
20 0 0
10 5 3
19 38 21
1 11 2
40 20 20
72 72 72
35 48 28
35 32 11
42 11 11
20 10 6
57 13 13
0 0 0
72 72 72
0 0 0
0 0 0
0 0 0
0 1 0
72 72 72
21 41 23
29 56 32
90 29 25
4 0 0
78 72 72
75 51 32
58 16 16
22 10 6
19 0 0
0 0 0
70 21 19
0 0 0
120 77 77
0 0 0
29 56 32
105 105 105
2 0 0
112 80 77
29 56 32
104 103 82
78 92 79
0 4 0
61 62 61
76 86 76
68 18 18
68 18 18
72 72 72
40 6 3
61 16 16
37 58 33
17 2 0
0 0 0
95 74 73
124 101 84
22 9 5
51 26 18
87 88 87
6 3 2
62 36 19
6 0 0
52 53 52
29 56 32
56 60 33
52 52 52
69 72 43
90 89 89
29 56 32
41 80 46
0 0 0
29 56 32
79 93 79
0 0 0
49 50 30
74 59 37
21 41 23
72 74 72
74 55 54
30 49 28
72 72 72
80 22 22
0 0 0
74 72 72
86 54 54
117 103 103
49 56 32
58 16 16
49 13 13
26 56 29
26 49 28
18 32 10
16 0 0
65 78 66
49 13 13
73 72 72
23 12 7
8 32 10
6 0 0
81 83 76
56 43 26
40 27 9
38 74 43
21 41 23
0 0 0
55 53 53
20 11 6
46 45 45
34 2 2
96 77 74
32 33 32
97 93 81
76 73 72
87 73 73
22 11 6
45 9 6
72 72 72
85 92 79
0 0 0
72 72 72
13 2 1
4 4 1
57 15 14
86 85 71
6 4 1
65 52 52
0 0 0
10 5 3
1 0 0
122 77 77
68 68 41
102 102 102
127 77 77
29 2 2
5 1 0
88 87 87
31 8 8
30 58 33
104 91 90
45 45 45
89 89 89
84 74 73
6 23 7
102 102 102
53 52 52
48 19 4
20 10 6
5 20 6
14 7 4
0 0 0
0 0 0
4 3 1
57 52 52
85 73 73
68 18 18
0 1 0
49 13 13
3 0 0
50 13 13
68 18 18
75 80 75
82 24 23
65 59 36
44 10 3
75 83 76
0 0 0
0 1 0
99 74 74
32 4 0
23 12 7
80 78 77
21 41 23
99 74 74
8 0 0
23 0 0
14 2 1
51 11 7
68 23 19
34 57 33
29 0 0
49 13 13
25 48 28
102 102 102
65 59 36
68 19 19
45 45 45
72 52 33
99 74 74
4 0 0
53 15 14
29 56 32
12 13 2
75 72 72
14 20 5
53 39 38
1 3 0
69 19 18
58 16 16
70 70 70
0 0 0
0 0 0
41 4 4
45 3 3
37 34 14
0 0 0
86 60 37
0 0 0
72 72 72
0 0 0
57 54 53
58 16 16
69 69 69
79 73 72
84 23 23
26 48 28
73 72 72
73 72 72
68 19 19
49 4 3
34 2 2
71 18 18
0 0 0
75 62 62
111 111 111
17 9 5
2 2 0
1 0 0
29 56 32
84 92 79
0 0 0
85 83 76
10 0 0
34 15 10
86 72 72
92 64 64
33 0 0
77 95 78
32 32 32
87 73 73
89 89 89
6 23 7
69 18 18
8 8 2
76 59 37
110 30 30
74 80 75
36 10 10
72 72 72
130 106 104
26 12 7
72 72 72
76 87 77
0 0 0
72 72 72
3 14 4
0 0 0
50 13 13
1 0 0
58 16 16
76 42 42
75 83 76
65 59 36
58 16 16
102 102 102
100 105 85
107 102 102
0 0 0
84 42 30
72 19 19
0 0 0
92 74 74
52 4 4
97 26 26
41 64 37
0 0 0
49 49 30
37 30 17
20 11 6
112 76 76
40 3 3
30 48 28
58 16 16
53 13 13
78 45 45
89 89 89
72 72 72
60 16 16
58 16 16
93 42 30
68 18 18
99 74 74
105 56 39
60 77 62
97 57 57
7 27 9
0 0 0
72 72 72
92 64 64
0 0 0
56 52 52
68 20 19
23 12 7
76 72 72
9 0 0
0 0 0
53 17 15
36 57 33
73 18 18
69 14 14
61 19 17
79 55 55
4 3 1
25 9 5
59 35 35
55 17 15
76 87 77
85 72 72
69 62 62
74 72 72
71 48 29
42 18 12
1 0 0
16 22 12
92 74 74
75 73 72
0 0 0
23 0 0
72 54 54
3 3 1
72 72 72
68 18 18
96 88 79
52 52 52
23 12 7
27 0 0
42 12 11
120 77 77
99 74 74
80 19 19
44 3 3
6 23 7
74 16 16
58 16 16
94 27 25
59 12 12
20 10 6
89 25 24
82 72 72
0 0 0
74 72 72
38 58 33
36 10 10
38 42 25
0 0 0
33 2 1
71 21 19
41 5 4
0 0 0
64 22 18
40 11 6
53 14 13
60 16 16
20 2 1
37 1 0
68 18 18
58 16 16
41 17 12
0 0 0
10 5 3
55 4 4
0 0 0
0 0 0
0 0 0
0 0 0
0 0 0
0 0 0
0 0 0
0 0 0
0 0 0
0 0 0
0 0 0
0 0 0
0 0 0
0 0 0
0 0 0
0 0 0
0 0 0
0 0 0
0 0 0
0 0 0
0 0 0
0 0 0
0 0 0
0 0 0
0 0 0
0 0 0
0 0 0
0 0 0
35 67 38
14 7 4
31 36 21
1 0 0
29 57 32
7 7 2
10 11 3
25 40 14
13 50 16
33 15 8
30 56 32
2 0 0
10 38 12
28 15 8
32 49 28
40 21 12
23 38 12
49 50 30
61 61 61
0 0 0
0 0 0
69 19 18
102 102 102
59 53 53
9 18 10
0 0 0
0 0 0
72 74 72
72 72 72
31 8 8
2 15 3
0 0 0
0 0 0
17 9 5
54 65 55
73 40 28
25 48 28
1 2 0
76 87 77
15 15 5
21 41 23
51 38 17
70 61 55
13 16 9
75 73 72
25 48 28
22 42 24
5 0 0
68 18 18
41 80 46
71 33 21
65 59 36
95 95 95
61 61 61
31 60 34
0 0 0
21 45 24
36 70 40
72 72 72
78 68 42
74 72 72
76 77 72
76 73 72
5 20 6
25 48 28
31 19 10
0 0 0
33 48 28
7 7 2
104 108 104
21 1 1
0 0 0
16 2 1
0 0 0
31 8 8
8 32 10
2 15 3
74 80 74
52 52 52
0 0 0
99 74 74
1 0 0
73 72 72
17 9 5
100 116 102
43 52 30
40 3 3
136 133 125
89 89 89
12 4 1
58 17 16
72 77 72
29 2 2
25 48 28
15 30 17
82 75 73
90 94 91
0 0 0
29 2 2
48 60 34
25 48 28
73 76 73
31 8 8
100 102 84
87 73 73
129 137 129
6 13 3
20 10 6
29 56 32
13 28 15
0 0 0
16 11 5
12 6 3
96 95 95
25 48 28
0 0 0
44 10 10
0 0 0
108 124 110
0 0 0
71 81 49
0 0 0
0 0 0
23 12 7
57 58 35
72 72 72
6 0 0
86 92 80
55 62 53
35 68 39
45 45 45
30 58 33
13 31 15
68 18 18
0 0 0
5 6 2
45 41 24
102 102 102
102 102 102
21 13 6
1 14 2
73 22 20
18 9 5
0 0 0
14 3 3
23 12 7
12 22 12
42 52 43
103 102 102
22 10 6
108 58 58
69 19 19
87 87 87
78 92 79
76 37 24
16 0 0
0 0 0
73 67 63
72 72 72
63 61 61
0 0 0
29 56 32
96 26 26
77 74 73
25 48 28
37 70 40
51 100 57
15 30 17
0 0 0
0 0 0
74 59 37
70 19 19
73 76 73
78 92 79
72 72 72
72 72 72
17 31 18
95 25 25
72 72 72
72 76 72
72 72 72
25 1 1
68 18 18
33 12 7
72 77 72
0 0 0
0 0 0
0 0 0
88 78 74
42 11 11
104 110 105
36 10 10
2 0 0
72 72 72
2 13 2
61 61 61
3 1 1
29 2 2
33 30 17
64 87 66
5 0 0
41 80 46
0 0 0
0 0 0
1 0 0
78 92 79
22 34 12
72 72 72
52 67 36
0 0 0
21 41 23
42 75 43
58 16 16
65 59 36
75 83 76
80 22 22
113 104 103
0 0 0
79 82 50
68 18 18
74 74 72
49 14 13
67 37 36
20 24 13
33 45 34
32 33 13
29 56 32
72 72 72
41 80 46
10 32 10
83 108 85
76 87 77
29 56 32
72 72 72
76 72 72
0 0 0
81 95 56
58 16 16
92 84 77
80 19 18
74 72 72
29 56 32
0 0 0
2 0 0
0 0 0
34 8 5
47 65 46
73 23 20
24 30 11
58 16 16
113 113 113
68 18 18
25 41 23
74 72 72
29 56 32
99 74 74
61 52 39
37 13 10
0 0 0
87 73 73
72 72 72
61 61 61
25 23 13
72 72 72
25 48 28
8 32 10
89 89 89
0 0 0
58 17 16
44 49 29
104 110 105
13 14 3
121 118 108
72 72 72
21 41 23
72 72 72
97 74 74
93 74 74
7 28 9
97 74 74
79 72 72
48 45 45
109 102 102
1 0 0
2 18 3
73 72 72
66 18 18
5 0 0
120 112 104
62 61 61
61 61 61
44 63 36
72 74 72
72 72 72
60 77 62
29 56 32
123 104 104
10 5 3
36 10 10
110 103 102
78 92 79
4 4 1
72 72 72
139 139 139
96 26 26
72 72 72
99 75 74
53 55 33
99 110 100
52 52 52
61 38 26
67 58 35
72 72 72
68 18 18
72 72 72
52 52 52
0 0 0
5 5 1
55 62 53
72 72 72
75 21 20
34 56 32
38 49 28
0 0 0
68 18 18
46 57 34
78 92 79
35 13 3
60 19 17
115 76 76
0 0 0
23 12 7
138 126 126
101 96 81
3 1 0
72 72 72
72 54 54
0 0 0
18 35 20
90 92 79
60 16 16
16 2 1
102 102 102
72 72 72
29 2 2
108 103 102
40 8 3
0 0 0
0 0 0
97 72 72
51 58 34
58 71 59
72 74 72
97 101 97
0 0 0
27 0 0
102 102 102
68 18 18
102 103 102
54 44 27
117 83 78
53 14 14
60 18 16
23 12 7
39 50 40
1 0 0
72 72 72
26 48 28
29 56 32
8 0 0
88 73 72
18 4 2
16 17 5
34 28 28
92 74 74
61 16 16
72 72 72
102 55 39
53 53 52
106 49 36
73 47 47
76 67 41
76 21 21
40 3 3
72 52 33
0 0 0
0 0 0
0 0 0
4 2 1
96 73 73
72 72 72
77 21 21
81 80 73
23 12 7
47 38 38
0 0 0
103 81 77
85 52 34
84 33 24
0 0 0
41 33 33
62 44 28
18 29 10
162 116 116
68 18 18
0 0 0
2 2 0
29 2 2
114 31 31
58 18 16
1 0 0
0 0 0
0 0 0
78 72 72
20 10 6
44 49 29
72 72 72
100 74 74
79 87 77
72 72 72
59 16 16
120 86 79
85 73 73
32 58 36
100 74 74
61 16 16
109 75 75
92 102 91
72 19 19
68 61 61
65 59 36
102 77 75
99 74 74
60 16 16
15 7 4
91 73 72
36 18 13
82 23 23
97 74 74
64 14 14
11 0 0
29 56 32
84 53 35
104 66 66
98 90 89
75 52 33
19 2 1
107 96 96
68 18 18
47 3 3
76 87 77
72 72 72
52 13 13
2 0 0
29 56 32
5 20 6
14 0 0
73 76 73
95 56 56
68 16 16
72 72 72
99 74 74
25 48 28
0 10 1
102 102 102
96 26 26
21 41 23
92 67 39
12 6 3
7 0 0
0 0 0
58 16 16
42 11 11
76 80 75
105 102 102
80 92 79
0 0 0
24 30 11
77 21 21
68 20 19
107 85 78
90 24 24
42 11 11
98 25 25
10 1 0
61 61 61
3 1 0
82 19 19
72 52 33
123 104 104
0 0 0
93 82 82
72 23 20
68 18 18
84 65 39
55 45 45
36 10 10
33 31 18
20 10 6
37 11 10
108 57 57
23 11 6
51 14 14
62 44 28
40 3 3
58 16 16
27 9 5
0 0 0
8 32 10
2 15 3
99 70 67
68 18 18
25 1 1
33 27 9
7 2 2
51 14 14
84 23 23
68 14 14
0 0 0
73 47 47
0 0 0
88 42 31
91 24 24
84 23 23
0 0 0
0 0 0
73 76 73
55 53 53
91 24 24
36 10 10
34 2 2
58 16 16
32 2 2
0 0 0
46 16 12
104 93 81
5 21 7
95 74 74
72 72 72
56 15 14
54 55 53
81 19 19
18 35 20
52 52 52
0 0 0
18 2 1
7 4 2
56 38 38
71 19 19
36 10 10
53 57 53
16 2 1
87 73 73
59 16 16
27 14 8
68 20 19
87 19 19
0 0 0
60 16 16
13 6 3
8 1 0
68 5 5
23 12 7
80 22 22
0 0 0
8 2 0
5 0 0
0 0 0
6 0 0
47 3 3
27 14 8
0 0 0
0 0 0
0 0 0
0 0 0
0 0 0
0 0 0
0 0 0
0 0 0
0 0 0
0 0 0
0 0 0
0 0 0
0 0 0
0 0 0
0 0 0
0 0 0
0 0 0
0 0 0
0 0 0
0 0 0
0 0 0
0 0 0
0 0 0
0 0 0
0 0 0
0 0 0
0 0 0
0 0 0
29 14 8
27 15 8
1 0 0
2 0 0
9 11 6
38 76 43
3 21 4
22 10 6
0 1 0
8 27 9
29 56 32
31 57 32
10 38 12
0 6 0
11 42 14
0 0 0
5 5 1
25 49 28
25 48 28
71 45 30
9 19 6
2 15 3
31 60 34
14 7 4
31 56 32
89 89 89
24 50 25
23 13 7
30 49 28
58 16 16
29 56 32
65 62 62
90 89 89
101 75 74
25 48 28
3 1 0
116 105 105
0 0 0
16 2 1
53 68 50
23 41 23
36 70 40
58 17 16
0 0 0
78 72 72
33 69 36
29 56 32
0 0 0
29 56 32
37 29 13
18 1 1
12 18 6
58 36 19
1 0 0
68 51 33
95 101 84
47 16 9
29 56 32
72 72 72
72 72 72
51 29 20
79 73 72
99 74 74
0 0 0
19 33 12
81 59 56
35 68 39
68 18 18
71 68 59
52 15 14
33 57 32
68 18 18
12 6 3
21 14 6
6 3 1
72 72 72
7 27 9
6 3 2
78 92 79
12 6 3
0 0 0
14 11 5
69 19 19
22 49 25
41 60 34
81 104 83
36 74 41
29 2 2
38 22 15
103 107 103
72 72 72
21 41 23
29 56 32
29 56 32
21 41 23
73 72 72
38 74 43
38 74 43
29 56 32
72 72 72
0 0 0
61 84 63
21 42 24
23 12 7
2 0 0
0 1 0
20 10 6
0 0 0
5 6 2
53 73 55
19 5 5
29 56 32
55 52 52
14 7 4
75 73 72
1 0 0
55 52 52
117 97 97
128 125 111
13 6 3
15 6 3
72 72 72
35 62 36
72 72 72
2 0 0
0 0 0
76 73 72
38 75 43
26 42 24
76 73 72
64 36 24
81 80 73
7 1 0
29 2 2
25 52 28
69 66 65
21 33 12
75 67 41
25 48 28
102 89 79
106 113 106
0 0 0
0 0 0
38 76 43
39 57 33
29 56 32
5 0 0
43 23 15
99 74 74
0 0 0
7 27 9
40 9 3
5 5 1
0 0 0
68 18 18
107 94 81
0 0 0
0 0 0
2 0 0
23 8 4
102 102 102
29 56 32
72 72 72
76 74 74
89 89 89
72 72 72
12 6 3
75 73 72
29 56 32
72 74 72
68 18 18
32 59 32
78 87 77
102 102 102
1 0 0
34 56 32
62 79 45
80 92 79
51 50 30
30 63 34
25 48 28
1 12 2
110 110 105
21 41 23
0 0 0
14 7 4
74 72 72
76 87 77
0 0 0
29 56 32
52 52 52
13 2 1
72 74 72
51 58 34
8 32 10
41 52 27
102 102 102
28 53 30
72 72 72
21 38 22
29 59 32
0 0 0
99 74 74
74 73 72
50 14 14
105 106 102
64 81 48
35 64 37
73 82 73
25 48 28
0 0 0
59 50 31
136 114 103
88 56 56
0 0 0
79 59 37
15 30 17
0 0 0
72 72 72
4 4 1
0 0 0
93 74 74
10 19 10
49 46 45
74 81 75
3 1 0
1 0 0
0 0 0
12 5 2
83 77 73
20 0 0
0 5 0
90 24 24
72 72 72
49 13 13
36 10 10
94 62 39
34 2 2
53 72 55
72 73 72
25 48 28
58 28 17
33 41 24
0 0 0
72 72 72
51 27 15
2 15 3
99 74 74
10 1 0
10 0 0
108 114 106
8 1 0
0 0 0
2 0 0
58 16 16
25 48 28
72 72 72
109 119 91
4 17 5
72 52 33
1 1 0
72 72 72
3 0 0
21 41 23
121 77 77
81 78 78
51 15 14
0 0 0
41 14 11
58 17 16
17 9 5
53 52 52
0 0 0
89 89 89
31 56 32
68 18 18
87 99 88
61 58 35
21 11 6
66 62 62
0 0 0
94 106 95
125 111 97
38 74 43
2 0 0
87 92 79
76 21 21
107 119 108
0 0 0
78 99 80
47 49 26
81 62 62
77 37 35
53 38 24
74 72 72
100 97 92
101 62 42
0 0 0
80 93 81
58 16 16
99 74 74
72 72 72
92 84 77
10 1 0
72 72 72
102 102 102
129 78 78
0 0 0
1 8 1
4 17 5
50 14 13
8 27 9
0 0 0
58 60 36
2 0 0
0 0 0
68 19 19
72 72 72
46 57 34
53 80 56
0 7 0
0 0 0
94 25 25
126 104 104
52 4 4
101 98 81
92 98 92
83 101 83
17 33 11
102 102 102
70 98 56
52 52 52
44 18 15
99 75 74
96 95 95
26 48 28
58 21 16
12 6 3
10 0 0
21 13 3
59 19 16
14 0 0
25 48 28
1 0 0
58 16 16
0 0 0
68 18 18
66 44 28
24 21 9
68 18 18
55 44 27
74 72 72
49 34 34
67 26 17
23 12 7
62 16 16
73 72 72
29 56 32
47 48 28
78 55 55
29 56 32
99 88 78
26 58 30
54 33 22
55 63 56
72 72 72
101 75 75
100 75 75
76 21 21
72 72 72
83 73 73
95 95 95
22 41 24
72 73 72
116 76 70
32 30 17
92 64 64
11 1 1
0 0 0
44 49 29
1 0 0
88 73 73
0 0 0
78 72 72
76 21 21
50 45 30
0 0 0
109 66 66
82 19 19
75 72 72
0 0 0
68 18 18
30 63 34
2 15 3
105 96 82
24 41 24
77 66 39
74 72 72
52 16 14
80 73 73
18 9 5
0 0 0
87 73 73
74 60 37
2 0 0
0 0 0
1 0 0
49 13 13
58 16 16
62 66 62
0 0 0
37 56 32
52 52 52
70 19 19
27 0 0
78 83 76
25 48 28
3 0 0
102 77 74
102 102 102
0 0 0
31 56 32
34 9 5
4 2 1
97 40 31
92 45 45
7 8 1
75 76 73
89 61 40
49 13 13
97 26 26
72 72 72
61 61 61
42 56 32
21 1 1
100 55 38
95 95 95
59 65 39
10 1 0
118 81 81
32 57 33
68 16 16
0 0 0
21 41 23
0 0 0
25 48 28
72 72 72
25 4 1
72 72 72
22 6 6
45 11 11
76 34 20
0 0 0
110 117 107
10 2 2
55 13 13
62 62 61
84 81 65
99 74 74
120 77 77
109 50 36
130 109 98
39 49 29
13 3 1
114 67 67
100 74 74
59 16 16
102 102 102
31 8 8
19 2 1
101 95 95
99 87 87
78 72 72
0 0 0
89 24 24
0 0 0
8 32 10
6 23 7
68 18 18
51 12 12
74 16 16
100 74 74
0 0 0
20 10 6
0 0 0
9 0 0
37 56 32
17 9 5
89 24 24
48 14 10
68 18 18
72 72 72
5 20 6
0 0 0
83 72 72
0 0 0
76 21 21
90 22 22
76 80 73
0 0 0
75 72 72
0 0 0
36 10 10
49 13 13
13 2 1
63 61 61
122 98 90
119 97 97
35 33 13
64 17 16
68 18 18
7 7 2
80 53 35
107 103 103
35 2 2
108 76 75
72 72 72
102 26 26
23 12 7
31 8 8
104 75 75
104 103 102
0 0 0
102 75 75
49 13 13
61 61 61
81 73 73
72 72 72
72 72 72
5 20 6
105 102 102
53 17 15
86 72 72
0 0 0
70 18 18
56 13 13
30 8 8
7 27 9
95 74 74
93 74 74
51 14 14
66 57 34
32 57 33
49 13 13
79 20 20
59 16 16
49 13 13
34 2 2
72 72 72
34 2 2
64 30 21
71 19 19
2 2 0
70 19 19
0 0 0
34 15 8
61 15 9
49 17 13
77 23 19
77 21 21
1 0 0
73 24 20
16 2 1
62 16 16
67 24 19
68 18 18
3 3 1
0 0 0
0 0 0
27 14 8
0 0 0
0 1 0
55 4 4
0 0 0
0 0 0
0 0 0
0 0 0
0 0 0
0 0 0
0 0 0
0 0 0
0 0 0
0 0 0
0 0 0
0 0 0
0 0 0
0 0 0
0 0 0
0 0 0
0 0 0
0 0 0
0 0 0
0 0 0
0 0 0
0 0 0
0 0 0
0 0 0
0 0 0
0 0 0
0 0 0
6 23 7
19 49 21
26 48 28
24 30 11
10 38 12
34 66 38
22 41 23
22 41 24
0 0 0
0 0 0
35 57 32
29 37 21
38 64 34
1 0 0
22 34 12
40 58 33
0 0 0
17 9 5
29 56 32
0 9 1
21 41 23
23 12 7
22 49 25
0 0 0
27 49 28
7 1 0
72 72 72
0 4 0
0 1 0
18 35 20
21 41 23
11 38 13
72 52 33
0 0 0
2 0 0
85 85 85
10 0 0
46 91 50
47 47 45
25 49 28
17 9 5
23 12 7
6 16 3
102 102 102
29 56 32
12 6 3
20 10 6
19 25 9
52 58 34
72 72 72
45 49 45
91 68 43
93 57 57
2 2 0
123 104 104
0 0 0
2 0 0
13 2 1
82 82 82
96 95 95
70 79 68
0 0 0
89 57 56
6 0 0
55 63 56
0 0 0
23 12 7
34 66 38
25 48 28
53 73 55
21 43 19
1 0 0
72 72 72
0 0 0
74 80 75
14 2 1
68 33 21
101 85 78
5 20 6
1 3 0
95 108 86
0 0 0
24 14 7
18 35 20
29 59 33
72 72 72
79 81 49
76 87 77
90 67 60
10 5 3
25 48 28
22 10 6
75 83 76
29 56 32
29 56 32
95 98 72
25 1 1
78 92 79
0 0 0
0 0 0
76 44 27
0 0 0
25 48 28
74 91 54
65 92 64
80 87 77
72 72 72
0 0 0
26 21 8
8 1 0
120 109 105
29 56 32
25 1 1
3 5 1
40 58 33
75 83 76
79 73 72
51 66 53
42 3 3
40 3 3
20 22 20
36 70 40
104 74 74
78 92 79
23 14 7
100 114 102
0 0 0
4 17 5
135 130 113
72 72 72
72 72 72
19 41 19
99 74 74
81 73 73
63 26 18
84 97 86
32 57 33
78 77 47
106 105 86
77 72 72
73 72 72
30 64 34
82 92 79
87 118 90
29 56 32
68 18 18
35 25 12
126 104 104
60 77 62
38 58 33
105 113 106
74 72 72
38 38 38
72 72 72
55 62 55
44 39 39
59 47 25
79 97 81
0 0 0
102 111 87
17 9 5
33 13 9
88 116 89
65 59 36
57 56 34
7 1 0
0 0 0
42 11 11
31 56 32
0 0 0
72 72 72
104 102 102
21 45 24
0 0 0
70 32 22
102 102 102
42 11 11
97 90 85
100 119 91
29 56 32
60 18 17
84 23 23
120 112 102
29 57 32
68 18 18
29 56 32
86 41 29
55 53 53
45 45 45
58 16 16
27 10 7
120 104 103
99 74 74
103 102 102
42 11 11
109 117 91
83 108 85
0 0 0
98 95 95
72 20 20
82 72 72
107 103 102
106 117 107
12 13 4
23 12 7
0 0 0
72 78 73
0 0 0
58 16 16
26 15 6
83 108 85
72 72 72
0 0 0
0 0 0
91 38 26
0 0 0
102 102 102
44 49 29
64 61 61
0 0 0
99 74 74
0 0 0
29 56 32
73 18 18
0 0 0
31 57 32
85 63 63
92 74 74
60 77 62
67 78 62
78 92 79
29 56 32
72 72 72
11 27 9
75 83 76
38 39 38
38 38 38
29 56 32
0 0 0
72 72 72
52 52 52
45 14 12
36 9 8
78 92 79
65 59 36
0 0 0
55 18 15
29 56 32
15 1 0
0 0 0
101 85 78
19 27 15
22 41 23
58 16 16
96 77 76
83 63 40
72 72 72
73 59 35
22 1 1
86 57 56
69 18 18
136 136 136
109 130 111
30 56 32
72 72 72
35 8 4
64 60 36
53 48 28
25 48 28
72 72 72
0 0 0
38 38 38
72 72 72
53 24 8
29 56 32
103 93 81
48 57 49
41 15 11
72 72 72
73 46 30
95 95 95
1 7 1
45 45 45
75 72 72
29 56 32
82 81 75
99 74 74
7 1 0
17 4 2
122 77 77
75 58 57
72 72 72
11 22 12
89 89 89
24 6 6
62 69 51
68 18 18
18 11 5
72 18 17
56 45 45
72 72 72
5 5 1
49 13 13
4 12 2
13 25 14
51 37 23
6 0 0
4 0 0
101 78 75
87 73 73
1 11 2
29 48 28
72 72 72
123 104 104
83 73 73
0 0 0
91 92 85
109 124 110
99 74 74
69 19 18
68 83 70
21 41 23
12 12 12
72 54 54
119 85 79
29 56 32
95 95 95
0 0 0
109 30 30
8 32 10
78 92 79
25 48 28
36 70 40
70 32 24
19 10 6
58 16 16
72 72 72
99 68 44
18 35 20
102 102 102
104 58 58
0 0 0
72 73 72
15 33 17
16 30 17
3 0 0
94 24 24
69 20 19
55 63 56
84 104 84
0 0 0
50 9 6
73 74 73
45 45 45
0 0 0
59 16 16
34 57 33
88 78 75
78 72 72
36 10 10
11 0 0
20 10 6
70 40 27
1 0 0
72 41 41
29 56 32
72 73 72
0 0 0
103 95 95
11 5 3
72 52 33
72 74 72
23 24 14
40 3 3
72 72 72
17 9 5
86 72 72
17 9 5
25 44 24
94 74 74
135 124 124
29 2 2
80 92 79
58 19 16
72 72 72
89 61 40
96 75 74
49 13 13
124 95 83
36 13 3
20 10 6
111 76 75
1 1 0
102 102 102
81 79 77
73 72 72
52 67 53
98 39 30
95 95 95
0 0 0
72 72 72
0 1 0
84 23 23
72 72 72
38 10 10
80 73 72
116 66 66
81 22 22
68 18 18
68 18 18
69 18 18
36 10 10
20 12 6
0 0 0
0 0 0
0 0 0
103 25 25
68 18 18
93 74 74
103 93 81
98 83 83
87 22 22
104 86 68
93 25 23
31 16 9
0 0 0
58 16 16
102 75 75
36 10 10
86 56 56
72 19 19
0 0 0
51 18 14
69 41 41
72 72 72
42 11 11
94 82 60
74 19 19
36 10 10
97 74 74
74 72 72
27 12 7
38 38 38
103 93 81
47 12 7
0 0 0
31 8 8
87 51 33
46 57 34
45 11 11
31 56 32
102 102 102
0 0 0
112 30 30
58 16 16
55 56 33
68 18 18
90 102 91
25 48 28
76 21 21
106 83 83
20 5 3
76 81 75
53 56 53
72 72 72
95 74 74
8 3 0
95 24 24
107 102 102
82 19 19
68 20 17
72 72 72
75 62 62
52 13 13
72 72 72
0 0 0
20 10 6
6 1 0
1 7 1
87 34 34
102 75 75
52 52 52
13 2 1
31 8 8
104 74 74
0 0 0
69 20 19
25 1 1
82 19 19
64 62 62
35 48 28
2 0 0
72 72 72
5 0 0
0 0 0
58 71 59
96 23 23
101 75 75
102 102 102
5 0 0
68 18 18
4 1 0
72 72 72
79 60 38
16 2 1
0 0 0
113 76 76
49 13 13
68 18 18
63 61 61
100 75 74
76 73 72
27 11 6
16 2 1
51 58 34
31 8 8
72 72 72
41 42 24
78 19 19
0 0 0
42 8 5
108 76 75
49 13 13
0 0 0
29 2 2
0 0 0
68 19 18
51 14 14
47 5 3
55 18 15
49 13 13
108 30 30
3 3 1
29 2 2
98 27 27
58 16 16
20 10 6
64 16 16
8 32 10
8 1 0
94 74 74
0 0 0
0 0 0
47 3 3
83 83 76
0 0 0
8 0 0
74 59 37
90 73 73
78 92 79
0 0 0
34 10 6
72 72 72
54 12 12
23 12 7
13 2 1
40 8 4
10 1 0
19 2 1
68 18 18
57 9 9
4 0 0
28 14 8
83 19 19
0 0 0
0 0 0
106 27 22
27 14 8
0 0 0
68 18 18
13 1 1
23 12 7
0 0 0
0 0 0
0 0 0
0 0 0
0 0 0
0 0 0
0 0 0
0 0 0
0 0 0
0 0 0
0 0 0
0 0 0
0 0 0
0 0 0
0 0 0
0 0 0
0 0 0
0 0 0
0 0 0
0 0 0
0 0 0
0 0 0
0 0 0
0 0 0
0 0 0
0 0 0
0 0 0
0 0 0
29 15 9
33 15 8
39 67 38
27 14 8
21 10 6
25 48 28
2 0 0
11 5 3
2 13 2
0 0 0
1 2 0
38 74 43
36 68 39
0 0 0
0 0 0
8 32 10
1 11 2
29 56 32
23 12 7
29 56 32
14 7 4
81 95 80
0 0 0
31 49 28
34 11 3
77 79 73
2 4 0
0 0 0
20 12 6
21 26 10
26 48 28
40 3 3
72 72 72
0 0 0
72 72 72
18 35 20
77 72 44
21 41 23
8 24 8
125 125 125
0 5 0
63 21 17
0 0 0
15 30 17
47 16 13
0 0 0
77 72 44
32 33 32
3 14 4
74 78 74
0 0 0
26 12 7
0 0 0
47 7 4
42 11 11
7 16 3
25 50 28
47 15 13
68 19 18
58 16 16
45 42 24
38 63 36
20 10 6
0 0 0
29 56 32
61 38 26
0 0 0
68 20 19
47 51 28
92 24 24
26 48 28
18 35 20
72 72 72
2 2 0
0 0 0
5 0 0
63 53 32
0 0 0
10 32 10
74 59 37
3 11 2
9 0 0
24 21 9
21 45 24
30 57 32
0 0 0
31 12 7
29 56 32
0 0 0
25 36 21
25 48 28
50 11 10
0 0 0
79 56 55
99 74 74
42 11 11
109 117 91
11 1 0
76 87 77
0 0 0
25 48 28
10 1 0
58 16 16
27 31 18
72 72 72
76 73 72
0 0 0
108 107 107
51 58 34
31 2 2
78 92 79
10 38 12
77 75 45
13 14 5
4 15 4
76 87 77
72 72 72
9 4 2
14 27 9
23 52 26
119 119 119
38 74 43
14 3 3
72 72 72
6 23 7
68 19 18
81 73 73
31 57 32
18 35 20
26 43 22
75 83 76
0 0 0
5 7 1
72 36 22
11 19 11
74 72 72
104 110 105
91 82 76
3 3 1
43 13 7
7 27 9
74 72 72
25 48 28
52 52 52
0 0 0
79 84 76
72 72 72
53 17 15
82 61 39
128 134 128
52 59 35
50 58 34
29 2 2
0 0 0
50 14 13
58 16 16
31 65 34
2 0 0
78 94 79
102 102 102
32 0 0
79 19 19
30 64 34
109 106 86
92 93 80
71 18 18
76 87 77
68 61 37
102 102 102
39 61 35
11 22 12
72 72 72
78 53 44
63 61 61
79 96 81
0 0 0
106 117 107
25 48 28
58 16 16
40 3 3
20 14 6
72 73 72
10 28 9
78 79 63
81 87 77
103 83 77
6 23 7
72 72 72
74 72 72
92 57 56
74 77 72
111 94 81
1 3 0
8 8 2
56 53 53
1 0 0
100 79 76
16 11 2
105 113 106
25 48 28
14 7 4
68 37 21
78 92 79
15 6 3
0 0 0
16 25 9
0 0 0
22 49 25
54 43 27
54 13 6
36 70 40
68 20 19
80 55 47
45 45 45
80 100 82
29 4 2
75 83 76
123 117 108
102 75 75
14 17 5
80 20 20
46 10 10
0 0 0
25 1 1
0 1 0
14 7 4
34 66 38
60 23 17
29 56 32
25 48 28
35 33 33
39 47 39
18 1 1
82 22 22
0 0 0
23 9 5
68 34 21
48 8 5
78 92 79
68 18 18
73 75 72
0 0 0
14 32 10
79 75 75
93 89 89
47 57 33
0 0 0
20 0 0
123 92 82
38 10 8
23 12 7
72 72 72
9 23 7
68 18 18
23 35 20
74 72 72
26 7 3
0 0 0
75 72 72
44 41 34
0 0 0
34 57 33
30 5 1
72 72 72
40 6 3
72 72 72
76 87 77
0 0 0
102 102 102
58 16 16
89 89 89
0 0 0
70 52 52
72 72 72
55 56 54
72 72 72
35 57 33
26 7 7
89 24 24
3 0 0
30 45 26
25 48 28
30 63 34
37 13 10
0 0 0
0 0 0
0 0 0
20 10 6
72 55 34
72 72 72
0 0 0
72 72 72
63 18 16
72 72 72
23 12 7
48 17 13
0 0 0
42 42 25
3 3 1
3 0 0
5 20 6
53 59 53
36 26 15
0 0 0
23 35 20
44 61 46
39 10 10
99 74 74
35 68 39
56 15 15
18 35 20
36 70 40
74 80 75
81 106 83
87 73 73
83 104 84
39 49 29
68 18 18
56 9 9
4 1 0
47 57 34
89 24 24
5 20 6
50 13 13
144 83 81
73 76 73
26 7 7
0 0 0
0 0 0
76 19 19
0 0 0
73 74 72
68 59 37
80 73 72
28 54 31
99 26 26
30 9 5
79 91 78
82 48 48
61 61 61
8 0 0
79 73 72
75 73 72
0 0 0
126 133 124
0 0 0
36 11 9
81 73 73
50 69 50
0 0 0
101 75 75
0 0 0
29 2 2
76 87 77
15 30 17
101 74 74
72 72 72
92 64 64
12 8 2
23 0 0
18 35 20
120 77 77
102 55 39
124 104 104
73 73 73
0 0 0
0 0 0
96 93 81
74 59 37
5 15 3
123 76 76
0 0 0
1 0 0
72 72 72
7 5 1
47 3 3
111 75 75
34 2 2
75 38 38
0 0 0
49 13 13
25 1 1
11 0 0
44 42 24
27 0 0
74 78 74
68 18 18
124 95 83
122 77 77
32 0 0
29 56 32
0 0 0
78 61 38
72 72 72
49 14 13
0 5 0
72 72 72
74 72 72
20 10 6
0 0 0
12 1 0
96 26 26
68 18 18
32 25 15
76 73 72
84 73 73
42 12 11
149 122 122
0 0 0
89 28 25
4 1 0
95 86 86
0 0 0
71 21 19
77 77 77
74 59 37
130 82 80
102 102 102
50 13 13
69 62 62
69 32 24
82 73 73
72 22 20
72 20 20
76 21 21
43 63 35
25 48 28
68 21 19
69 19 18
44 4 3
72 72 72
23 0 0
38 56 32
83 82 81
81 21 21
68 18 18
0 0 0
50 13 13
68 18 18
49 13 13
92 93 80
46 13 7
22 6 6
49 34 34
49 28 28
11 7 3
50 31 16
22 42 24
94 62 41
72 72 72
35 57 33
58 16 16
94 74 74
58 16 16
72 72 72
0 0 0
89 24 24
55 18 15
68 18 18
74 80 75
70 19 18
14 0 0
51 3 3
31 8 8
72 72 72
3 14 4
72 52 33
63 61 61
0 0 0
89 89 89
81 48 48
128 79 78
42 12 11
68 18 18
13 1 1
63 25 17
14 7 4
72 72 72
9 4 2
29 2 2
56 57 33
49 15 13
25 1 1
5 6 2
55 56 33
0 0 0
74 73 72
63 58 35
104 66 66
23 12 7
25 48 28
22 6 6
69 19 19
96 73 73
102 27 27
0 2 0
71 45 30
65 59 36
17 25 14
75 63 62
31 42 24
3 2 0
0 0 0
95 74 74
49 13 13
9 1 0
29 57 32
72 72 72
73 65 63
94 47 33
58 16 16
80 20 20
0 0 0
10 23 7
80 75 72
56 63 56
76 62 62
4 17 5
81 76 73
1 0 0
20 12 6
0 0 0
7 6 2
0 0 0
0 0 0
25 48 28
54 16 14
74 72 72
49 13 13
29 15 9
72 72 72
84 23 23
76 17 16
118 76 76
18 35 20
16 2 1
101 74 74
130 116 116
109 49 49
24 12 7
4 0 0
14 7 4
31 9 8
0 0 0
0 0 0
78 53 53
2 0 0
78 72 72
43 11 11
82 41 29
38 56 32
72 73 72
21 1 1
42 21 12
7 7 2
70 16 15
71 21 19
37 0 0
45 7 4
0 0 0
13 2 1
16 0 0
80 22 22
13 2 1
0 0 0
93 25 21
2 0 0
20 0 0
2 4 0
88 19 19
58 16 16
68 18 18
11 1 1
0 0 0
0 0 0
0 0 0
0 0 0
0 0 0
0 0 0
0 0 0
0 0 0
0 0 0
0 0 0
0 0 0
0 0 0
0 0 0
0 0 0
0 0 0
0 0 0
0 0 0
0 0 0
0 0 0
0 0 0
0 0 0
0 0 0
0 0 0
0 0 0
0 0 0
0 0 0
0 0 0
0 0 0
29 57 32
0 0 0
0 0 0
25 43 14
20 10 6
9 0 0
0 0 0
52 107 58
0 0 0
0 0 0
6 23 7
28 41 24
8 16 9
4 1 0
41 92 46
29 56 32
23 12 7
7 27 9
15 9 4
27 66 31
17 45 20
3 4 0
3 3 1
6 0 0
44 57 33
83 85 70
10 6 3
75 73 72
15 30 17
25 48 28
0 0 0
102 102 102
78 88 77
59 37 19
29 56 32
0 0 0
74 72 72
51 66 53
0 0 0
25 13 7
96 88 79
79 94 80
78 92 79
25 48 28
40 58 33
3 0 0
31 65 34
47 4 3
2 1 0
21 41 23
56 60 34
40 3 3
38 75 43
14 7 4
53 55 53
34 66 38
77 87 77
41 80 46
7 27 9
28 49 28
52 83 48
7 0 0
0 0 0
42 11 11
65 91 68
78 92 79
72 72 72
44 39 38
91 70 45
21 41 23
2 5 3
73 85 74
2 10 3
18 22 8
62 62 61
47 3 3
19 35 20
76 72 72
4 17 5
72 72 72
24 45 22
32 57 33
14 7 4
85 108 86
105 74 74
40 35 20
52 52 52
12 6 3
0 0 0
0 0 0
29 59 32
0 7 0
73 72 72
0 0 0
0 0 0
21 41 23
25 48 28
0 0 0
63 51 32
65 65 65
97 79 69
0 0 0
6 23 7
4 1 0
30 56 32
72 72 72
9 24 8
7 28 9
72 72 72
74 78 74
11 3 2
3 0 0
3 1 0
0 0 0
69 79 68
72 72 72
74 72 72
52 14 14
5 0 0
132 149 133
33 30 17
0 0 0
18 35 20
44 85 49
31 41 23
20 10 6
0 0 0
72 72 72
25 52 28
29 56 32
0 0 0
0 2 0
87 73 73
72 72 72
75 83 76
84 79 64
96 90 79
8 1 0
30 63 34
86 108 85
74 72 72
25 48 28
75 83 76
23 36 20
34 23 8
74 73 72
31 43 24
0 0 0
76 73 72
86 72 72
78 69 43
0 0 0
72 72 72
69 19 19
23 12 7
31 8 8
28 28 28
72 72 72
15 26 15
0 0 0
74 59 37
13 2 1
3 3 1
34 2 2
11 23 7
42 70 40
90 89 89
112 91 91
2 18 3
72 72 72
123 104 104
0 0 0
78 92 79
68 19 18
34 2 2
20 10 6
0 0 0
76 73 72
5 3 1
68 18 18
48 74 43
32 33 13
7 27 9
50 98 56
0 0 0
52 52 52
64 60 36
0 0 0
72 22 20
35 57 33
0 0 0
84 80 74
82 72 72
74 24 21
6 3 2
31 8 8
60 18 17
37 42 25
32 56 32
78 92 79
79 98 80
47 20 7
78 72 72
72 19 19
3 0 0
98 110 99
38 74 43
65 59 36
80 63 63
70 56 53
68 18 18
72 52 33
0 0 0
21 41 23
45 14 12
72 72 72
89 89 89
61 61 61
16 4 4
86 56 56
55 17 15
30 59 33
13 2 1
108 102 102
0 0 0
25 48 28
8 8 2
108 107 104
29 56 32
49 15 15
59 35 35
76 87 77
36 10 10
87 73 73
76 87 77
99 74 74
90 69 60
58 17 16
113 113 113
39 38 38
141 126 126
29 56 32
115 119 115
78 92 79
0 0 0
25 48 28
61 34 23
82 22 22
72 72 72
115 74 74
83 82 82
0 0 0
5 20 6
134 125 125
72 23 20
68 18 18
72 72 72
81 81 81
0 0 0
76 87 77
73 76 72
66 77 62
19 35 20
52 52 52
76 87 77
60 14 14
74 72 72
34 2 2
0 0 0
25 29 11
104 102 102
20 10 6
34 4 2
32 7 7
57 58 35
70 18 18
29 2 2
106 117 107
72 72 72
103 124 105
74 81 74
17 9 5
47 3 3
58 53 53
125 104 86
68 18 18
72 72 72
60 56 53
78 92 79
75 72 72
52 50 30
58 16 16
98 92 80
96 73 73
4 2 1
95 95 95
29 56 32
2 0 0
103 94 81
82 73 72
66 52 52
0 0 0
40 70 40
0 0 0
72 72 72
46 9 9
0 0 0
72 22 20
23 0 0
79 92 79
92 74 74
62 18 16
102 102 102
49 48 28
0 0 0
81 73 73
40 3 3
74 19 19
86 77 73
61 61 61
77 21 21
78 76 72
28 48 28
63 52 52
42 11 11
74 52 34
74 59 37
0 0 0
0 0 0
52 52 52
29 2 2
36 21 15
102 88 79
30 61 33
72 72 72
17 9 5
17 9 5
49 13 13
123 92 81
42 42 25
72 72 72
13 2 1
84 92 79
30 56 32
1 13 2
60 38 38
49 13 13
22 9 6
21 1 1
85 72 72
126 118 108
104 57 57
35 57 33
32 32 32
76 80 75
1 8 1
71 21 19
72 72 72
0 0 0
1 0 0
31 16 9
68 18 18
78 92 79
55 4 4
97 75 74
102 102 102
92 74 74
73 61 61
0 0 0
19 10 6
0 0 0
42 11 11
26 5 3
67 68 41
28 11 6
84 75 73
48 3 3
74 80 75
17 9 5
0 0 0
117 103 103
59 16 14
65 59 36
0 0 0
102 102 102
72 72 72
79 96 81
99 74 74
68 19 19
27 48 28
45 45 45
87 89 78
81 72 72
96 26 26
63 51 32
0 3 0
38 48 28
124 77 77
20 0 0
50 74 40
80 72 72
29 9 5
0 0 0
74 59 37
74 59 37
58 16 16
93 74 74
20 12 6
98 31 27
78 21 21
49 13 13
95 74 74
99 74 74
2 0 0
2 1 0
34 5 2
47 3 3
74 78 73
22 12 7
88 73 73
29 56 32
92 74 74
70 61 61
0 0 0
33 63 36
109 80 77
56 11 10
0 0 0
51 4 3
102 98 86
0 0 0
99 74 74
68 19 19
102 103 102
21 1 1
37 10 10
4 4 1
34 2 2
58 16 16
73 72 72
117 29 29
29 56 32
29 2 2
30 56 32
74 59 37
99 74 74
72 72 72
7 11 2
101 26 26
9 4 2
95 95 95
64 19 17
72 72 72
114 115 113
102 102 102
34 2 2
62 16 16
78 55 55
67 4 4
0 0 0
89 73 73
113 75 75
0 0 0
72 72 72
125 112 107
91 24 24
85 64 63
106 117 107
3 0 0
51 13 13
69 19 18
0 0 0
83 72 72
37 25 22
72 77 72
25 48 28
72 72 72
0 0 0
38 12 7
86 19 19
138 98 98
47 48 28
76 21 21
44 11 11
68 18 18
62 44 28
16 2 1
4 4 1
7 7 2
75 78 74
100 110 100
9 5 3
30 15 4
24 20 10
3 3 1
75 19 19
26 13 8
87 73 73
74 19 19
11 22 12
69 19 18
70 35 25
10 5 3
8 32 10
12 2 2
72 20 20
49 13 13
0 0 0
86 72 72
19 2 1
68 18 18
72 52 33
72 72 72
0 0 0
89 24 24
85 85 85
78 59 37
74 59 37
118 33 32
104 74 74
63 16 16
50 13 13
31 8 8
113 113 113
24 12 6
12 0 0
40 3 3
23 0 0
76 73 72
26 4 2
25 12 7
66 78 67
103 93 81
0 0 0
92 72 72
51 29 13
95 75 74
72 72 72
0 0 0
0 0 0
9 13 2
17 9 5
57 15 12
26 48 28
97 95 95
60 16 16
0 0 0
65 17 17
2 18 3
0 0 0
81 26 23
71 19 11
61 24 14
76 22 18
74 22 20
30 7 7
26 3 2
23 4 1
0 0 0
68 18 18
52 15 14
1 0 0
37 12 7
23 4 1
90 23 20
80 22 22
100 30 28
0 0 0
97 19 19
0 0 0
35 7 3
0 0 0
0 0 0
0 0 0
0 0 0
0 0 0
0 0 0
0 0 0
0 0 0
0 0 0
0 0 0
0 0 0
0 0 0
0 0 0
0 0 0
0 0 0
0 0 0
0 0 0
0 0 0
0 0 0
0 0 0
0 0 0
0 0 0
0 0 0
0 0 0
0 0 0
0 0 0
0 0 0
0 0 0
5 1 0
13 2 1
17 9 5
2 4 0
1 1 0
0 0 0
29 56 32
29 35 13
10 28 9
21 41 23
10 38 12
6 0 0
0 0 0
29 40 15
49 81 47
25 48 28
4 4 1
27 15 8
27 14 8
0 0 0
6 23 7
5 6 2
26 55 29
0 9 1
52 52 52
0 0 0
20 0 0
3 0 0
6 23 7
29 56 32
76 86 77
5 20 6
5 1 0
34 2 1
20 10 6
35 71 40
30 28 28
23 42 24
92 93 80
0 0 0
1 0 0
0 0 0
128 132 127
78 77 47
72 72 72
77 84 76
57 90 60
3 0 0
6 1 0
135 115 108
7 7 1
49 30 17
7 27 9
0 0 0
25 48 28
92 74 74
0 0 0
23 12 7
1 0 0
74 64 38
5 0 0
1 2 0
102 89 79
52 61 36
29 56 32
37 70 40
25 48 28
0 0 0
5 20 6
0 0 0
29 56 32
93 74 74
0 0 0
41 80 46
72 72 72
72 72 72
77 87 77
72 72 72
25 48 28
20 35 20
70 21 19
77 83 76
63 72 55
21 41 23
74 19 19
45 45 45
53 67 38
18 35 20
72 72 72
87 97 84
34 2 2
122 126 121
72 72 72
71 70 42
26 9 5
22 41 24
19 24 12
99 74 74
31 48 28
76 87 77
86 73 72
29 56 32
49 89 51
0 0 0
20 11 6
21 41 23
4 4 1
19 5 1
0 0 0
0 0 0
30 1 1
1 2 0
0 0 0
17 9 5
83 74 73
9 20 4
17 9 5
26 30 11
6 0 0
0 0 0
68 18 18
25 27 11
0 2 0
76 87 77
71 21 19
103 102 102
82 88 78
58 16 16
57 54 53
92 74 74
50 13 13
26 41 23
12 8 3
65 59 36
102 89 79
78 92 79
72 72 72
25 48 28
18 35 20
43 22 12
29 56 32
95 80 70
5 0 0
59 30 22
4 0 0
80 99 82
112 102 102
69 20 19
0 0 0
89 89 89
87 99 88
72 72 72
78 92 79
58 16 16
68 20 20
14 25 14
72 72 72
0 0 0
23 38 21
50 36 17
73 87 51
93 75 74
14 2 1
0 0 0
41 80 46
1 0 0
92 91 80
65 62 62
78 75 73
3 3 1
40 3 3
29 2 2
72 22 20
55 63 56
105 110 105
75 62 62
71 87 70
40 41 38
41 80 46
58 16 16
19 5 5
84 70 44
117 103 103
29 48 28
72 72 72
1 11 2
32 62 36
8 32 9
29 57 32
67 80 68
55 58 34
8 2 2
66 55 54
12 6 3
32 33 32
1 0 0
72 79 73
74 54 35
0 0 0
72 72 72
108 107 107
72 72 72
105 106 103
1 0 0
83 92 79
44 59 34
18 16 8
82 92 79
0 0 0
123 128 119
72 72 72
94 89 89
95 95 95
37 70 40
13 2 1
71 82 49
76 83 76
0 0 0
64 33 20
78 94 80
94 68 65
109 117 107
0 0 0
72 72 72
14 3 0
42 12 11
0 0 0
73 26 19
75 84 76
74 59 37
32 57 33
12 18 3
19 35 20
32 31 25
53 57 53
0 0 0
27 28 11
88 80 74
1 0 0
0 0 0
74 81 74
89 89 89
36 70 40
29 56 32
64 62 61
78 72 72
0 3 0
7 0 0
14 7 4
103 102 102
42 11 11
0 4 0
29 56 32
2 0 0
105 74 74
0 0 0
25 2 2
86 74 73
22 41 23
52 52 52
72 72 72
102 102 102
80 92 79
0 0 0
4 17 5
88 53 36
94 62 41
70 21 19
35 70 40
49 13 13
45 45 45
69 18 18
73 72 72
73 78 63
29 56 32
53 52 52
0 0 0
40 3 3
72 72 72
20 10 6
37 58 33
90 25 25
117 87 80
0 0 0
92 74 74
15 1 1
63 12 12
111 75 74
74 54 54
72 72 72
40 12 3
15 35 17
12 22 12
106 117 107
108 75 75
106 103 102
32 32 32
58 16 16
78 92 79
8 3 1
148 141 141
32 36 21
90 25 25
105 58 58
68 18 18
29 56 32
93 113 95
107 117 107
75 72 72
73 75 67
27 7 4
126 118 109
74 72 72
5 2 1
21 41 23
35 57 33
68 18 18
76 87 77
92 98 92
0 0 0
13 2 1
68 19 19
65 71 59
4 0 0
92 74 74
79 92 79
1 9 1
59 16 16
99 74 74
55 57 33
45 45 45
61 17 16
3 0 0
99 74 74
80 72 72
52 52 52
83 82 73
68 19 18
64 78 62
97 27 27
17 9 5
84 79 64
34 2 2
68 18 18
15 10 5
42 11 11
84 63 63
0 0 0
117 99 93
0 0 0
83 87 77
61 61 61
70 16 16
72 72 72
33 64 37
89 24 24
9 4 2
84 31 24
5 0 0
102 102 102
72 72 72
72 72 72
18 35 20
68 18 18
77 72 72
26 7 7
5 0 0
97 41 40
24 35 20
0 0 0
92 74 74
72 72 72
29 56 32
25 48 28
74 77 72
23 6 6
78 92 79
80 72 72
42 11 11
72 72 72
61 16 16
0 0 0
69 21 19
17 19 7
0 0 0
113 76 76
12 6 3
50 35 20
72 72 72
85 20 20
102 102 102
65 18 18
119 95 83
73 72 72
46 12 11
68 18 18
99 75 74
0 0 0
62 63 62
84 23 23
0 0 0
66 63 62
22 12 7
27 21 10
8 32 10
0 0 0
95 73 62
46 57 34
80 72 72
68 18 18
29 56 32
0 0 0
75 72 72
21 41 23
23 12 7
76 53 33
11 11 2
22 35 20
79 92 79
11 7 3
93 57 57
39 15 11
42 14 11
72 72 72
102 57 57
48 17 13
78 92 79
73 72 72
25 1 1
129 96 84
32 57 33
0 0 0
89 89 89
72 72 72
72 72 72
80 38 38
45 11 11
83 73 73
49 13 13
29 2 2
78 20 20
5 0 0
29 56 32
26 6 6
30 2 2
73 15 15
111 103 103
62 20 17
34 1 1
96 26 26
37 42 25
95 92 79
49 13 13
103 28 28
73 72 72
72 72 72
72 72 72
92 90 89
32 3 3
61 61 61
114 80 76
13 6 3
124 104 104
29 56 32
1 0 0
0 0 0
58 17 16
1 11 2
87 27 24
1 1 0
0 0 0
14 2 1
48 10 10
97 75 74
47 3 3
90 55 55
68 18 18
3 0 0
27 14 8
117 76 76
95 83 75
53 50 30
133 71 70
72 72 72
69 27 20
53 52 52
84 23 23
40 6 3
115 77 76
60 12 12
41 80 46
114 70 67
115 76 76
72 72 72
58 16 16
41 5 4
72 72 72
72 72 72
9 3 1
58 17 16
61 19 17
37 12 7
6 23 7
72 52 33
99 74 74
29 56 32
8 1 0
80 72 72
89 24 24
99 74 74
83 73 73
68 18 18
65 74 66
77 73 72
0 0 0
92 74 74
35 2 2
62 44 28
116 43 35
5 0 0
58 16 16
78 72 72
11 1 1
11 1 1
86 72 72
43 15 11
102 74 74
34 50 28
76 83 76
57 54 53
11 5 1
69 19 18
93 74 74
82 56 55
7 1 0
103 28 28
0 0 0
58 16 16
81 72 72
86 20 20
7 7 2
66 18 18
0 0 0
11 1 1
94 22 22
0 0 0
13 6 3
75 73 72
13 6 3
65 59 36
38 58 33
2 0 0
0 0 0
73 18 18
32 6 6
0 0 0
5 6 2
15 9 4
27 0 0
55 3 3
35 11 6
3 0 0
25 4 2
20 10 6
22 4 0
40 3 3
47 3 3
0 0 0
47 3 3
5 0 0
21 1 1
17 9 5
0 0 0
0 0 0
0 0 0
0 0 0
0 0 0
0 0 0
0 0 0
0 0 0
0 0 0
0 0 0
0 0 0
0 0 0
0 0 0
0 0 0
0 0 0
0 0 0
0 0 0
0 0 0
0 0 0
0 0 0
0 0 0
0 0 0
0 0 0
0 0 0
0 0 0
0 0 0
0 0 0
0 0 0
12 7 2
27 14 8
30 61 33
34 66 38
25 21 8
41 80 46
43 65 37
0 0 0
29 49 28
38 74 43
29 56 32
7 27 9
35 60 33
13 33 10
14 15 5
0 0 0
7 27 9
29 56 32
23 12 7
19 6 3
26 58 30
14 7 4
8 27 9
6 3 2
0 0 0
23 41 24
15 33 11
0 0 0
0 0 0
38 31 10
104 112 105
18 35 20
40 71 41
14 7 4
0 0 0
0 0 0
146 145 144
6 23 7
68 18 18
131 113 113
72 72 72
35 27 9
50 24 15
5 6 2
37 58 33
78 83 76
69 19 18
29 49 28
74 72 72
0 0 0
5 20 6
20 14 5
13 0 0
21 11 6
70 16 16
25 48 28
20 35 20
25 48 28
18 38 21
0 0 0
70 40 27
19 5 5
67 39 21
50 98 56
32 51 29
0 7 0
29 56 32
72 72 72
83 108 85
25 47 27
33 64 37
76 73 72
26 51 29
26 41 23
69 64 62
74 76 72
76 81 75
99 102 84
30 51 29
72 72 72
123 104 104
25 48 28
76 87 77
10 16 2
24 13 7
39 75 43
18 35 20
85 75 74
46 56 31
29 56 32
18 25 9
29 56 32
79 92 79
68 18 18
91 82 65
15 30 17
0 0 0
44 12 11
41 14 11
0 0 0
72 72 72
68 18 18
72 72 72
2 15 3
49 58 33
53 52 52
21 41 23
78 29 21
58 66 37
32 63 36
58 16 16
72 72 72
89 89 89
8 0 0
9 36 12
48 52 40
20 10 6
117 97 97
43 54 31
20 35 20
41 80 46
63 57 53
103 93 81
58 103 59
78 92 79
92 83 66
0 0 0
72 22 20
29 56 32
78 89 78
81 72 72
0 0 0
74 72 72
104 100 83
23 30 14
72 79 73
58 19 17
53 62 37
2 15 3
7 7 4
0 1 0
1 1 0
93 74 74
24 19 8
74 72 72
0 0 0
0 0 0
14 24 8
58 16 16
49 13 13
72 72 72
37 58 33
0 0 0
38 57 33
54 55 52
29 56 32
12 19 5
72 72 72
36 10 10
33 17 10
75 73 72
0 0 0
89 89 89
6 1 0
72 72 72
110 103 103
44 80 46
23 12 7
47 16 13
41 80 46
23 14 7
17 4 3
81 64 63
94 75 74
84 19 19
6 24 7
0 1 0
74 16 16
70 40 27
72 64 63
0 0 0
18 37 20
23 12 7
74 83 75
13 13 4
75 83 76
68 20 19
21 41 23
18 35 20
15 30 17
76 87 77
29 56 32
141 140 131
39 76 43
0 0 0
29 56 32
72 72 72
29 56 32
0 0 0
29 56 32
68 18 18
15 7 4
55 52 52
23 12 7
86 92 80
72 31 30
4 4 1
0 0 0
25 48 28
68 18 18
82 97 81
25 48 28
99 74 74
49 17 14
2 18 3
69 41 41
29 58 33
0 0 0
72 72 72
1 8 1
0 0 0
0 0 0
40 15 4
55 50 31
16 2 1
71 30 28
21 41 23
72 72 72
29 56 32
0 0 0
94 106 95
102 102 102
78 72 72
72 72 72
6 23 7
47 3 3
35 58 33
68 18 18
83 73 73
76 72 72
78 55 55
101 93 81
0 0 0
72 72 72
72 72 72
55 50 31
56 53 53
72 72 72
0 0 0
72 72 72
0 0 0
82 19 19
77 83 76
0 0 0
47 81 46
0 0 0
10 5 3
82 104 84
0 0 0
1 13 2
25 48 28
68 37 21
0 0 0
81 78 74
55 50 31
56 38 24
123 104 104
6 23 7
4 1 0
59 53 53
22 6 6
4 2 0
72 72 72
31 8 8
93 73 73
25 48 28
100 26 26
112 94 82
36 13 10
78 92 79
72 73 72
72 72 72
89 89 89
70 35 25
56 53 52
92 48 34
54 50 31
57 82 60
62 83 64
72 72 72
21 41 23
78 98 65
75 80 75
81 73 73
84 87 77
59 16 16
21 45 24
92 93 80
72 72 72
98 85 78
21 41 23
68 18 18
73 72 72
68 18 18
13 0 0
51 31 18
27 3 1
30 42 31
84 23 23
2 2 0
60 34 23
116 85 78
38 33 12
149 106 106
72 72 72
12 32 10
96 90 90
87 73 73
95 75 74
29 56 32
49 13 13
29 56 32
72 72 72
102 102 102
58 27 17
87 73 73
34 2 2
72 72 72
16 3 1
72 72 72
72 72 72
31 11 8
48 10 10
62 77 62
134 116 115
89 24 24
0 3 0
58 16 16
58 16 16
14 7 4
75 20 18
34 57 32
76 83 76
31 8 8
0 0 0
72 52 33
60 38 38
112 31 31
72 72 72
104 67 44
59 16 16
58 17 16
42 14 11
65 59 36
66 52 52
90 29 25
99 74 74
12 6 3
5 0 0
101 74 74
59 53 53
21 41 23
95 95 95
85 63 63
0 0 0
108 102 102
96 26 26
103 102 102
17 33 11
38 74 43
2 0 0
0 0 0
71 72 65
73 72 72
7 1 0
88 78 74
60 18 17
18 35 20
42 10 8
102 102 102
52 54 53
142 134 130
68 18 18
110 101 89
0 1 0
70 21 19
92 90 89
74 72 72
58 16 16
0 0 0
44 34 16
7 27 9
72 72 72
67 24 19
90 89 89
68 18 18
72 72 72
4 0 0
68 23 19
48 57 34
22 6 6
18 35 20
10 33 12
9 13 3
26 7 7
68 18 18
27 42 24
68 18 18
127 120 120
75 68 59
69 28 20
5 0 0
89 61 40
32 0 0
100 27 27
15 5 0
12 6 3
20 10 6
51 45 45
74 78 74
72 53 53
6 17 5
68 19 19
49 13 13
36 32 32
72 74 72
90 89 89
86 72 72
0 0 0
73 47 47
68 18 18
29 56 32
14 3 1
52 52 52
68 18 18
84 23 23
131 104 104
68 30 20
150 107 106
12 6 3
79 72 72
23 0 0
42 11 11
125 77 77
3 3 1
68 19 19
98 73 73
100 89 89
48 11 11
51 58 34
62 57 33
71 45 30
90 22 22
99 74 74
7 27 9
102 102 102
0 0 0
76 73 72
79 55 55
115 76 76
50 14 13
72 72 72
21 41 23
17 9 5
114 113 109
79 73 72
80 76 75
72 72 72
102 106 102
62 46 46
6 0 0
102 106 102
74 72 72
0 0 0
8 32 10
0 0 0
25 1 1
24 24 24
19 33 12
21 14 5
0 0 0
77 72 72
98 31 27
13 22 12
0 0 0
0 0 0
111 75 75
15 30 17
0 0 0
49 13 13
0 0 0
29 40 20
51 11 7
75 23 20
68 18 18
101 75 74
102 102 102
34 2 2
43 11 11
57 13 13
4 2 0
26 11 6
0 1 0
10 1 0
68 18 18
100 74 74
74 72 72
62 20 17
98 26 26
0 0 0
92 74 74
0 0 0
82 22 22
80 60 38
109 74 74
72 21 20
63 80 65
76 72 72
68 18 18
91 74 74
146 80 80
15 1 1
29 56 32
95 95 95
33 27 12
75 73 72
0 0 0
0 1 0
99 77 75
3 0 0
72 19 19
20 20 20
58 16 16
58 16 16
62 20 17
20 10 6
48 50 30
3 1 0
45 45 45
57 56 33
23 13 7
72 63 62
65 18 18
74 72 72
72 72 72
36 25 12
75 73 72
42 11 11
50 13 13
2 0 0
34 2 2
46 11 6
74 24 20
39 21 12
0 0 0
57 3 3
55 15 9
27 14 8
9 8 2
50 13 13
8 4 1
0 0 0
53 17 14
63 14 12
82 24 23
73 24 20
36 10 10
19 6 2
58 16 16
0 0 0
0 0 0
0 0 0
4 1 0
0 0 0
0 0 0
0 0 0
0 0 0
0 0 0
0 0 0
0 0 0
0 0 0
0 0 0
0 0 0
0 0 0
0 0 0
0 0 0
0 0 0
0 0 0
0 0 0
0 0 0
0 0 0
0 0 0
0 0 0
0 0 0
0 0 0
0 0 0
0 0 0
0 0 0
0 0 0
0 0 0
9 6 2
0 0 0
29 56 32
8 8 2
0 0 0
33 17 10
17 3 1
15 30 17
41 80 46
0 0 0
26 56 29
12 6 3
34 66 38
41 74 43
29 56 32
9 30 6
15 10 3
7 29 9
25 48 28
25 47 25
9 8 2
40 59 33
2 0 0
0 1 0
36 10 10
112 113 106
3 3 1
17 9 5
33 33 32
88 80 74
29 60 33
122 130 122
73 72 72
25 50 28
12 16 3
72 63 62
64 87 66
40 38 38
75 73 72
72 72 72
43 73 41
19 36 20
5 4 1
15 15 4
5 0 0
75 75 73
4 17 5
21 41 23
4 0 0
0 0 0
1 0 0
1 1 0
0 0 0
6 23 7
31 60 33
58 17 16
79 96 81
10 21 11
0 0 0
0 0 0
18 35 20
25 48 28
21 41 23
83 73 73
0 0 0
0 0 0
22 34 12
0 0 0
89 91 89
2 0 0
30 63 34
30 61 33
36 70 40
84 104 84
33 64 37
72 72 72
72 72 72
0 0 0
61 61 61
25 51 28
80 94 78
102 102 102
23 13 7
8 16 9
74 72 72
0 0 0
30 61 33
82 90 83
0 0 0
73 72 72
3 0 0
29 59 33
81 92 79
43 63 36
28 48 28
5 20 6
29 58 32
98 96 95
72 72 72
0 0 0
41 80 46
0 0 0
62 61 61
85 114 88
32 56 32
19 32 10
16 30 17
107 102 102
31 64 35
78 87 77
78 74 73
68 18 18
91 88 78
33 63 36
42 3 3
0 0 0
61 81 46
72 72 72
0 0 0
29 56 32
4 0 0
118 92 92
80 88 77
78 92 79
4 5 1
16 2 1
45 45 45
73 79 74
80 100 82
43 34 16
30 59 34
72 75 72
1 0 0
0 0 0
50 59 33
59 16 16
72 72 72
105 105 105
79 85 77
31 57 33
2 18 3
7 27 9
86 64 64
37 44 25
78 92 79
49 56 32
102 102 102
29 56 32
29 56 32
30 52 28
72 72 72
71 21 19
91 88 78
42 57 32
0 0 0
30 56 32
99 57 57
17 23 8
72 72 72
75 63 39
22 6 6
76 71 43
5 20 6
72 72 72
80 98 82
0 0 0
99 74 74
25 48 28
36 10 10
32 32 32
69 19 18
0 0 0
63 33 30
42 78 44
106 82 76
1 2 0
25 48 28
72 72 72
34 50 28
18 1 1
102 102 102
20 19 6
72 72 72
45 11 11
2 0 0
37 80 42
72 72 72
98 114 98
81 48 48
18 1 1
34 5 2
120 114 107
49 13 13
8 32 10
38 38 38
0 0 0
68 24 19
68 19 18
29 57 32
75 83 76
78 92 79
0 1 0
163 167 163
70 61 61
62 27 17
72 72 72
23 36 20
81 73 73
99 74 74
29 56 32
10 1 0
0 0 0
29 56 32
68 18 18
65 40 27
5 0 0
73 73 57
0 0 0
56 64 55
29 56 32
75 83 76
25 48 28
0 5 0
100 111 101
72 72 72
62 44 28
75 80 75
5 3 1
3 12 4
72 72 72
0 6 1
0 0 0
62 62 61
89 24 24
77 78 67
51 13 13
25 48 28
118 128 119
38 75 43
80 92 79
68 24 19
19 3 1
86 75 73
72 72 72
0 0 0
97 64 59
18 35 20
87 73 73
45 48 45
18 35 20
58 28 18
65 59 36
6 16 5
35 56 32
83 72 72
21 42 23
46 57 34
0 0 0
142 135 127
26 51 29
58 16 16
74 72 72
31 57 33
111 103 103
44 57 33
28 30 17
52 52 52
25 48 28
104 108 104
78 72 72
58 16 16
63 53 52
104 26 26
55 10 6
0 0 0
0 0 0
72 72 72
68 84 70
58 16 16
123 104 104
76 59 37
13 2 1
68 18 18
14 7 4
69 19 18
71 22 20
81 73 73
0 0 0
5 5 1
102 102 102
65 65 37
94 82 82
21 41 23
77 72 72
102 102 102
33 46 17
0 0 0
29 2 2
0 0 0
72 20 20
84 84 76
72 52 33
42 11 11
72 72 72
75 60 38
58 16 16
72 72 72
0 0 0
75 83 76
102 102 102
30 57 32
50 23 15
73 72 72
0 0 0
0 0 0
6 23 7
78 92 79
99 81 81
68 18 18
72 72 72
68 33 21
148 148 148
25 48 28
11 1 1
36 10 10
25 36 21
110 74 74
72 72 72
17 27 9
3 0 0
102 102 102
81 73 72
39 8 8
86 82 75
74 22 20
0 0 0
72 72 72
113 103 103
88 73 73
23 12 7
40 3 3
1 0 0
78 92 79
95 75 74
0 0 0
0 0 0
119 119 119
45 49 45
40 4 3
84 101 58
73 72 72
69 86 70
24 13 7
0 0 0
143 128 128
25 48 28
37 18 10
42 11 11
68 19 18
35 8 3
131 116 116
94 41 30
0 0 0
102 102 102
73 72 72
29 56 32
0 0 0
102 102 102
78 92 79
68 45 30
88 93 78
19 30 17
61 61 61
17 2 0
82 60 39
1 7 1
9 28 9
95 81 70
33 17 10
21 41 23
106 105 105
8 32 10
20 8 4
58 16 16
80 72 72
39 38 38
0 0 0
105 106 95
111 102 102
2 15 3
13 0 0
91 25 24
74 19 19
29 56 32
0 0 0
58 16 16
29 2 2
81 73 73
25 1 1
72 72 72
68 78 67
25 1 1
68 18 18
13 25 14
0 0 0
42 11 11
72 73 72
0 0 0
30 17 6
34 2 2
0 0 0
58 16 16
0 0 0
0 0 0
127 104 104
18 1 1
78 72 72
13 25 14
72 72 72
0 0 0
66 63 62
72 72 72
97 29 27
52 52 52
99 74 74
99 26 26
62 44 28
85 77 73
72 72 72
82 72 72
32 63 36
7 7 2
0 0 0
1 1 0
72 77 72
99 74 74
39 12 11
9 2 0
65 62 62
3 0 0
47 3 3
76 87 77
0 0 0
0 0 0
3 0 0
52 80 46
0 0 0
89 24 24
59 25 17
5 3 1
109 75 75
22 20 11
68 18 18
0 0 0
115 111 106
72 74 72
75 20 20
76 87 77
0 0 0
102 102 102
70 18 18
20 0 0
29 56 32
0 0 0
7 1 0
94 83 83
91 61 38
0 0 0
29 56 32
40 20 7
93 77 73
61 54 53
2 0 0
58 46 45
88 73 73
72 52 33
112 77 61
20 10 6
84 53 35
84 21 20
89 24 23
18 35 20
97 95 95
75 74 74
52 52 52
70 18 18
51 29 20
72 72 72
36 57 33
80 72 72
96 86 72
20 1 1
49 13 13
89 56 56
35 14 10
0 0 0
20 7 4
69 19 18
5 4 1
114 103 102
7 0 0
102 28 28
67 32 32
26 2 2
72 72 72
76 73 72
15 30 17
72 72 72
17 9 5
21 1 1
34 2 2
0 0 0
68 18 18
72 76 72
84 60 38
2 1 0
8 32 10
87 73 73
66 61 61
0 0 0
75 72 72
18 1 1
21 31 10
20 10 6
26 7 7
47 3 3
65 53 53
0 0 0
50 13 13
0 0 0
58 10 5
82 19 19
32 49 28
32 0 0
78 46 31
6 0 0
5 5 1
29 2 2
29 56 32
9 0 0
52 52 52
1 0 0
106 91 91
21 41 23
13 5 3
36 33 33
107 59 58
49 13 13
0 0 0
34 2 2
30 2 1
23 2 1
0 0 0
70 21 19
0 0 0
19 5 5
29 14 8
1 0 0
5 0 0
22 3 1
15 1 1
79 22 22
79 22 22
45 15 9
79 22 22
36 19 11
43 23 13
80 16 16
19 2 1
27 14 8
23 12 7
73 19 19
2 0 0
0 0 0
0 0 0
0 0 0
0 0 0
0 0 0
0 0 0
0 0 0
0 0 0
0 0 0
0 0 0
0 0 0
0 0 0
0 0 0
0 0 0
0 0 0
0 0 0
0 0 0
0 0 0
0 0 0
0 0 0
0 0 0
0 0 0
0 0 0
0 0 0
0 0 0
0 0 0
0 0 0
34 66 38
29 56 32
0 0 0
7 27 9
2 15 3
22 12 6
7 0 0
34 66 38
6 0 0
0 0 0
4 0 0
2 1 0
26 58 29
23 40 21
7 27 9
3 0 0
5 12 2
41 58 33
30 38 21
28 21 9
38 74 43
8 32 10
30 45 22
10 38 12
6 12 2
7 7 2
87 33 33
8 32 10
34 51 28
97 89 79
24 12 7
27 29 10
53 57 53
32 63 36
32 49 28
17 9 5
6 23 7
0 0 0
72 72 72
0 0 0
0 0 0
0 0 0
92 104 85
0 0 0
68 19 18
36 7 4
27 10 6
91 92 79
45 56 32
7 3 0
101 75 75
83 108 85
35 66 34
57 69 59
0 0 0
13 31 10
23 12 7
26 32 18
18 35 20
72 72 72
41 80 46
95 99 95
68 18 18
5 1 0
99 110 100
22 42 24
72 72 72
23 12 7
98 90 89
25 48 28
68 23 19
36 63 36
96 86 72
21 41 23
106 67 54
39 77 44
68 20 19
17 14 5
11 1 1
5 20 6
93 79 74
14 7 4
70 60 37
68 65 40
37 61 40
101 74 74
89 79 79
36 70 40
8 32 10
26 30 11
102 91 79
118 104 85
106 117 107
8 1 0
0 0 0
51 58 33
16 17 10
46 45 45
73 79 73
58 16 16
11 22 12
0 0 0
88 72 72
75 63 39
0 1 0
105 103 102
36 65 34
20 8 4
34 50 28
92 28 25
0 9 1
29 57 32
29 56 32
31 48 28
56 58 35
72 72 72
59 36 19
0 0 0
36 10 10
34 35 33
73 73 72
100 105 85
59 58 35
94 106 95
29 56 32
72 72 72
25 48 28
0 0 0
29 56 32
34 66 38
72 72 72
38 74 43
35 60 35
74 78 74
45 57 34
39 71 41
62 62 61
26 48 28
18 5 3
42 8 5
49 13 13
42 59 34
62 20 17
78 92 79
72 72 72
53 72 55
63 21 17
51 50 30
29 58 32
137 116 108
0 3 0
76 87 77
58 71 59
71 45 30
0 3 0
29 48 28
4 10 1
19 47 21
54 60 35
58 16 16
58 16 16
76 73 72
47 28 19
80 100 82
0 0 0
8 8 2
80 72 72
50 35 20
21 41 23
161 140 132
1 11 2
68 18 18
61 61 61
9 18 10
117 106 103
74 59 37
38 74 43
0 0 0
80 92 79
84 75 73
78 92 79
27 14 8
17 9 5
98 89 89
60 79 62
75 20 19
87 74 73
7 7 2
47 16 13
21 41 23
17 19 10
0 0 0
80 94 80
36 10 10
80 72 72
80 72 72
5 16 3
58 16 16
51 58 34
0 0 0
15 21 8
25 48 28
0 0 0
89 88 87
0 0 0
2 0 0
85 85 85
72 72 72
0 0 0
34 4 2
49 13 13
40 3 3
73 72 72
103 75 48
83 73 73
29 57 32
34 2 2
68 18 18
2 0 0
14 7 4
117 97 97
74 73 72
46 57 33
1 0 0
30 56 32
75 60 38
0 1 0
136 92 83
5 5 1
73 72 72
82 83 50
105 74 74
54 53 53
72 72 72
75 73 72
0 0 0
5 17 5
77 83 76
128 132 127
78 92 79
87 92 79
87 73 73
73 72 72
3 0 0
0 0 0
107 120 108
36 10 10
72 72 72
7 7 2
39 57 33
68 18 18
72 72 72
72 72 72
78 92 79
72 72 72
0 0 0
29 56 32
68 28 20
82 73 72
10 5 3
71 40 27
72 72 72
100 81 76
0 0 0
72 72 72
93 74 74
86 92 80
36 10 10
23 12 7
75 85 75
72 72 72
0 0 0
4 18 3
24 46 24
72 72 72
29 2 2
0 0 0
106 88 84
29 56 32
42 56 32
129 139 130
68 18 18
61 61 61
0 0 0
17 9 5
6 23 7
42 80 46
8 32 10
68 18 18
0 0 0
58 16 16
0 0 0
58 16 16
68 21 18
89 89 89
79 93 80
3 0 0
74 60 37
73 73 57
34 2 2
41 81 46
46 41 24
72 22 20
47 2 2
3 3 1
68 18 18
42 80 46
91 92 79
23 12 7
67 61 61
72 83 70
65 74 66
29 57 32
15 30 17
4 0 0
93 68 65
49 13 13
99 74 74
36 10 10
55 50 31
8 1 0
98 88 79
75 73 72
72 72 72
72 72 72
73 72 72
70 21 19
5 14 4
102 102 102
0 0 0
72 72 72
91 96 91
102 102 102
126 112 102
90 95 90
94 83 77
13 25 14
72 73 72
72 73 72
88 69 41
91 24 24
69 41 41
54 80 56
78 73 72
7 7 2
0 0 0
68 19 19
14 26 15
32 49 28
29 56 32
22 4 2
26 30 11
17 9 5
78 92 79
68 18 18
30 49 28
102 75 74
16 30 17
99 74 74
74 78 74
0 1 0
72 77 72
57 58 35
0 0 0
7 24 8
105 80 79
54 43 27
0 0 0
103 95 92
78 67 63
73 72 72
20 11 6
98 95 95
30 53 28
63 51 32
102 103 102
25 10 2
88 73 73
64 14 14
0 0 0
36 11 10
17 9 5
3 1 0
97 79 65
42 9 5
49 13 13
0 0 0
31 11 9
52 39 24
73 72 72
21 3 1
0 0 0
24 41 24
89 82 82
94 89 89
102 75 75
10 2 0
82 60 39
80 22 22
77 60 38
68 18 18
81 71 59
75 83 76
89 24 24
0 0 0
96 27 26
0 0 0
52 52 52
103 102 102
92 27 25
13 1 1
5 20 6
100 74 74
52 17 14
111 76 76
100 74 74
54 79 56
61 61 61
95 99 95
36 10 10
93 25 24
84 23 23
49 13 13
0 0 0
13 26 14
134 78 78
7 27 9
74 19 19
68 18 18
67 36 36
43 11 11
20 0 0
37 8 5
90 26 25
58 16 16
15 30 17
76 73 72
70 19 18
68 18 18
68 18 18
58 20 16
5 0 0
68 19 18
24 11 6
12 0 0
7 0 0
57 50 30
58 16 16
21 12 6
47 45 45
52 52 52
71 19 19
0 0 0
75 55 54
76 32 24
0 3 0
101 75 74
107 74 74
11 3 0
40 3 3
123 32 32
74 62 57
37 2 2
42 11 11
107 102 102
0 0 0
54 21 15
71 19 19
82 23 22
80 92 79
103 74 74
87 87 87
93 74 74
69 19 19
71 18 18
0 0 0
99 74 74
14 0 0
20 48 23
58 19 16
0 0 0
28 10 6
124 53 41
70 37 26
102 102 102
59 72 55
100 51 51
29 56 32
109 73 73
4 17 5
59 17 16
7 7 2
72 72 72
75 69 59
100 74 74
59 16 16
103 93 81
6 25 8
72 72 72
102 78 75
59 54 53
82 19 19
68 18 18
62 61 61
42 11 11
5 0 0
64 53 53
41 57 33
102 50 36
84 92 79
0 0 0
83 82 82
12 6 3
76 73 72
0 0 0
20 10 6
128 109 105
9 20 6
103 75 75
19 5 5
75 17 16
102 75 74
58 16 16
0 0 0
30 65 34
68 20 19
28 3 3
58 16 16
32 0 0
75 81 75
53 33 33
5 0 0
72 72 72
88 74 73
72 72 72
75 72 72
42 11 11
36 10 10
50 14 13
54 11 11
76 87 77
4 2 0
8 0 0
80 22 22
34 2 2
20 10 6
13 25 14
0 0 0
13 0 0
49 13 7
41 9 4
72 5 5
20 4 1
54 15 9
61 20 16
29 14 8
55 4 4
78 23 21
0 0 0
68 18 18
81 22 22
89 27 24
107 29 29
39 12 7
6 1 0
55 4 4
0 0 0
76 19 19
0 0 0
64 14 14
1 0 0
0 3 0
0 0 0
0 0 0
0 0 0
0 0 0
0 0 0
0 0 0
0 0 0
0 0 0
0 0 0
0 0 0
0 0 0
0 0 0
0 0 0
0 0 0
0 0 0
0 0 0
0 0 0
0 0 0
0 0 0
0 0 0
0 0 0
0 0 0
0 0 0
0 0 0
0 0 0
0 0 0
0 0 0
0 0 0
0 0 0
29 17 9
30 57 32
25 48 28
20 10 6
25 48 28
40 58 33
3 0 0
1 6 0
0 0 0
30 65 34
7 27 9
33 33 13
40 80 44
25 48 28
10 38 12
0 0 0
0 0 0
16 13 5
33 56 32
37 58 33
0 0 0
28 37 21
24 30 11
0 0 0
1 0 0
0 0 0
7 27 9
21 42 24
25 48 28
21 42 24
39 77 44
1 3 0
35 68 39
73 72 72
73 72 72
76 87 77
8 2 0
4 12 4
34 50 28
101 74 73
51 10 6
109 102 102
22 49 25
78 92 79
3 3 1
25 48 28
0 0 0
77 90 78
0 0 0
10 5 3
70 55 54
31 25 11
0 0 0
29 56 32
72 72 72
0 0 0
73 78 73
62 61 61
82 104 84
31 43 25
30 56 32
5 5 1
99 110 100
34 66 38
74 74 74
35 57 33
87 75 73
42 11 11
0 0 0
8 32 10
72 88 50
62 58 34
32 17 10
24 13 6
54 57 53
25 52 28
50 74 37
52 52 52
1 0 0
104 108 104
25 48 28
56 61 35
20 10 6
96 26 26
61 61 61
72 72 72
6 24 7
120 104 103
68 18 18
98 95 95
1 12 1
22 45 24
73 58 35
30 65 34
72 85 70
17 5 2
0 0 0
25 51 28
25 41 23
0 0 0
75 47 31
58 16 16
63 73 63
59 25 19
66 78 67
5 20 6
0 0 0
72 72 72
51 66 53
59 16 16
1 0 0
95 92 90
29 56 32
71 81 49
80 72 72
10 7 3
68 18 18
0 0 0
0 0 0
11 4 2
72 72 72
7 27 9
50 14 13
80 22 22
22 12 6
29 57 33
32 56 32
8 32 10
27 18 8
49 49 30
72 77 72
27 7 7
58 32 18
0 0 0
57 58 35
25 48 28
73 72 72
76 72 72
61 19 17
36 70 40
72 72 72
45 56 32
5 3 1
76 87 77
11 5 0
78 72 72
46 65 46
89 89 89
57 58 35
43 16 12
21 41 23
25 48 28
108 124 110
72 73 72
125 114 107
81 94 80
6 26 8
72 77 72
1 3 0
60 69 51
63 53 32
50 15 14
110 87 87
78 97 80
78 92 79
69 18 18
73 72 72
106 111 101
68 18 18
2 0 0
125 116 116
33 63 34
11 22 12
47 3 3
99 75 74
82 104 84
5 20 6
106 84 84
63 52 52
61 61 61
0 0 0
72 72 72
54 53 52
49 85 49
71 45 30
103 102 102
0 0 0
72 72 72
55 74 43
38 58 33
40 3 3
30 48 28
82 87 81
62 53 52
6 16 7
10 7 2
26 9 5
92 74 74
28 28 28
92 74 74
0 0 0
7 1 0
9 0 0
104 94 81
57 109 63
71 45 30
72 72 72
40 3 3
29 56 32
71 67 54
54 13 13
47 11 11
1 3 0
26 50 28
86 73 72
72 72 72
43 10 10
0 0 0
0 0 0
44 4 3
10 16 9
22 47 25
0 0 0
88 92 80
68 18 18
70 40 27
38 74 43
101 85 78
72 75 72
119 76 76
44 85 48
38 38 38
111 105 103
30 6 3
7 27 9
2 0 0
0 0 0
70 61 61
110 77 75
18 35 20
0 0 0
0 0 0
52 52 52
65 59 36
76 59 37
96 88 79
112 122 113
102 102 102
49 61 51
88 122 92
26 58 30
80 73 73
40 3 3
29 2 2
4 17 5
74 72 72
38 62 36
7 0 0
6 0 0
5 20 6
7 4 1
69 42 22
78 92 79
36 16 10
96 23 23
4 1 0
56 74 56
18 38 21
5 5 1
36 10 10
53 13 13
75 75 75
82 22 22
10 1 0
40 27 9
68 18 18
84 78 74
79 96 81
72 72 72
44 42 24
29 15 9
29 56 32
34 10 3
0 0 0
72 72 72
128 140 126
24 5 1
37 56 32
53 64 36
89 24 24
42 80 46
13 26 14
75 72 72
64 67 58
71 27 20
93 74 74
3 14 4
82 19 19
65 71 60
75 54 53
72 73 72
47 3 3
4 0 0
1 1 0
52 52 52
5 0 0
28 2 2
72 72 72
68 18 18
31 57 32
80 72 72
78 84 76
68 20 19
84 71 54
58 17 16
73 21 20
106 102 102
88 76 73
94 74 74
58 16 16
14 25 14
87 73 73
20 10 6
48 26 26
60 64 56
86 62 37
72 75 72
49 28 28
58 19 16
38 38 38
58 16 16
60 18 17
72 18 18
81 73 73
106 85 78
0 0 0
115 109 105
78 78 74
40 46 40
0 0 0
51 14 14
99 74 74
32 48 28
0 0 0
106 117 107
2 15 3
23 31 18
26 7 7
96 26 26
14 5 2
6 0 0
98 95 82
109 109 109
79 56 44
72 72 72
0 0 0
125 125 125
0 0 0
72 72 72
96 109 87
123 104 104
44 43 35
103 102 102
68 14 14
39 58 33
29 48 28
105 102 102
77 72 72
49 13 13
138 126 126
9 32 10
28 9 8
0 0 0
29 56 32
126 80 78
108 102 102
108 122 109
79 84 76
0 0 0
29 56 32
72 72 72
42 13 7
72 72 72
54 14 9
78 72 72
65 82 49
17 9 5
93 74 74
71 16 16
46 12 12
91 74 74
0 0 0
0 0 0
99 74 74
99 74 74
52 52 52
19 45 22
0 0 0
85 63 63
103 93 81
20 0 0
84 25 23
9 18 10
97 74 74
29 56 32
85 22 22
68 19 18
49 13 13
68 18 18
89 24 24
6 0 0
61 61 61
122 91 91
0 0 0
65 72 63
58 16 16
31 8 8
78 81 75
40 11 11
64 43 27
99 74 74
67 58 53
104 74 74
105 113 106
103 74 74
27 48 28
49 13 13
68 18 18
58 16 16
82 72 72
117 80 78
78 72 72
45 15 12
82 72 72
118 32 32
8 4 1
58 58 33
99 74 74
54 52 52
0 0 0
72 16 16
72 22 20
0 0 0
12 6 3
72 72 72
25 48 28
5 0 0
73 20 20
27 7 4
26 10 3
92 74 74
99 57 57
4 1 0
51 11 7
49 10 5
68 18 18
78 92 79
89 89 89
72 20 20
82 31 31
96 26 26
64 62 62
83 72 72
69 19 18
23 5 5
68 18 18
0 0 0
72 72 72
50 13 13
70 40 27
51 63 34
68 18 18
16 2 1
98 74 74
13 23 7
59 16 16
123 104 104
72 52 33
10 5 3
14 7 4
123 34 34
17 32 10
109 33 31
68 18 18
69 19 19
80 72 72
24 18 8
50 35 20
97 31 27
134 77 77
27 1 0
82 72 72
99 74 74
102 75 75
52 13 13
18 9 5
107 27 27
27 7 4
72 72 72
110 30 30
78 92 79
77 28 23
60 14 13
27 12 7
75 73 72
36 10 10
14 17 5
61 55 53
77 75 74
0 0 0
0 0 0
152 100 100
79 19 19
66 52 47
91 26 25
74 16 16
69 41 41
70 59 36
0 0 0
25 48 28
72 72 72
11 1 1
0 0 0
48 17 13
74 78 74
68 62 38
72 72 72
95 24 24
78 21 21
34 2 2
77 20 19
4 1 0
106 103 102
74 72 72
52 52 52
0 0 0
0 0 0
0 0 0
29 2 2
92 89 89
9 4 2
55 38 38
41 3 3
96 95 95
72 76 72
54 44 25
118 32 32
0 0 0
40 3 3
63 21 17
64 9 9
53 13 8
80 16 16
61 16 16
51 3 3
65 5 4
0 0 0
23 0 0
28 14 8
27 14 8
0 0 0
104 27 26
6 6 2
1 2 0
89 24 24
36 10 10
57 4 4
34 17 9
1 0 0
27 14 8
0 0 0
21 1 1
0 0 0
0 0 0
0 0 0
0 0 0
0 0 0
0 0 0
0 0 0
0 0 0
0 0 0
0 0 0
0 0 0
0 0 0
0 0 0
0 0 0
0 0 0
0 0 0
0 0 0
0 0 0
0 0 0
0 0 0
0 0 0
0 0 0
0 0 0
0 0 0
0 0 0
0 0 0
0 0 0
0 0 0
0 0 0
27 26 9
27 12 7
21 41 23
20 10 6
9 9 3
23 39 13
36 66 38
0 0 0
7 1 0
11 33 11
0 0 0
0 0 0
4 21 4
42 80 46
0 0 0
30 63 34
15 8 4
20 11 4
10 1 0
29 35 13
31 54 25
5 5 1
26 56 29
25 48 28
5 2 0
18 29 10
31 47 25
13 25 14
72 72 72
0 0 0
72 76 72
11 11 2
4 17 5
34 33 19
95 27 26
13 2 1
8 1 0
25 48 28
56 52 52
2 4 0
29 56 32
0 0 0
44 88 49
2 2 0
72 35 22
48 44 26
46 38 38
68 37 21
6 23 7
63 51 32
13 25 14
81 72 72
21 41 23
0 0 0
16 2 1
4 2 1
75 83 76
34 2 2
75 87 76
29 56 32
25 48 28
0 0 0
38 75 43
15 6 3
29 56 32
30 61 33
51 13 13
0 0 0
20 10 6
102 102 102
17 0 0
43 13 11
59 16 16
85 117 89
0 0 0
12 9 1
2 13 2
72 72 72
82 104 84
0 0 0
13 32 15
49 42 24
44 68 37
45 45 24
99 73 73
0 0 0
9 32 10
0 0 0
117 103 103
35 68 39
18 35 20
73 75 73
74 59 37
25 48 28
30 56 32
25 48 28
36 70 40
37 73 42
29 56 32
85 80 64
17 9 5
78 96 70
76 87 77
20 45 20
24 30 11
102 106 102
68 83 70
25 48 28
32 49 28
29 56 32
33 56 32
29 60 33
32 63 36
53 72 55
29 56 32
52 52 52
72 72 72
16 4 1
76 87 77
81 81 81
2 0 0
0 0 0
6 23 7
8 32 10
21 10 6
2 15 3
79 92 79
106 115 94
85 73 73
82 82 82
63 41 41
72 72 72
51 13 13
67 47 47
70 79 68
34 2 2
31 56 32
32 63 36
8 29 9
39 80 44
74 59 37
25 48 28
8 28 9
3 1 0
1 1 0
6 0 0
72 72 72
19 2 1
31 37 20
68 18 18
126 127 125
31 57 32
0 0 0
0 0 0
29 56 32
25 49 28
32 18 3
41 7 7
63 62 62
68 18 18
58 16 16
93 58 38
8 0 0
43 58 33
105 102 102
34 2 2
76 79 74
29 56 32
2 18 3
9 18 10
72 72 72
0 0 0
29 56 32
32 61 34
41 49 42
82 72 72
106 117 107
26 55 29
79 95 79
80 73 72
84 53 35
6 24 7
72 72 72
100 89 79
7 18 4
86 87 77
103 75 75
60 18 16
51 58 34
107 83 78
72 72 72
24 46 26
14 7 4
74 78 73
49 13 13
72 76 72
20 10 6
0 0 0
77 83 76
85 76 74
5 20 6
75 83 76
35 30 17
0 0 0
79 92 79
29 56 32
1 0 0
107 82 82
59 32 18
8 32 10
54 53 53
0 0 0
4 0 0
74 72 72
44 79 45
103 108 104
79 79 79
81 72 72
10 2 2
0 2 0
42 11 11
43 12 11
36 11 10
20 12 4
0 0 0
0 0 0
5 20 6
74 59 37
72 72 72
11 1 1
0 0 0
43 26 14
80 72 72
77 73 72
78 92 79
102 102 102
68 18 18
122 122 113
67 68 41
72 60 55
32 1 1
3 0 0
76 19 19
60 16 16
61 61 61
76 87 77
88 92 79
63 52 33
61 37 22
68 18 18
78 75 67
7 0 0
54 52 52
31 12 7
21 41 23
25 48 28
72 72 72
102 103 102
5 15 3
42 11 11
77 77 77
75 83 76
36 8 8
21 41 23
83 92 79
6 11 6
72 72 72
82 73 72
8 36 11
79 73 73
79 92 79
72 72 72
72 72 72
72 22 20
14 26 15
89 89 89
73 72 72
29 56 32
89 89 89
35 57 33
63 51 32
141 106 105
11 0 0
126 104 104
29 56 32
111 106 86
54 52 52
15 1 1
90 47 33
90 80 80
86 72 72
16 6 2
95 84 77
102 102 102
104 74 74
10 4 2
33 17 10
33 64 37
106 102 102
78 92 79
23 12 7
20 10 6
72 73 72
25 49 28
55 69 41
69 32 20
25 48 28
72 76 72
79 73 73
30 48 28
25 48 28
22 41 24
39 2 2
76 74 73
93 74 74
17 2 1
72 52 33
76 87 77
102 102 102
92 26 24
0 0 0
65 17 16
78 16 16
110 103 103
81 81 81
65 18 18
72 72 72
5 5 1
100 100 100
99 76 74
0 0 0
0 0 0
34 50 28
8 0 0
25 1 1
71 21 19
0 0 0
80 73 72
111 63 54
75 73 72
15 5 3
31 10 8
85 72 72
102 102 102
72 72 72
64 51 32
74 80 75
79 72 72
26 7 7
72 76 72
78 95 79
15 0 0
82 75 67
37 62 36
78 78 63
0 0 0
88 73 73
78 36 23
72 72 72
25 6 2
16 2 1
117 115 115
20 0 0
9 32 10
70 52 52
92 50 50
99 75 74
109 93 88
72 72 72
69 18 18
59 10 10
110 59 59
32 32 32
49 13 13
104 28 28
40 3 3
0 0 0
82 91 54
10 5 3
99 90 90
26 7 7
0 0 0
78 72 72
1 0 0
105 40 32
99 76 74
80 22 22
95 26 26
37 34 14
16 7 4
70 16 16
99 110 100
113 29 29
21 41 23
110 85 79
23 0 0
8 0 0
68 5 4
29 2 2
18 0 0
89 24 24
102 75 75
80 79 75
37 69 40
71 45 30
77 41 41
40 3 3
72 18 18
140 117 117
38 56 32
29 2 2
102 102 102
80 30 30
89 25 24
29 56 32
50 14 13
0 0 0
68 28 20
48 3 3
39 32 32
87 73 73
106 75 75
68 18 18
109 91 91
61 55 53
0 0 0
47 3 3
99 90 90
97 80 65
34 8 3
75 72 72
73 47 47
6 6 2
105 102 102
47 3 3
68 18 18
93 89 89
68 18 18
74 16 16
68 22 19
72 72 72
83 73 73
43 7 3
74 59 37
68 22 19
36 69 39
50 24 15
102 102 102
60 16 16
40 3 3
0 0 0
0 0 0
42 29 29
42 11 11
76 19 19
6 3 2
0 0 0
68 18 18
0 0 0
5 0 0
82 19 19
123 104 104
0 4 0
25 2 1
132 130 127
55 45 45
95 74 74
72 18 18
68 18 18
74 62 62
72 72 72
37 12 7
29 56 32
117 54 53
25 33 11
97 56 34
4 0 0
72 72 72
71 48 47
46 14 8
1 0 0
99 57 56
72 72 72
88 73 73
76 19 19
24 1 0
77 19 19
34 9 3
49 13 13
83 43 43
0 0 0
103 102 102
99 74 74
38 48 28
100 57 57
32 56 32
58 16 16
49 75 44
61 16 16
0 0 0
102 102 102
64 73 60
5 6 2
0 0 0
28 13 7
78 72 72
47 3 3
5 3 1
110 56 40
76 21 21
78 16 16
96 26 26
23 12 7
56 56 33
54 13 13
92 74 74
0 0 0
17 9 5
74 78 74
12 1 0
76 73 72
58 16 16
0 0 0
0 0 0
0 0 0
0 0 0
72 72 72
72 19 19
78 92 79
100 76 75
53 17 15
66 21 14
23 41 23
47 17 6
58 16 16
104 87 86
97 79 74
7 3 0
70 21 19
2 0 0
20 10 6
7 1 0
29 2 2
16 4 4
58 14 12
58 17 16
17 9 5
77 15 10
0 0 0
42 11 11
64 20 17
32 8 8
19 2 1
2 0 0
48 1 1
24 13 7
47 3 3
0 0 0
92 27 25
99 27 27
13 2 1
41 3 3
68 18 18
0 0 0
0 0 0
72 5 5
20 10 6
68 18 18
0 0 0
0 1 0
0 0 0
0 0 0
0 0 0
0 0 0
0 0 0
0 0 0
0 0 0
0 0 0
0 0 0
0 0 0
0 0 0
0 0 0
0 0 0
0 0 0
0 0 0
0 0 0
0 0 0
0 0 0
0 0 0
0 0 0
0 0 0
0 0 0
0 0 0
0 0 0
0 0 0
0 0 0
0 0 0
0 0 0
0 0 0
10 27 9
26 58 30
0 0 0
0 0 0
23 41 23
25 34 13
13 39 13
41 67 39
29 56 32
23 12 7
11 1 1
49 95 52
1 0 0
34 66 38
8 7 2
0 3 0
19 42 13
10 10 3
14 16 3
0 0 0
30 59 30
10 38 12
28 31 12
0 0 0
24 12 7
3 3 1
18 11 5
20 35 20
23 12 7
8 16 9
47 38 38
70 70 70
61 65 61
11 7 1
16 8 5
2 0 0
76 73 72
5 2 1
21 41 23
68 18 18
3 0 0
7 14 3
0 1 0
50 10 6
22 35 12
72 72 72
3 0 0
72 22 20
72 72 72
78 92 79
9 0 0
18 3 1
32 63 36
25 48 28
69 18 18
62 61 61
31 16 9
35 57 33
39 61 35
33 37 14
47 16 13
53 52 52
44 84 48
13 2 1
73 53 34
68 54 53
24 13 7
20 37 20
58 71 59
68 23 19
14 27 9
74 60 37
78 91 78
57 31 31
11 0 0
25 48 28
39 38 38
58 16 16
30 56 32
72 72 72
96 98 96
76 74 43
77 87 77
71 61 61
1 11 2
68 19 18
13 1 1
73 45 30
10 5 0
12 7 3
4 2 0
6 23 7
106 97 83
115 132 98
29 56 32
1 0 0
72 72 72
6 7 1
29 56 32
37 55 27
34 57 33
38 48 28
99 74 74
31 56 32
72 72 72
0 0 0
7 7 2
49 64 38
61 34 24
9 0 0
74 59 37
20 20 20
72 16 16
74 72 72
60 58 33
8 32 10
99 74 74
107 120 108
29 2 2
0 0 0
104 102 102
31 57 32
30 57 33
49 57 49
76 19 19
31 47 27
75 83 76
68 18 18
78 96 80
69 37 21
37 13 10
18 35 20
58 71 59
0 0 0
52 34 22
33 56 32
106 119 107
29 56 32
73 76 73
0 0 0
55 61 33
31 47 27
25 48 28
89 89 89
72 72 72
32 10 9
0 0 0
59 16 16
29 57 33
78 92 79
39 57 33
29 56 32
25 1 1
29 56 32
25 13 8
3 3 1
49 13 13
53 72 55
0 0 0
79 84 76
69 20 19
77 73 72
58 71 59
13 25 14
0 0 0
74 59 37
29 56 32
23 12 7
58 16 16
83 96 84
73 72 72
29 58 33
0 0 0
0 9 1
81 73 73
16 1 0
17 9 5
16 8 4
73 72 72
87 73 73
52 52 52
21 41 23
102 102 102
29 57 32
0 0 0
88 122 92
58 17 16
92 92 80
0 0 0
72 72 72
53 55 53
29 57 32
89 89 89
83 82 82
59 51 31
112 91 91
87 108 85
86 72 72
0 0 0
101 74 74
20 10 6
46 57 34
9 18 10
42 69 40
29 56 32
0 0 0
56 53 32
54 53 53
2 15 3
43 78 45
37 58 33
1 0 0
8 0 0
53 52 52
0 1 0
57 58 35
20 0 0
63 28 28
29 2 2
71 21 19
43 30 15
76 88 76
8 32 10
73 72 72
25 48 28
85 93 80
0 0 0
68 37 21
72 72 72
105 80 76
88 78 74
75 83 76
8 1 0
108 85 84
74 72 72
78 92 79
68 18 18
7 8 2
54 52 52
69 18 18
82 92 79
0 0 0
94 74 74
16 2 1
34 7 7
0 1 0
19 40 21
89 94 64
15 15 15
34 2 2
75 73 72
12 3 3
100 93 81
95 95 95
29 56 32
0 0 0
80 55 55
77 76 76
0 3 0
138 126 126
103 102 102
0 0 0
62 67 62
40 3 3
25 48 28
72 72 72
6 11 6
72 72 72
2 9 3
84 80 74
141 110 106
68 37 21
82 92 79
6 0 0
0 0 0
0 0 0
18 35 20
73 72 72
72 77 62
41 68 39
76 72 72
0 0 0
83 108 85
117 103 103
24 47 27
77 91 79
98 70 62
93 75 75
90 74 73
29 56 32
68 18 18
9 28 9
99 74 74
1 9 1
55 50 31
25 1 1
9 1 0
58 14 14
58 14 14
52 52 52
24 40 23
29 56 32
26 49 28
72 72 72
0 0 0
1 2 0
2 4 0
72 72 72
68 37 21
40 57 33
111 104 102
0 0 0
78 92 79
11 23 7
24 13 7
0 0 0
65 62 62
11 1 1
76 73 72
68 18 18
96 57 57
29 2 2
73 23 20
68 18 18
79 19 19
17 9 5
9 0 0
90 84 77
1 0 0
0 0 0
61 61 61
117 97 97
146 126 126
25 48 28
99 74 74
72 72 72
82 87 78
6 0 0
58 57 33
103 96 95
105 96 96
24 7 5
61 61 61
59 27 20
102 102 102
74 80 75
109 109 109
0 0 0
41 73 41
19 2 1
72 72 72
38 56 32
76 87 77
29 11 6
68 18 18
70 24 19
83 19 19
99 79 65
25 48 28
40 4 3
120 107 97
68 18 18
72 58 35
25 48 28
0 0 0
79 21 21
72 72 72
25 48 28
102 102 102
83 73 73
29 56 32
103 80 70
79 92 79
70 17 15
75 16 16
85 64 63
79 19 19
79 37 22
49 13 13
58 16 16
14 1 1
57 54 53
0 0 0
40 3 3
45 56 32
99 74 74
29 56 32
0 0 0
58 16 16
74 72 72
89 46 32
72 20 20
117 103 103
94 25 25
23 12 7
68 18 18
53 51 31
59 20 16
17 9 5
26 7 7
11 22 12
0 0 0
74 59 37
91 56 56
82 21 21
19 5 5
49 13 13
72 72 72
67 71 65
60 16 16
58 16 16
87 73 73
49 13 13
94 74 74
74 78 74
46 57 34
62 18 17
0 0 0
7 7 2
0 10 1
31 60 33
85 73 61
0 0 0
78 27 27
1 2 0
77 28 22
69 18 18
26 49 28
87 73 73
73 72 72
51 15 14
47 6 4
20 10 6
68 47 47
68 27 20
11 0 0
0 0 0
21 41 23
68 18 18
68 18 18
68 18 18
73 61 61
50 9 9
68 21 18
39 39 38
103 102 102
52 27 15
31 8 8
56 13 13
148 132 131
32 48 28
37 12 7
134 126 126
26 41 23
20 8 5
28 54 31
20 11 6
68 18 18
40 53 40
104 74 74
21 41 23
81 73 73
43 16 12
3 6 1
58 16 16
68 17 16
61 53 53
52 52 52
41 13 7
34 2 2
100 74 74
0 0 0
78 77 73
118 103 103
17 9 5
54 13 13
58 16 16
61 61 61
80 19 19
84 27 24
99 27 27
5 1 0
53 52 52
54 8 8
61 61 61
92 74 74
0 0 0
72 22 20
0 0 0
76 80 75
60 18 17
54 43 27
34 18 10
64 61 61
38 56 32
26 7 7
21 10 6
9 0 0
65 41 27
22 14 3
72 22 20
73 72 72
82 92 79
56 15 15
16 2 1
26 51 29
77 38 23
61 61 61
58 16 16
60 18 17
105 74 74
102 102 102
6 4 1
20 27 9
113 76 75
40 3 3
8 1 0
2 4 0
19 5 5
10 0 0
48 68 50
89 30 25
99 74 74
0 0 0
70 42 41
124 104 104
35 57 33
60 45 45
64 17 17
0 1 0
69 20 19
76 19 19
29 2 2
64 14 14
99 74 74
8 32 10
82 53 35
0 0 0
20 10 6
25 48 28
15 1 1
25 11 6
63 18 17
10 1 0
10 3 1
44 19 11
90 25 25
19 0 0
77 19 19
43 11 11
72 15 9
36 0 0
0 0 0
79 16 16
20 10 6
40 3 3
2 0 0
70 19 18
68 18 18
68 18 18
0 0 0
27 14 8
8 0 0
47 16 13
0 1 0
27 14 8
69 18 18
0 0 0
78 19 18
64 21 18
96 26 26
14 7 4
0 0 0
0 0 0
0 0 0
0 0 0
0 0 0
0 0 0
0 0 0
0 0 0
0 0 0
0 0 0
0 0 0
0 0 0
0 0 0
0 0 0
0 0 0
0 0 0
0 0 0
0 0 0
0 0 0
0 0 0
0 0 0
0 0 0
0 0 0
0 0 0
0 0 0
0 0 0
0 0 0
0 0 0
13 25 14
1 3 0
0 0 0
34 43 15
27 14 8
35 76 40
25 48 28
0 0 0
16 12 1
7 27 9
0 0 0
0 0 0
29 57 32
29 57 32
20 10 6
0 0 0
8 6 2
26 49 28
23 12 7
28 52 18
32 71 36
45 64 32
37 58 28
29 56 32
44 61 34
10 39 13
20 11 6
24 27 10
0 0 0
0 4 0
34 2 2
42 20 13
74 78 74
69 19 18
35 68 39
69 19 18
23 12 7
59 13 13
89 89 89
75 83 76
4 2 1
29 56 32
86 94 84
25 50 28
24 45 22
78 75 72
23 12 7
62 4 4
69 101 72
70 24 24
75 83 76
72 72 72
0 7 0
68 83 70
6 23 7
82 104 84
36 10 10
17 0 0
23 30 17
80 95 80
13 1 1
0 1 0
46 58 34
78 92 79
1 2 0
69 72 43
0 0 0
21 41 23
93 95 81
60 58 35
20 10 6
21 41 23
29 56 32
59 35 35
37 13 10
14 7 4
67 70 63
41 80 46
1 3 0
0 0 0
78 92 79
68 18 18
80 56 55
76 87 76
0 0 0
58 73 60
79 98 80
79 92 79
67 96 70
72 72 72
0 0 0
41 80 46
90 101 83
59 67 39
109 117 107
17 4 2
76 87 77
0 0 0
25 48 28
76 87 77
25 48 28
0 0 0
21 41 23
72 72 72
0 1 0
103 85 79
94 78 75
35 68 39
27 0 0
72 72 72
61 62 61
72 75 72
38 74 43
40 6 3
72 72 72
62 44 28
29 56 32
9 36 12
21 1 1
30 56 32
25 52 28
41 56 32
16 24 8
107 109 105
55 63 56
34 52 29
2 7 1
36 10 10
6 23 7
130 103 92
104 119 91
15 9 5
73 79 73
78 92 79
62 70 62
31 57 33
72 72 72
58 71 59
0 0 0
26 51 29
61 61 61
84 92 79
79 87 77
88 80 74
39 79 44
72 72 72
51 69 51
110 110 88
57 67 58
58 16 16
81 85 76
0 0 0
72 72 72
62 66 62
25 48 28
35 60 33
78 72 72
72 72 72
31 57 32
69 100 72
49 13 13
129 115 108
18 35 20
0 0 0
0 0 0
78 92 79
72 72 72
29 56 32
0 0 0
0 0 0
23 42 24
18 1 1
15 30 17
74 60 37
0 0 0
42 75 43
20 10 6
90 29 21
47 3 3
62 61 36
0 0 0
76 87 77
103 103 102
0 0 0
31 57 33
72 72 72
99 74 74
0 0 0
81 48 48
72 72 72
0 0 0
74 73 72
28 48 28
5 20 6
29 56 32
78 92 79
78 92 79
61 61 61
74 59 37
0 0 0
105 107 104
49 13 13
125 125 125
75 83 76
72 22 20
83 95 57
54 18 15
30 57 32
15 1 1
63 76 45
78 92 79
79 19 19
71 20 19
91 86 77
70 42 28
17 25 8
86 74 73
9 36 12
1 0 0
126 128 126
106 83 83
58 16 16
74 72 72
44 16 10
72 72 72
18 35 20
47 3 3
39 47 39
66 62 38
29 2 2
58 71 59
8 32 10
0 0 0
75 77 72
21 41 23
115 117 108
72 72 72
51 61 40
74 72 72
105 102 102
0 0 0
9 32 10
25 48 28
74 61 55
25 48 28
14 0 0
117 117 108
78 92 79
77 72 72
0 0 0
84 75 73
11 0 0
112 109 109
69 20 19
40 3 3
104 110 105
74 101 77
65 59 36
0 0 0
4 4 1
92 27 25
10 19 11
73 52 33
25 1 1
75 84 76
25 32 10
56 52 52
47 52 47
117 97 97
30 56 32
61 61 61
101 85 78
21 41 23
79 74 73
68 18 18
73 72 72
140 139 139
14 31 15
0 0 0
105 102 102
102 102 102
31 41 24
24 42 21
91 107 84
20 10 6
72 72 72
17 9 5
18 9 5
74 73 72
30 61 33
89 89 89
72 72 72
27 3 1
0 4 0
77 87 77
34 4 2
132 125 125
72 72 72
42 11 11
0 0 0
12 11 2
0 0 0
69 20 19
63 51 32
30 2 2
0 0 0
58 16 16
75 73 72
73 81 73
57 67 58
142 106 106
33 13 7
65 18 18
101 82 77
101 74 74
68 18 18
73 72 72
5 17 5
73 72 72
72 72 72
37 70 40
64 53 53
3 0 0
18 22 12
68 18 18
5 6 2
12 14 5
13 33 11
132 134 128
66 18 18
0 0 0
26 7 7
125 114 107
88 73 73
35 14 10
72 22 20
0 0 0
64 14 14
72 72 72
79 16 16
13 2 1
102 102 102
83 73 73
0 0 0
72 72 72
82 72 72
41 38 38
112 102 102
125 125 125
39 8 8
54 53 52
71 40 28
58 16 16
0 0 0
23 8 6
98 97 95
25 13 3
0 0 0
73 72 72
94 74 74
79 51 31
73 76 72
25 48 28
9 6 2
117 103 103
0 0 0
0 0 0
90 33 26
6 23 7
47 8 3
48 11 11
21 41 23
42 11 11
94 64 64
92 64 64
32 57 32
73 72 72
7 7 2
4 4 1
41 49 28
92 27 25
92 25 25
83 92 79
47 33 33
43 70 40
16 30 17
62 62 62
30 59 32
89 74 73
36 10 10
116 115 106
102 75 75
0 0 0
0 0 0
45 45 45
89 89 89
0 0 0
29 2 2
123 104 104
11 20 11
72 72 72
72 72 72
108 108 108
1 0 0
25 1 1
2 0 0
11 1 1
5 0 0
0 0 0
68 18 18
73 77 72
55 35 27
88 80 73
124 95 83
14 7 4
13 18 10
75 60 38
102 65 65
50 45 45
28 1 0
72 72 72
72 72 72
73 72 72
1 3 0
82 23 22
29 56 32
45 87 50
10 5 3
48 58 33
93 74 74
57 54 53
77 19 19
54 52 52
53 72 55
81 73 73
0 0 0
52 52 52
13 2 1
5 0 0
86 25 24
72 72 72
47 3 3
132 98 98
8 0 0
99 74 74
68 18 18
113 105 103
26 7 7
76 73 72
49 13 13
0 0 0
25 48 28
36 12 10
24 1 0
0 0 0
71 19 19
131 93 93
0 0 0
103 74 74
76 20 20
35 57 33
74 18 18
107 27 27
4 0 0
50 14 13
41 49 29
70 16 16
72 62 38
42 43 25
77 55 55
67 52 32
72 72 72
67 5 5
23 1 0
72 72 72
34 57 33
18 35 20
72 72 72
3 3 1
76 21 21
52 52 52
49 13 13
51 13 13
83 76 76
68 18 18
72 72 72
136 134 128
7 27 9
76 72 72
72 72 72
23 0 0
101 74 74
84 23 23
4 0 0
0 0 0
72 19 19
107 27 27
23 12 7
12 7 3
72 54 54
40 3 3
83 72 72
58 16 16
79 75 73
76 74 72
109 75 75
68 14 14
50 13 13
99 57 57
82 19 19
61 17 17
52 17 14
105 84 84
156 141 141
15 19 7
5 0 0
59 17 16
82 66 66
16 2 1
49 14 13
0 0 0
27 30 17
24 12 7
42 11 11
95 95 95
41 12 7
58 12 12
0 0 0
96 73 73
58 16 16
57 15 15
0 0 0
0 0 0
30 65 34
90 80 74
64 16 16
48 11 7
51 13 13
35 41 23
46 32 20
28 7 7
64 14 14
62 13 8
55 5 4
89 24 24
77 22 21
68 19 18
68 18 18
68 15 9
29 14 8
28 14 8
20 0 0
0 0 0
25 4 1
71 21 19
65 13 8
28 2 2
41 12 7
0 0 0
68 18 18
0 0 0
80 16 16
34 14 8
42 11 11
31 14 8
20 10 6
4 0 0
84 26 23
80 24 22
21 2 1
16 2 1
40 3 3
0 0 0
0 0 0
0 0 0
0 0 0
0 0 0
0 0 0
0 0 0
0 0 0
0 0 0
0 0 0
0 0 0
0 0 0
0 0 0
0 0 0
0 0 0
0 0 0
0 0 0
0 0 0
0 0 0
0 0 0
0 0 0
0 0 0
0 0 0
0 0 0
0 0 0
0 0 0
0 0 0
5 0 0
10 38 12
31 68 35
1 2 0
12 38 12
25 48 28
10 19 9
35 66 38
39 69 40
40 70 38
0 0 0
9 7 2
30 57 32
26 48 28
23 12 7
38 74 43
2 0 0
0 0 0
25 48 28
26 35 13
0 0 0
16 22 4
5 15 5
4 1 0
3 14 4
5 5 1
26 28 9
46 93 51
14 7 4
31 22 9
0 0 0
0 0 0
72 72 72
17 34 18
5 20 6
10 18 4
72 72 72
10 5 3
26 51 29
0 0 0
25 48 28
49 4 3
37 58 33
105 114 106
93 54 37
30 58 33
10 5 3
11 0 0
23 12 7
77 72 72
65 51 32
102 106 102
110 110 109
72 72 72
73 72 72
29 56 32
22 41 24
74 72 72
1 0 0
21 41 23
8 0 0
106 94 81
70 94 67
23 12 7
77 78 73
42 11 11
58 16 16
4 5 0
21 41 23
0 0 0
19 35 20
42 82 47
99 74 74
25 48 28
79 19 19
78 93 79
33 65 34
10 27 9
10 1 0
68 66 40
44 65 38
31 59 33
37 30 17
41 80 46
0 0 0
69 39 24
91 74 74
5 5 1
75 20 20
27 23 8
78 92 79
49 13 13
79 92 79
0 0 0
20 10 6
7 0 0
53 58 35
99 74 74
119 111 106
110 100 83
81 102 83
75 101 77
0 0 0
7 0 0
0 0 0
2 2 0
72 72 72
68 18 18
23 12 7
67 67 54
31 32 13
25 48 28
17 9 5
76 80 73
37 56 32
76 80 47
77 87 77
23 12 7
64 58 54
20 10 6
17 0 0
41 16 11
102 102 102
73 20 20
49 56 32
37 75 41
128 113 113
125 125 125
72 52 33
74 37 25
41 38 38
12 16 4
0 0 0
0 0 0
74 79 73
50 49 30
52 53 52
13 32 10
72 72 72
0 0 0
62 81 47
50 14 13
16 1 1
72 72 72
89 107 90
77 80 75
74 59 37
41 73 41
46 90 52
0 1 0
33 54 27
19 28 13
0 0 0
29 56 32
19 4 1
55 63 56
25 45 22
4 2 1
0 0 0
29 56 32
0 0 0
80 85 80
52 47 45
68 27 20
72 72 72
29 60 33
36 70 40
5 5 1
76 73 72
66 52 52
95 74 74
101 110 96
2 15 3
77 77 77
22 6 3
29 57 32
29 57 33
11 1 0
122 110 89
25 48 28
80 95 80
11 2 0
75 72 72
41 71 40
117 120 108
77 53 34
75 73 72
71 45 30
21 13 6
102 102 102
68 19 18
71 28 20
1 11 2
80 100 82
0 0 0
72 72 72
102 102 102
73 72 72
65 51 32
6 23 7
15 4 1
49 13 13
18 35 20
58 16 16
63 68 64
97 103 98
0 0 0
81 93 79
26 51 29
1 0 0
83 73 73
66 87 50
123 84 78
71 47 30
75 83 76
29 57 32
47 61 33
17 9 5
1 0 0
31 8 8
1 1 0
84 91 84
102 102 102
72 72 72
0 0 0
35 68 39
32 57 33
47 3 3
79 72 72
37 67 38
86 87 77
0 0 0
71 45 30
72 77 72
99 74 74
20 10 6
20 10 6
89 81 76
106 102 102
109 63 43
18 11 5
5 6 2
72 79 73
86 56 56
1 2 0
87 99 87
50 61 51
58 17 16
73 72 72
99 74 74
102 93 90
36 10 10
29 60 33
94 79 65
29 56 32
20 10 6
76 79 74
77 73 44
22 27 9
94 81 76
17 9 5
49 38 24
9 17 5
95 95 95
18 35 20
72 72 72
68 19 19
0 0 0
68 18 18
76 87 77
101 67 61
44 13 11
2 0 0
80 72 72
64 87 66
102 102 102
74 58 36
0 0 0
2 18 3
68 18 18
102 102 102
72 35 22
85 83 76
89 91 89
66 25 19
122 115 107
21 41 23
77 83 76
51 46 45
72 72 72
72 72 60
92 108 86
77 90 79
99 74 74
59 16 16
76 79 74
34 2 2
32 0 0
121 82 79
14 7 4
54 24 24
63 12 12
41 6 4
58 53 53
70 21 16
48 43 26
78 92 79
68 18 18
89 89 89
46 40 39
72 72 72
59 62 36
14 7 4
55 4 4
102 102 102
86 92 80
72 79 73
5 18 3
39 19 13
47 80 46
95 95 95
47 3 3
85 92 79
81 48 48
0 0 0
13 0 0
0 0 0
55 13 13
47 3 3
18 35 20
7 0 0
86 36 27
120 33 33
87 73 73
72 79 73
46 12 11
76 73 72
58 48 46
12 6 3
0 0 0
0 0 0
18 35 20
1 8 0
68 18 18
2 2 0
86 72 72
90 89 89
76 19 19
20 10 6
0 0 0
61 61 61
11 28 9
84 72 72
49 13 13
3 0 0
76 73 72
96 26 26
5 0 0
102 102 102
95 95 95
136 105 105
112 120 104
94 106 95
23 21 12
88 85 77
53 53 52
120 104 94
110 74 74
54 53 52
0 0 0
79 77 74
8 7 2
68 83 70
31 8 8
0 0 0
2 0 0
50 34 34
0 0 0
29 36 21
50 27 15
72 72 72
103 74 74
5 1 0
13 2 1
70 19 19
72 72 72
7 4 2
136 37 37
3 4 0
87 82 82
70 20 19
49 13 13
45 45 45
28 7 2
113 108 97
58 4 4
72 72 72
78 51 43
0 0 0
58 49 29
68 59 36
82 72 72
84 33 24
75 72 72
102 102 102
0 1 0
14 9 1
76 27 21
36 10 8
80 92 79
0 0 0
125 104 104
1 9 1
123 104 104
73 61 61
95 95 95
68 18 18
90 25 25
81 73 73
82 54 54
70 40 27
74 75 72
86 44 44
68 18 18
93 28 25
89 24 24
18 1 1
15 1 1
82 72 72
7 20 6
68 18 18
74 62 62
81 37 28
31 56 32
68 19 19
58 16 16
68 18 18
75 72 72
77 72 44
95 56 56
38 38 38
20 0 0
18 30 17
52 52 52
93 74 74
35 11 6
1 0 0
0 0 0
25 1 1
56 57 33
100 75 74
18 35 20
70 54 54
102 114 96
99 74 74
30 12 8
79 92 79
78 72 72
89 97 89
30 57 32
32 32 32
68 68 41
65 59 55
96 73 73
78 55 55
21 1 1
40 14 10
68 19 18
1 2 0
61 61 61
0 0 0
106 75 75
72 72 72
46 11 11
74 47 47
12 0 0
31 8 8
98 25 25
74 59 37
47 38 23
5 20 6
76 73 72
43 12 12
72 72 72
77 73 72
49 3 3
68 18 18
72 45 30
80 62 39
0 0 0
9 18 10
34 50 28
51 3 3
68 18 18
3 0 0
0 0 0
62 18 15
68 18 18
74 59 37
29 56 32
49 13 10
46 48 45
47 43 26
0 0 0
42 11 11
124 105 105
73 30 21
72 72 72
24 13 7
32 43 25
25 0 0
77 68 55
75 65 40
5 5 1
1 0 0
16 2 1
5 0 0
51 13 13
94 81 76
0 0 0
73 18 18
97 26 26
94 77 74
72 20 20
75 73 72
71 48 47
29 56 32
92 25 24
99 74 74
43 20 11
4 0 0
8 1 0
0 0 0
58 16 16
71 19 19
79 73 72
87 73 73
20 0 0
4 0 0
79 93 79
72 72 72
58 16 16
71 19 19
31 3 2
116 32 30
71 13 8
68 18 18
82 22 22
61 15 9
49 13 13
38 4 3
51 4 4
82 24 23
58 18 16
79 22 20
0 0 0
83 23 22
79 22 22
7 2 2
7 7 2
0 0 0
0 0 0
76 5 5
68 5 5
63 20 17
22 3 1
27 4 2
68 18 18
20 10 6
72 23 20
64 14 14
1 0 0
12 3 1
0 0 0
0 0 0
0 0 0
0 0 0
0 0 0
0 0 0
0 0 0
0 0 0
0 0 0
0 0 0
0 0 0
0 0 0
0 0 0
0 0 0
0 0 0
0 0 0
0 0 0
0 0 0
0 0 0
0 0 0
0 0 0
0 0 0
0 0 0
0 0 0
0 0 0
0 0 0
0 0 0
31 68 35
19 36 20
4 0 0
4 0 0
17 9 5
6 3 0
27 14 8
32 78 37
7 27 9
25 48 28
2 4 0
0 2 0
65 119 67
32 68 35
38 74 43
0 0 0
10 38 12
9 9 3
33 76 36
37 51 29
26 49 28
46 81 46
13 2 1
34 18 10
29 57 32
23 12 7
31 69 35
13 46 15
0 0 0
20 10 6
25 54 29
54 43 27
52 52 52
42 11 11
6 6 2
74 72 72
37 54 34
68 18 18
40 75 43
20 0 0
16 2 1
10 5 3
47 80 46
11 24 7
65 62 62
0 0 0
31 8 8
0 0 0
47 91 52
9 35 11
17 9 5
68 88 70
16 28 10
0 0 0
23 0 0
29 56 32
72 72 72
49 13 13
29 2 2
75 83 76
0 0 0
87 118 90
36 43 24
23 12 7
57 67 58
0 0 0
19 45 22
34 48 28
14 16 3
22 47 25
31 56 32
5 6 2
69 29 20
29 60 33
8 32 10
102 102 102
3 14 4
14 3 3
42 85 47
32 32 32
29 63 33
8 8 2
23 12 7
77 93 78
72 72 72
29 56 32
29 56 32
0 0 0
4 0 0
72 77 72
80 99 82
76 73 72
9 4 2
0 0 0
78 92 79
38 39 38
49 13 13
30 15 9
29 60 33
32 63 36
0 0 0
0 0 0
25 48 28
30 56 32
79 55 55
72 72 72
31 30 17
17 9 5
61 53 53
49 90 52
28 8 4
82 81 81
75 74 72
79 54 34
17 9 5
31 57 32
8 32 10
14 8 4
102 102 102
78 95 79
73 74 73
0 0 0
20 21 20
60 16 16
38 74 43
65 71 63
137 129 121
18 36 20
73 52 33
29 56 32
29 56 32
78 92 79
29 56 32
17 9 5
76 75 72
78 92 79
5 0 0
72 72 72
81 73 73
33 30 17
0 0 0
49 14 13
99 74 74
4 0 0
1 0 0
17 17 7
76 33 21
21 41 23
37 74 42
0 0 0
51 69 50
32 63 34
78 72 72
0 0 0
75 73 72
0 0 0
0 0 0
36 71 40
37 34 14
93 54 37
0 0 0
74 59 37
1 0 0
0 0 0
29 56 32
40 3 3
107 105 102
101 75 75
78 92 79
54 53 52
73 72 72
33 64 37
78 92 79
29 63 33
76 87 76
2 0 0
15 27 9
102 102 102
37 58 33
49 13 13
103 106 103
29 56 32
75 83 76
4 2 0
57 41 24
25 48 28
72 72 72
58 16 16
29 58 32
23 24 14
54 12 12
29 56 32
61 61 61
41 80 46
23 12 7
32 56 32
123 104 104
34 50 28
29 56 32
72 56 32
25 34 13
54 51 29
6 2 0
101 75 75
5 5 1
62 61 61
59 15 15
109 75 75
76 72 72
16 30 17
38 66 38
83 108 85
119 119 119
83 73 73
104 75 69
99 79 75
0 0 0
29 56 32
76 87 77
58 16 16
10 30 9
76 87 77
83 73 72
73 72 72
77 85 76
81 87 53
74 80 75
68 18 18
0 0 0
34 2 2
48 13 13
105 113 106
73 72 72
55 80 47
8 32 10
29 60 32
75 83 76
97 73 73
0 0 0
31 56 32
72 72 72
72 72 72
135 113 113
13 16 5
14 6 3
0 0 0
68 79 68
104 103 102
58 16 16
111 103 103
72 72 72
88 68 43
72 72 72
81 75 73
72 72 72
16 37 15
93 74 74
59 16 16
72 75 72
32 0 0
0 0 0
54 53 53
80 22 22
21 0 0
35 8 4
58 52 46
49 13 13
0 0 0
59 16 16
73 76 73
20 18 7
29 56 32
30 58 33
74 59 37
67 59 36
126 125 125
30 57 32
103 108 104
59 58 54
0 0 0
67 16 12
23 9 5
83 72 72
72 72 72
31 8 8
71 19 19
29 56 32
123 104 104
75 75 75
30 17 9
102 57 57
49 32 11
81 87 77
73 83 70
72 72 72
68 18 18
51 14 14
56 49 49
19 0 0
49 13 13
68 37 21
107 107 107
73 54 54
80 99 82
127 104 104
78 54 34
43 30 17
15 27 9
0 7 0
114 93 91
84 92 79
142 129 127
87 104 84
72 74 72
99 74 74
74 72 72
29 42 24
81 73 73
96 105 93
0 0 0
76 69 43
79 63 63
0 1 0
29 56 32
21 43 24
68 19 19
3 12 4
0 0 0
100 75 74
125 104 104
3 0 0
74 80 75
72 72 72
93 40 31
81 77 47
73 20 19
107 102 102
78 92 79
0 0 0
68 62 62
72 72 72
72 72 72
89 89 89
0 0 0
0 0 0
8 22 6
81 48 48
92 74 74
68 18 18
83 76 73
75 53 34
62 29 18
71 65 63
121 77 77
74 74 72
101 74 74
88 23 23
29 56 32
88 85 85
23 12 7
65 59 36
75 38 38
0 0 0
0 0 0
0 0 0
111 96 96
109 75 75
147 90 85
0 0 0
99 65 65
70 15 15
10 1 0
50 13 13
81 21 21
109 63 43
11 22 12
67 16 16
21 13 6
84 23 23
99 75 74
83 19 19
74 80 75
76 76 76
61 19 17
87 73 73
58 16 16
75 83 76
92 64 64
19 0 0
60 64 38
0 0 0
115 117 115
94 74 74
64 87 66
74 73 72
32 32 32
23 0 0
58 28 18
68 18 18
75 38 38
115 102 102
104 48 34
36 70 40
72 72 72
81 81 81
26 48 28
0 0 0
51 38 38
75 73 72
16 30 17
68 18 18
62 19 17
29 12 7
51 58 34
106 117 107
36 49 28
29 2 2
42 40 38
29 7 7
18 35 20
16 4 4
4 4 1
91 55 55
6 3 0
0 0 0
30 4 4
73 20 20
1 0 0
11 0 0
46 45 45
16 2 2
71 18 18
102 79 76
49 13 13
93 74 74
85 92 80
0 0 0
57 50 31
34 11 9
105 110 105
26 27 9
79 19 19
33 32 32
73 20 20
74 73 72
81 64 57
58 16 16
72 72 72
42 11 11
9 35 11
4 4 1
94 76 68
58 16 16
68 20 19
72 72 72
58 16 16
110 103 103
14 32 10
58 16 16
25 48 28
73 72 72
47 3 3
0 0 0
14 7 4
95 97 95
93 73 67
0 0 0
34 18 5
25 16 3
1 13 2
43 13 11
28 28 28
68 20 18
54 17 15
101 101 93
92 74 74
2 0 0
34 8 8
78 92 79
46 57 34
0 0 0
7 27 9
22 41 23
112 65 44
17 2 1
47 3 3
52 35 20
76 21 21
72 72 72
46 45 45
72 72 72
78 20 19
29 2 2
7 7 2
0 0 0
92 25 25
36 15 9
0 0 0
123 68 68
46 13 7
87 24 21
114 67 67
72 73 65
3 0 0
6 0 0
122 76 76
22 4 1
42 10 10
70 16 16
124 76 76
9 0 0
80 72 72
5 0 0
136 37 37
61 61 61
83 32 24
71 21 19
3 0 0
3 4 1
0 0 0
30 2 1
22 10 6
8 1 0
71 53 53
103 102 102
68 68 41
68 18 18
72 72 72
0 0 0
103 95 95
16 29 16
55 53 53
86 20 20
17 8 4
61 30 18
88 73 73
76 19 19
95 86 86
49 13 13
50 22 14
72 72 72
40 3 3
68 18 18
84 23 23
42 10 10
61 16 16
96 27 26
33 17 10
85 29 24
5 0 0
20 0 0
96 26 26
20 3 1
5 0 0
15 10 4
54 8 8
88 22 22
0 0 0
47 7 4
14 1 1
10 1 0
79 22 22
74 24 20
2 0 0
58 16 16
0 0 0
0 0 0
58 16 16
11 1 0
14 9 4
82 22 22
87 26 24
0 0 0
0 0 0
0 0 0
0 0 0
0 0 0
0 0 0
0 0 0
0 0 0
0 0 0
0 0 0
0 0 0
0 0 0
0 0 0
0 0 0
0 0 0
0 0 0
0 0 0
0 0 0
0 0 0
0 0 0
0 0 0
0 0 0
0 0 0
0 0 0
0 0 0
0 0 0
0 0 0
0 0 0
0 0 0
8 8 2
18 35 20
3 3 1
3 0 0
34 66 38
41 21 12
40 58 33
15 27 15
40 67 38
43 80 46
0 0 0
45 59 34
5 20 6
5 6 2
50 69 40
25 48 28
0 2 0
37 20 11
13 2 1
0 0 0
12 46 15
29 56 32
34 66 38
25 48 28
27 15 8
32 78 37
20 12 6
29 34 13
40 76 43
36 19 11
18 22 8
2 0 0
25 48 28
82 97 81
0 0 0
18 35 20
72 72 72
13 20 7
72 72 72
24 20 8
12 10 3
103 84 80
37 30 17
80 100 82
1 0 0
17 9 5
53 52 52
72 77 72
77 90 78
78 61 38
25 50 28
55 69 51
5 17 5
79 109 81
98 85 78
86 87 77
123 104 104
73 73 72
35 41 23
71 21 19
21 41 23
31 57 32
78 68 63
18 4 1
27 42 24
99 74 74
68 83 70
36 71 40
79 70 43
20 11 6
22 42 24
0 0 0
36 59 33
72 72 72
24 12 7
31 21 9
24 12 7
1 2 0
68 19 19
113 102 98
30 65 34
0 3 0
73 72 72
98 92 90
46 57 34
50 27 15
102 103 102
5 8 1
41 80 46
57 39 25
45 41 24
57 44 27
3 3 1
21 41 23
78 82 64
41 75 43
68 18 18
29 56 32
100 112 100
3 14 4
29 56 32
72 56 54
51 42 19
72 72 72
72 22 20
0 0 0
68 26 19
59 47 45
37 32 9
79 72 72
34 51 29
82 104 84
77 76 46
41 56 32
5 20 6
0 0 0
78 92 79
68 85 70
0 0 0
97 106 95
92 74 74
111 86 84
70 84 70
34 7 2
0 0 0
80 98 82
97 93 81
20 10 6
41 80 46
12 6 3
102 102 102
1 13 2
38 38 22
102 104 102
72 72 72
68 18 18
5 0 0
79 92 79
42 12 11
49 13 13
75 83 76
25 48 28
45 42 24
47 74 43
35 73 39
31 12 7
37 77 42
12 10 4
74 75 73
36 49 28
68 18 18
84 89 84
85 73 73
83 107 85
37 57 33
101 75 74
136 105 105
73 79 73
76 69 43
10 40 13
79 89 77
37 10 10
117 122 117
0 0 0
25 35 18
0 0 0
29 56 32
68 70 64
72 72 72
33 21 11
26 58 30
107 96 96
72 74 72
15 31 10
106 133 109
94 56 55
78 92 79
68 39 21
34 56 32
71 74 53
102 107 102
81 93 79
44 11 11
72 72 72
88 73 73
72 72 72
18 35 20
74 38 26
78 72 72
72 72 72
0 0 0
49 14 13
72 72 72
0 0 0
68 26 19
61 66 48
74 72 72
60 75 60
29 56 32
0 0 0
30 48 28
86 84 77
45 